;FLAVOR:Marlin
;TIME:7889
;Filament used: 6.39584m
;Layer height: 0.3
;MINX:43.78
;MINY:35.895
;MINZ:0.3
;MAXX:179.22
;MAXY:199.685
;MAXZ:9.9
;Generated with Cura_SteamEngine 5.2.1
M140 S60
M105
M190 S60
M104 S250
M105
M109 S250
M82 ;absolute extrusion mode
G21 ;metric values
G90 ;absolute positioning
M82 ;set extruder to absolute mode
M107 ;start with the fan off
G28 Z0 ;move Z to bottom endstops
G28 X0 Y0 ;move X/Y to endstops
G1 X15 Y0 F4000 ;move X/Y to front of printer
G1 Z15.0 F9000 ;move the platform to 15mm
G92 E0 ;zero the extruded length
G1 F200 E10 ;extrude 10 mm of feed stock
G92 E0 ;zero the extruded length again
G1 Y50 F9000
;Put printing message on LCD screen
M117 Printing...
G92 E0
G92 E0
G1 F1500 E-6.5
;LAYER_COUNT:33
;LAYER:0
M107
G0 F5040 X43.936 Y36.36 Z0.3
;TYPE:SKIRT
G1 F1500 E0
G1 F2100 X44.119 Y36.145 E0.00531
G1 X44.355 Y35.991 E0.01061
G1 X44.664 Y35.896 E0.01669
G1 X122.93 Y35.895 E1.48892
G1 X123.318 Y36.07 E1.49693
G1 X179.03 Y86.112 E2.90559
G1 X179.22 Y86.543 E2.91445
G1 X179.22 Y136.701 E3.85795
G1 X178.881 Y137.236 E3.86986
G1 X178.645 Y137.39 E3.87516
G1 X178.336 Y137.485 E3.88124
G1 X75.52 Y137.485 E5.81527
G1 X75.52 Y177.945 E6.57635
G1 X81.48 Y177.945 E6.68846
G1 X81.48 Y170.537 E6.8278
G1 X81.664 Y170.129 E6.83622
G1 X83.889 Y167.904 E6.89541
G1 X84.308 Y167.745 E6.90384
G1 X92.428 Y167.745 E7.05659
G1 X92.836 Y167.929 E7.065
G1 X98.061 Y173.154 E7.204
G1 X98.22 Y173.573 E7.21243
G1 X98.22 Y193.893 E7.59466
G1 X98.036 Y194.301 E7.60308
G1 X92.811 Y199.526 E7.74208
G1 X92.392 Y199.685 E7.75051
G1 X59.572 Y199.685 E8.36787
G1 X59.164 Y199.501 E8.37629
G1 X43.939 Y184.276 E8.78131
G1 X43.78 Y183.857 E8.78974
G1 X43.78 Y36.706 E11.55773
G1 X43.936 Y36.36 E11.56487
G0 F5040 X44.333 Y36.495
G1 F2100 X44.506 Y36.362 E11.56897
G1 X44.78 Y36.296 E11.57427
G1 X122.89 Y36.295 E13.04357
G1 X123.141 Y36.449 E13.04911
G1 X178.738 Y86.387 E14.45485
G1 X178.82 Y86.728 E14.46145
G1 X178.82 Y136.485 E15.3974
G1 X178.667 Y136.886 E15.40548
G1 X178.494 Y137.019 E15.40958
G1 X178.22 Y137.085 E15.41488
G1 X75.12 Y137.085 E17.35425
G1 X75.12 Y178.345 E18.13038
G1 X81.88 Y178.345 E18.25754
G1 X81.88 Y170.573 E18.40373
G1 X82.056 Y170.303 E18.40979
G1 X84.147 Y168.212 E18.46542
G1 X84.462 Y168.145 E18.47148
G1 X92.392 Y168.145 E18.62064
G1 X92.662 Y168.321 E18.62671
G1 X97.753 Y173.412 E18.76214
G1 X97.82 Y173.727 E18.7682
G1 X97.82 Y193.857 E19.14685
G1 X97.644 Y194.127 E19.15292
G1 X92.553 Y199.218 E19.28835
G1 X92.238 Y199.285 E19.29441
G1 X59.608 Y199.285 E19.90819
G1 X59.338 Y199.109 E19.91426
G1 X44.247 Y184.018 E20.31571
G1 X44.18 Y183.703 E20.32177
G1 X44.18 Y36.747 E23.08609
G1 X44.333 Y36.495 E23.09164
G0 F5040 X44.58 Y36.797
G1 F2100 X44.78 Y36.696 E23.09585
G1 X122.74 Y36.695 E24.56232
G1 X122.874 Y36.746 E24.56502
G1 X178.354 Y86.579 E25.96781
G1 X178.42 Y86.728 E25.97087
G1 X178.42 Y136.584 E26.90869
G1 X178.22 Y136.685 E26.91291
G1 X74.72 Y136.685 E28.8598
G1 X74.72 Y178.745 E29.65097
G1 X82.28 Y178.745 E29.79318
G1 X82.28 Y170.727 E29.944
G1 X82.339 Y170.586 E29.94688
G1 X84.321 Y168.604 E29.9996
G1 X84.462 Y168.545 E30.00248
G1 X92.238 Y168.545 E30.14875
G1 X92.379 Y168.604 E30.15162
G1 X97.361 Y173.586 E30.28416
G1 X97.42 Y173.727 E30.28703
G1 X97.42 Y193.703 E30.66279
G1 X97.361 Y193.844 E30.66567
G1 X92.379 Y198.826 E30.7982
G1 X92.238 Y198.885 E30.80107
G1 X59.762 Y198.885 E31.41196
G1 X59.621 Y198.826 E31.41484
G1 X44.639 Y183.844 E31.81339
G1 X44.58 Y183.703 E31.81627
G1 X44.58 Y36.797 E34.57965
G1 F1500 E28.07965
;MESH:slice.3mf
G0 F5040 X45.98 Y38.096
G0 X45.944 Y183.222
G0 X60.243 Y197.52
G0 X91.757 Y197.521
G0 X96.056 Y193.222
G0 X96.056 Y174.208
G0 X91.757 Y169.909
G0 X84.943 Y169.909
G0 X83.644 Y171.208
G0 X83.287 Y179.781
G0 X73.707 Y179.774
G0 X73.686 Y135.676
G1 F1500 E34.57965
G0 F5040 X74.32 Y136.428
;TYPE:WALL-OUTER
G1 F2100 X74.503 Y136.285 E34.58402
G1 X178.02 Y136.285 E36.53123
G1 X178.02 Y86.819 E37.46172
G1 X122.663 Y37.095 E38.86141
G1 X44.98 Y37.096 E40.32267
G1 X44.98 Y183.622 E43.07891
G1 X59.843 Y198.484 E43.47428
G1 X92.157 Y198.485 E44.08213
G1 X97.02 Y193.622 E44.21149
G1 X97.02 Y173.808 E44.58421
G1 X92.157 Y168.945 E44.71357
G1 X84.543 Y168.945 E44.8568
G1 X82.68 Y170.808 E44.90636
G1 X82.678 Y178.98 E45.06007
G1 X82.561 Y179.145 E45.06388
G1 X74.471 Y179.14 E45.21606
G1 X74.322 Y178.979 E45.22018
G1 X74.32 Y136.428 E46.02059
G0 F5040 X74.477 Y136.305
G0 X74.051 Y136.109
;TYPE:WALL-INNER
G1 F2100 X74.254 Y135.946 E46.02549
G1 X74.486 Y135.885 E46.03
G1 X177.62 Y135.885 E47.97001
G1 X177.62 Y86.997 E48.88962
G1 X122.51 Y37.495 E50.28307
G1 X45.38 Y37.496 E51.73393
G1 X45.38 Y183.456 E54.47952
G1 X60.009 Y198.084 E54.86867
G1 X91.991 Y198.085 E55.47027
G1 X96.62 Y193.456 E55.59341
G1 X96.62 Y173.974 E55.95987
G1 X91.991 Y169.345 E56.08301
G1 X84.709 Y169.345 E56.21999
G1 X83.08 Y170.974 E56.26333
G1 X83.08 Y179.017 E56.41462
G1 X83.002 Y179.243 E56.41912
G1 X82.776 Y179.468 E56.42512
G1 X82.534 Y179.543 E56.42988
G1 X74.375 Y179.543 E56.58336
G1 X74.099 Y179.374 E56.58945
G1 X73.92 Y179.094 E56.5957
G1 X73.92 Y136.452 E57.39782
G1 X74.051 Y136.109 E57.40472
G0 F5040 X73.853 Y135.911
G0 X73.684 Y179.261
G0 X83.041 Y179.774
G1 F2100 X82.569 Y179.942 E57.41415
G1 X74.384 Y179.942 E57.56811
G1 X73.871 Y179.707 E57.57873
G1 X73.601 Y179.342 E57.58727
G1 X73.521 Y179.001 E57.59386
G1 X73.521 Y136.43 E58.39464
G1 X73.631 Y136.025 E58.40253
G1 X73.802 Y135.788 E58.40803
G1 X74.214 Y135.532 E58.41716
G1 X74.464 Y135.486 E58.42194
G1 X177.22 Y135.485 E60.35483
G1 X177.22 Y87.175 E61.26357
G1 X122.356 Y37.895 E62.65079
G1 X45.78 Y37.896 E64.09123
G1 X45.78 Y183.29 E66.82617
G1 X60.175 Y197.684 E67.20909
G1 X91.825 Y197.685 E67.80445
G1 X96.22 Y193.29 E67.92136
G1 X96.22 Y174.14 E68.28159
G1 X91.825 Y169.745 E68.3985
G1 X84.875 Y169.745 E68.52924
G1 X83.48 Y171.14 E68.56635
G1 X83.48 Y179.072 E68.71555
G1 X83.297 Y179.523 E68.72471
G1 X83.041 Y179.774 E68.73145
G0 F5040 X74.204 Y179.781
G0 X73.463 Y179.257
G0 X73.192 Y179.327
;TYPE:SKIN
G1 F2100 X73.141 Y179.023 E68.73696
G1 X73.145 Y136.381 E69.49897
G1 X73.244 Y135.956 E69.50677
G1 X73.622 Y135.429 E69.51836
G1 X74.285 Y135.106 E69.53154
G1 X176.84 Y135.105 E71.3642
G1 X176.84 Y87.347 E72.21764
G1 X122.212 Y38.276 E73.52986
G1 X46.16 Y38.276 E74.88891
G1 X46.161 Y183.134 E77.47753
G1 X60.331 Y197.303 E77.83562
G1 X91.669 Y197.305 E78.39563
G1 X95.84 Y193.134 E78.50104
G1 X95.84 Y174.296 E78.83768
G1 X91.669 Y170.126 E78.94307
G1 X85.031 Y170.125 E79.06169
G1 X83.86 Y171.295 E79.09127
G1 X83.858 Y179.161 E79.23184
G1 X83.678 Y179.634 E79.24088
G1 X83.441 Y179.938 E79.24777
G1 X82.96 Y180.241 E79.25793
G1 X82.618 Y180.319 E79.2642
G1 X74.257 Y180.325 E79.41361
G1 X73.703 Y180.056 E79.42462
G1 X73.429 Y179.792 E79.43142
G1 X73.192 Y179.327 E79.44074
G0 F5040 X73.463 Y179.257
G0 X73.684 Y136.169
G0 X177.048 Y135.313
G0 X177.056 Y87.249
G0 X173.124 Y83.632
G0 X172.802 Y83.99
G1 F2100 X176.639 Y87.826 E79.5377
G0 F5040 X176.639 Y88.392
G1 F2100 X167.242 Y78.995 E79.77518
G1 X167.172 Y78.925
G0 F5040 X167.49 Y78.571
G0 X162.004 Y73.642
G0 X161.682 Y74
G1 F2100 X176.639 Y88.958 E80.15319
G0 F5040 X176.639 Y89.523
G1 F2100 X156.122 Y69.006 E80.67169
G1 X156.052 Y68.936
G0 F5040 X156.37 Y68.582
G0 X150.883 Y63.653
G0 X150.561 Y64.011
G1 F2100 X176.639 Y90.089 E81.33074
G0 F5040 X176.639 Y90.655
G1 F2100 X145.001 Y59.017 E82.13029
G1 X144.931 Y58.947
G0 F5040 X145.249 Y58.593
G0 X139.762 Y53.664
G0 X139.44 Y54.022
G1 F2100 X176.639 Y91.221 E83.07039
G0 F5040 X176.639 Y91.786
G1 F2100 X133.88 Y49.027 E84.151
G1 X133.81 Y48.957
G0 F5040 X134.128 Y48.604
G0 X128.641 Y43.676
G0 X128.32 Y44.033
G1 F2100 X176.639 Y92.352 E85.37211
G0 F5040 X176.639 Y92.918
G1 F2100 X122.76 Y39.038 E86.73376
G1 X122.69 Y38.968
G0 F5040 X123.007 Y38.615
G0 X122.294 Y38.058
G0 X121.632 Y38.476
G1 F2100 X176.639 Y93.483 E88.1239
G0 F5040 X176.639 Y94.049
G1 F2100 X121.066 Y38.476 E89.52834
G0 F5040 X120.5 Y38.476
G1 F2100 X176.639 Y94.615 E90.94709
G0 F5040 X176.639 Y95.18
G1 F2100 X119.935 Y38.476 E92.38011
G0 F5040 X119.369 Y38.476
G1 F2100 X176.639 Y95.746 E93.82744
G0 F5040 X176.639 Y96.312
G1 F2100 X118.803 Y38.476 E95.28908
G0 F5040 X118.238 Y38.476
G1 F2100 X176.639 Y96.877 E96.76499
G0 F5040 X176.639 Y97.443
G1 F2100 X117.672 Y38.476 E98.25521
G0 F5040 X117.106 Y38.476
G1 F2100 X176.639 Y98.009 E99.75973
G0 F5040 X176.639 Y98.574
G1 F2100 X116.541 Y38.476 E101.27852
G0 F5040 X115.975 Y38.476
G1 F2100 X176.639 Y99.14 E102.81163
G0 F5040 X176.639 Y99.706
G1 F2100 X115.409 Y38.476 E104.35903
G0 F5040 X114.844 Y38.476
G1 F2100 X176.639 Y100.271 E105.92072
G0 F5040 X176.639 Y100.837
G1 F2100 X114.278 Y38.476 E107.49671
G0 F5040 X113.712 Y38.476
G1 F2100 X176.639 Y101.403 E109.087
G0 F5040 X176.639 Y101.969
G1 F2100 X113.146 Y38.476 E110.6916
G0 F5040 X112.581 Y38.476
G1 F2100 X176.639 Y102.534 E112.31048
G0 F5040 X176.639 Y103.1
G1 F2100 X112.015 Y38.476 E113.94366
G0 F5040 X111.449 Y38.476
G1 F2100 X176.639 Y103.666 E115.59114
G0 F5040 X176.639 Y104.231
G1 F2100 X110.884 Y38.476 E117.2529
G0 F5040 X110.318 Y38.476
G1 F2100 X176.639 Y104.797 E118.92897
G0 F5040 X176.639 Y105.363
G1 F2100 X109.752 Y38.476 E120.61934
G0 F5040 X109.187 Y38.476
G1 F2100 X176.639 Y105.928 E122.32399
G0 F5040 X176.639 Y106.494
G1 F2100 X108.621 Y38.476 E124.04294
G0 F5040 X108.055 Y38.476
G1 F2100 X176.639 Y107.06 E125.7762
G0 F5040 X176.639 Y107.625
G1 F2100 X107.49 Y38.476 E127.52374
G0 F5040 X106.924 Y38.476
G1 F2100 X176.639 Y108.191 E129.28558
G0 F5040 X176.639 Y108.757
G1 F2100 X106.358 Y38.476 E131.06172
G0 F5040 X105.793 Y38.476
G1 F2100 X176.639 Y109.322 E132.85214
G0 F5040 X176.639 Y109.888
G1 F2100 X105.227 Y38.476 E134.65687
G0 F5040 X104.661 Y38.476
G1 F2100 X176.639 Y110.454 E136.4759
G0 F5040 X176.639 Y111.02
G1 F2100 X104.096 Y38.476 E138.30922
G0 F5040 X103.53 Y38.476
G1 F2100 X176.639 Y111.585 E140.15684
G0 F5040 X176.639 Y112.151
G1 F2100 X102.964 Y38.476 E142.01875
G0 F5040 X102.398 Y38.476
G1 F2100 X176.639 Y112.717 E143.89498
G0 F5040 X176.639 Y113.282
G1 F2100 X101.833 Y38.476 E145.78548
G0 F5040 X101.267 Y38.476
G1 F2100 X176.639 Y113.848 E147.69028
G0 F5040 X176.639 Y114.414
G1 F2100 X100.701 Y38.476 E149.60939
G0 F5040 X100.136 Y38.476
G1 F2100 X176.639 Y114.979 E151.54277
G0 F5040 X176.639 Y115.545
G1 F2100 X99.57 Y38.476 E153.49046
G0 F5040 X99.004 Y38.476
G1 F2100 X176.639 Y116.111 E155.45246
G0 F5040 X176.639 Y116.676
G1 F2100 X98.439 Y38.476 E157.42873
G0 F5040 X97.873 Y38.476
G1 F2100 X176.639 Y117.242 E159.41931
G0 F5040 X176.639 Y117.808
G1 F2100 X97.307 Y38.476 E161.42419
G0 F5040 X96.742 Y38.476
G1 F2100 X176.639 Y118.373 E163.44335
G0 F5040 X176.639 Y118.939
G1 F2100 X96.176 Y38.476 E165.47681
G0 F5040 X95.61 Y38.476
G1 F2100 X176.639 Y119.505 E167.52458
G0 F5040 X176.639 Y120.07
G1 F2100 X95.045 Y38.476 E169.58663
G0 F5040 X94.479 Y38.476
G1 F2100 X176.639 Y120.636 E171.66298
G0 F5040 X176.639 Y121.202
G1 F2100 X93.913 Y38.476 E173.75363
G0 F5040 X93.347 Y38.476
G1 F2100 X176.639 Y121.768 E175.85859
G0 F5040 X176.639 Y122.333
G1 F2100 X92.782 Y38.476 E177.97783
G0 F5040 X92.216 Y38.476
G1 F2100 X176.639 Y122.899 E180.11137
G0 F5040 X176.639 Y123.465
G1 F2100 X91.65 Y38.476 E182.25922
G0 F5040 X91.085 Y38.476
G1 F2100 X176.639 Y124.03 E184.42134
G0 F5040 X176.639 Y124.596
G1 F2100 X90.519 Y38.476 E186.59777
G0 F5040 X89.953 Y38.476
G1 F2100 X176.639 Y125.162 E188.7885
G0 F5040 X176.639 Y125.727
G1 F2100 X89.388 Y38.476 E190.99351
G0 F5040 X88.822 Y38.476
G1 F2100 X176.639 Y126.293 E193.21282
G0 F5040 X176.639 Y126.859
G1 F2100 X88.256 Y38.476 E195.44644
G0 F5040 X87.691 Y38.476
G1 F2100 X176.639 Y127.424 E197.69434
G0 F5040 X176.639 Y127.99
G1 F2100 X87.125 Y38.476 E199.95654
G0 F5040 X86.559 Y38.476
G1 F2100 X176.639 Y128.556 E202.23305
G0 F5040 X176.639 Y129.121
G1 F2100 X85.994 Y38.476 E204.52383
G0 F5040 X85.428 Y38.476
G1 F2100 X176.639 Y129.687 E206.82892
G0 F5040 X176.639 Y130.253
G1 F2100 X84.862 Y38.476 E209.14831
G0 F5040 X84.297 Y38.476
G1 F2100 X176.639 Y130.818 E211.48198
G0 F5040 X176.639 Y131.384
G1 F2100 X83.731 Y38.476 E213.82995
G0 F5040 X83.165 Y38.476
G1 F2100 X176.639 Y131.95 E216.19223
G0 F5040 X176.639 Y132.516
G1 F2100 X82.599 Y38.476 E218.56882
G0 F5040 X82.034 Y38.476
G1 F2100 X176.639 Y133.081 E220.95968
G0 F5040 X176.639 Y133.647
G1 F2100 X81.468 Y38.476 E223.36484
G0 F5040 X80.902 Y38.476
G1 F2100 X176.639 Y134.213 E225.78431
G0 F5040 X176.639 Y134.778
G1 F2100 X80.337 Y38.476 E228.21806
G0 F5040 X79.771 Y38.476
G1 F2100 X176.199 Y134.904 E230.65499
G0 F5040 X175.634 Y134.904
G1 F2100 X79.205 Y38.476 E233.09193
G0 F5040 X78.64 Y38.476
G1 F2100 X175.068 Y134.904 E235.52887
G0 F5040 X174.502 Y134.904
G1 F2100 X78.074 Y38.476 E237.9658
G0 F5040 X77.508 Y38.476
G1 F2100 X173.936 Y134.904 E240.40273
G0 F5040 X173.371 Y134.904
G1 F2100 X76.943 Y38.476 E242.83966
G0 F5040 X76.377 Y38.476
G1 F2100 X172.805 Y134.904 E245.27659
G0 F5040 X172.239 Y134.904
G1 F2100 X75.811 Y38.476 E247.71353
G0 F5040 X75.246 Y38.476
G1 F2100 X171.674 Y134.904 E250.15046
G0 F5040 X171.108 Y134.904
G1 F2100 X74.68 Y38.476 E252.58739
G0 F5040 X74.114 Y38.476
G1 F2100 X170.542 Y134.904 E255.02432
G0 F5040 X169.977 Y134.904
G1 F2100 X73.549 Y38.476 E257.46125
G0 F5040 X72.983 Y38.476
G1 F2100 X169.411 Y134.904 E259.89819
G0 F5040 X168.845 Y134.904
G1 F2100 X72.417 Y38.476 E262.33512
G0 F5040 X71.851 Y38.476
G1 F2100 X168.28 Y134.904 E264.77206
G0 F5040 X167.714 Y134.904
G1 F2100 X71.286 Y38.476 E267.20899
G0 F5040 X70.72 Y38.476
G1 F2100 X167.148 Y134.904 E269.64593
G0 F5040 X166.583 Y134.904
G1 F2100 X70.154 Y38.476 E272.08287
G0 F5040 X69.589 Y38.476
G1 F2100 X166.017 Y134.904 E274.5198
G0 F5040 X165.451 Y134.904
G1 F2100 X69.023 Y38.476 E276.95674
G0 F5040 X68.457 Y38.476
G1 F2100 X164.885 Y134.904 E279.39367
G0 F5040 X164.32 Y134.904
G1 F2100 X67.892 Y38.476 E281.8306
G0 F5040 X67.326 Y38.476
G1 F2100 X163.754 Y134.904 E284.26753
G0 F5040 X163.188 Y134.904
G1 F2100 X66.76 Y38.476 E286.70446
G0 F5040 X66.195 Y38.476
G1 F2100 X162.623 Y134.904 E289.1414
G0 F5040 X162.057 Y134.904
G1 F2100 X65.629 Y38.476 E291.57833
G0 F5040 X65.063 Y38.476
G1 F2100 X161.491 Y134.904 E294.01526
G0 F5040 X160.926 Y134.904
G1 F2100 X64.498 Y38.476 E296.45219
G0 F5040 X63.932 Y38.476
G1 F2100 X160.36 Y134.904 E298.88912
G0 F5040 X159.794 Y134.904
G1 F2100 X63.366 Y38.476 E301.32606
G0 F5040 X62.8 Y38.476
G1 F2100 X159.229 Y134.905 E303.76301
G0 F5040 X158.664 Y134.905
G1 F2100 X62.235 Y38.476 E306.19997
G0 F5040 X61.669 Y38.476
G1 F2100 X158.098 Y134.905 E308.63693
G0 F5040 X157.532 Y134.905
G1 F2100 X61.103 Y38.476 E311.07388
G0 F5040 X60.538 Y38.476
G1 F2100 X156.967 Y134.905 E313.51084
G0 F5040 X156.401 Y134.905
G1 F2100 X59.972 Y38.476 E315.9478
G0 F5040 X59.406 Y38.476
G1 F2100 X155.835 Y134.905 E318.38476
G0 F5040 X155.27 Y134.905
G1 F2100 X58.841 Y38.476 E320.82171
G0 F5040 X58.275 Y38.476
G1 F2100 X154.704 Y134.905 E323.25867
G0 F5040 X154.138 Y134.905
G1 F2100 X57.709 Y38.476 E325.69563
G0 F5040 X57.144 Y38.476
G1 F2100 X153.572 Y134.905 E328.13257
G0 F5040 X153.007 Y134.905
G1 F2100 X56.578 Y38.476 E330.56953
G0 F5040 X56.012 Y38.476
G1 F2100 X152.441 Y134.905 E333.00649
G0 F5040 X151.875 Y134.905
G1 F2100 X55.447 Y38.476 E335.44343
G0 F5040 X54.881 Y38.476
G1 F2100 X151.31 Y134.905 E337.88039
G0 F5040 X150.744 Y134.905
G1 F2100 X54.315 Y38.476 E340.31735
G0 F5040 X53.75 Y38.476
G1 F2100 X150.178 Y134.905 E342.75429
G0 F5040 X149.613 Y134.905
G1 F2100 X53.184 Y38.476 E345.19125
G0 F5040 X52.618 Y38.476
G1 F2100 X149.047 Y134.905 E347.62821
G0 F5040 X148.481 Y134.905
G1 F2100 X52.052 Y38.476 E350.06516
G0 F5040 X51.487 Y38.476
G1 F2100 X147.916 Y134.905 E352.50212
G0 F5040 X147.35 Y134.905
G1 F2100 X50.921 Y38.476 E354.93908
G0 F5040 X50.355 Y38.476
G1 F2100 X146.784 Y134.905 E357.37603
G0 F5040 X146.219 Y134.905
G1 F2100 X49.79 Y38.476 E359.81299
G0 F5040 X49.224 Y38.476
G1 F2100 X145.653 Y134.905 E362.24995
G0 F5040 X145.087 Y134.905
G1 F2100 X48.658 Y38.476 E364.68691
G0 F5040 X48.093 Y38.476
