;FLAVOR:UltiGCode
;TIME:3057
;MATERIAL:10241
;MATERIAL2:0
;NOZZLE_DIAMETER:0.4
;MINX:77.523
;MINY:95.282
;MINZ:0.3
;MAXX:141.146
;MAXY:127.713
;MAXZ:48.1
;Generated with Cura_SteamEngine 5.2.1
M82 ;absolute extrusion mode
G0 F3000 Y50 ;avoid prime blob
G92 E0
G92 E0
G10
;LAYER_COUNT:240
;LAYER:0
M107
G0 F3600 X81.093 Y98.99 Z0.3
;TYPE:SKIRT
G11
G1 F1800 X81.915 Y98.402 E0.18192
G1 X82.592 Y97.967 E0.32677
G1 X83.309 Y97.601 E0.47167
G1 X84.058 Y97.308 E0.61644
G1 X84.763 Y97.107 E0.74839
G1 X85.384 Y96.96 E0.86326
G1 X86.176 Y96.814 E1.00822
G1 X86.756 Y96.757 E1.11313
G1 X110.292 Y95.319 E5.35751
G1 X111.441 Y95.282 E5.56443
G1 X112.417 Y95.301 E5.74015
G1 X113.218 Y95.341 E5.88451
G1 X113.787 Y95.39 E5.98731
G1 X114.93 Y95.535 E6.1947
G1 X115.597 Y95.644 E6.31635
G1 X116.668 Y95.857 E6.5129
G1 X117.757 Y96.135 E6.71521
G1 X118.278 Y96.286 E6.81285
G1 X119.017 Y96.528 E6.95282
G1 X120.188 Y96.955 E7.17718
G1 X121.462 Y97.515 E7.42767
G1 X122.52 Y98.063 E7.64214
G1 X122.991 Y98.325 E7.73916
G1 X124.065 Y98.975 E7.96512
G1 X125.016 Y99.624 E8.17237
G1 X125.963 Y100.342 E8.38628
G1 X126.935 Y101.168 E8.61588
G1 X127.545 Y101.739 E8.76628
G1 X128.31 Y102.509 E8.96166
G1 X129.175 Y103.48 E9.19573
G1 X129.653 Y104.072 E9.33269
G1 X130.166 Y104.748 E9.48544
G1 X130.803 Y105.663 E9.68612
G1 X131.104 Y106.134 E9.78673
G1 X131.5 Y106.805 E9.92698
G1 X131.874 Y107.518 E10.0719
G1 X132.341 Y108.747 E10.30856
G1 X132.599 Y109.778 E10.49986
G1 X132.715 Y110.575 E10.64483
G1 X132.751 Y111.379 E10.7897
G1 X132.71 Y112.277 E10.9515
G1 X132.623 Y113.077 E11.09635
G1 X132.456 Y113.864 E11.24117
G1 X132.165 Y114.79 E11.41588
G1 X131.772 Y115.717 E11.59712
G1 X131.275 Y116.599 E11.77935
G1 X130.547 Y117.72 E12.01995
G1 X129.877 Y118.642 E12.2251
G1 X129.315 Y119.363 E12.38965
G1 X128.425 Y120.37 E12.63155
G1 X127.98 Y120.835 E12.74741
G1 X127.103 Y121.681 E12.96674
G1 X126.124 Y122.528 E13.19976
G1 X125.596 Y122.947 E13.32109
G1 X124.605 Y123.662 E13.54105
G1 X123.938 Y124.102 E13.68488
G1 X123.121 Y124.599 E13.85702
G1 X122.408 Y125.001 E14.00435
G1 X121.48 Y125.47 E14.19151
G1 X120.425 Y125.937 E14.39918
G1 X119.656 Y126.246 E14.54836
G1 X119.104 Y126.445 E14.65398
G1 X117.976 Y126.806 E14.86716
G1 X116.999 Y127.06 E15.04887
G1 X116.058 Y127.271 E15.22245
G1 X115.545 Y127.369 E15.31646
G1 X114.852 Y127.478 E15.44274
G1 X113.75 Y127.614 E15.6426
G1 X112.655 Y127.692 E15.8402
G1 X112.077 Y127.713 E15.94431
G1 X110.809 Y127.713 E16.17255
G1 X86.561 Y126.229 E20.54536
G1 X85.761 Y126.14 E20.69025
G1 X84.466 Y125.835 E20.92972
G1 X83.469 Y125.468 E21.12096
G1 X82.252 Y124.843 E21.36722
G1 X81.358 Y124.235 E21.56182
G1 X80.74 Y123.719 E21.70674
G1 X80.042 Y122.987 E21.8888
G1 X79.675 Y122.551 E21.99138
G1 X79.188 Y121.911 E22.13614
G1 X78.767 Y121.225 E22.28102
G1 X78.269 Y120.178 E22.48971
G1 X77.915 Y119.166 E22.6827
G1 X77.726 Y118.384 E22.82751
G1 X77.588 Y117.417 E23.00333
G1 X77.523 Y116.393 E23.18802
G1 X77.524 Y106.431 E24.98118
G1 X77.564 Y105.627 E25.12608
G1 X77.684 Y104.832 E25.2708
G1 X77.833 Y104.216 E25.38488
G1 X78.019 Y103.562 E25.50727
G1 X78.277 Y102.8 E25.65208
G1 X78.61 Y102.067 E25.797
G1 X79.216 Y101.047 E26.01056
G1 X79.856 Y100.197 E26.20208
G1 X80.401 Y99.605 E26.34692
G1 X81.093 Y98.99 E26.51356
G0 F3600 X81.712 Y99.285
G1 F1800 X82.264 Y98.89 E26.63574
G1 X82.917 Y98.472 E26.7753
G1 X83.608 Y98.124 E26.91456
G1 X84.332 Y97.849 E27.05396
G1 X84.901 Y97.691 E27.16026
G1 X85.522 Y97.544 E27.27513
G1 X86.284 Y97.404 E27.41458
G1 X86.793 Y97.356 E27.50661
G1 X110.329 Y95.918 E31.75099
G1 X111.447 Y95.882 E31.95233
G1 X112.387 Y95.9 E32.12156
G1 X113.188 Y95.94 E32.26592
G1 X113.715 Y95.985 E32.36113
G1 X114.525 Y96.083 E32.50799
G1 X115.501 Y96.236 E32.68582
G1 X116.535 Y96.442 E32.8756
G1 X117.609 Y96.716 E33.07511
G1 X118.091 Y96.856 E33.16545
G1 X118.83 Y97.098 E33.30542
G1 X119.953 Y97.507 E33.52055
G1 X121.193 Y98.052 E33.76436
G1 X122.001 Y98.466 E33.92778
G1 X122.699 Y98.85 E34.07118
G1 X123.728 Y99.471 E34.28751
G1 X124.672 Y100.116 E34.49331
G1 X125.579 Y100.803 E34.69812
G1 X126.539 Y101.619 E34.92491
G1 X127.135 Y102.177 E35.07187
G1 X127.869 Y102.916 E35.25935
G1 X128.714 Y103.864 E35.48794
G1 X129.186 Y104.449 E35.62324
G1 X129.686 Y105.108 E35.77214
G1 X130.309 Y106.002 E35.96828
G1 X130.587 Y106.439 E36.0615
G1 X130.983 Y107.11 E36.20175
G1 X131.342 Y107.796 E36.34111
G1 X131.77 Y108.928 E36.55895
G1 X132.016 Y109.923 E36.74345
G1 X132.123 Y110.69 E36.88284
G1 X132.141 Y111.976 E37.11434
G1 X132.025 Y113.011 E37.30181
G1 X131.861 Y113.768 E37.44123
G1 X131.597 Y114.598 E37.59801
G1 X131.219 Y115.482 E37.77106
G1 X130.771 Y116.272 E37.93454
G1 X130.042 Y117.395 E38.17553
G1 X129.403 Y118.273 E38.371
G1 X128.839 Y118.996 E38.53605
G1 X127.976 Y119.973 E38.7707
G1 X127.563 Y120.404 E38.87814
G1 X126.709 Y121.228 E39.09175
G1 X125.731 Y122.074 E39.32452
G1 X125.242 Y122.462 E39.43688
G1 X124.271 Y123.163 E39.65245
G1 X123.623 Y123.591 E39.79223
G1 X122.826 Y124.076 E39.96017
G1 X121.978 Y124.545 E40.1346
G1 X121.086 Y124.988 E40.31387
G1 X120.201 Y125.38 E40.48809
G1 X119.432 Y125.689 E40.63727
G1 X118.922 Y125.873 E40.73486
G1 X117.797 Y126.233 E40.94748
G1 X116.868 Y126.474 E41.12023
G1 X115.667 Y126.743 E41.34177
G1 X114.46 Y126.926 E41.56151
G1 X113.493 Y127.031 E41.7366
G1 X112.613 Y127.094 E41.8954
G1 X112.077 Y127.113 E41.99194
G1 X110.83 Y127.113 E42.2164
G1 X86.598 Y125.63 E46.58632
G1 X85.828 Y125.543 E46.7258
G1 X84.638 Y125.26 E46.94598
G1 X83.676 Y124.904 E47.13061
G1 X82.556 Y124.326 E47.35748
G1 X81.696 Y123.738 E47.545
G1 X81.105 Y123.238 E47.68434
G1 X80.501 Y122.601 E47.84235
G1 X80.134 Y122.165 E47.94494
G1 X79.667 Y121.547 E48.08436
G1 X79.265 Y120.885 E48.22377
G1 X78.82 Y119.938 E48.41212
G1 X78.483 Y118.969 E48.59678
G1 X78.305 Y118.215 E48.73623
G1 X78.183 Y117.341 E48.89508
G1 X78.123 Y116.393 E49.06606
G1 X78.124 Y106.431 E50.85922
G1 X78.164 Y105.658 E50.99855
G1 X78.284 Y104.893 E51.13793
G1 X78.41 Y104.38 E51.23302
G1 X78.596 Y103.726 E51.3554
G1 X78.846 Y102.993 E51.49481
G1 X79.17 Y102.29 E51.63414
G1 X79.719 Y101.374 E51.82637
G1 X80.335 Y100.559 E52.01025
G1 X80.863 Y99.993 E52.14958
G1 X81.712 Y99.285 E52.34857
G0 F3600 X82.062 Y99.773
G1 F1800 X82.614 Y99.378 E52.47075
G1 X83.24 Y98.979 E52.60437
G1 X83.906 Y98.649 E52.73816
G1 X84.714 Y98.352 E52.89311
G1 X85.661 Y98.128 E53.06827
G1 X86.51 Y97.974 E53.22359
G1 X110.365 Y96.517 E57.52549
G1 X111.457 Y96.482 E57.72215
G1 X112.357 Y96.5 E57.88418
G1 X113.423 Y96.553 E58.0763
G1 X114.737 Y96.719 E58.3147
G1 X115.404 Y96.828 E58.43635
G1 X116.404 Y97.029 E58.61995
G1 X117.696 Y97.358 E58.85993
G1 X118.893 Y97.756 E59.08699
G1 X119.76 Y98.077 E59.25341
G1 X120.924 Y98.589 E59.4823
G1 X121.936 Y99.112 E59.68735
G1 X122.658 Y99.521 E59.83671
G1 X123.44 Y100 E60.00178
G1 X124.318 Y100.6 E60.19319
G1 X125.196 Y101.265 E60.39145
G1 X126.142 Y102.069 E60.61492
G1 X126.725 Y102.615 E60.7587
G1 X127.431 Y103.327 E60.93918
G1 X128.271 Y104.27 E61.1665
G1 X128.87 Y105.02 E61.33927
G1 X129.372 Y105.699 E61.49126
G1 X129.947 Y106.535 E61.6739
G1 X130.466 Y107.415 E61.8578
G1 X130.809 Y108.074 E61.99152
G1 X131.199 Y109.111 E62.19095
G1 X131.432 Y110.066 E62.36789
G1 X131.53 Y110.803 E62.50172
G1 X131.541 Y111.952 E62.70855
G1 X131.428 Y112.944 E62.88826
G1 X131.266 Y113.669 E63.02198
G1 X131.028 Y114.405 E63.16121
G1 X130.667 Y115.245 E63.32579
G1 X130.268 Y115.945 E63.47082
G1 X129.555 Y117.043 E63.70647
G1 X129.094 Y117.685 E63.84874
G1 X128.397 Y118.589 E64.05421
G1 X127.526 Y119.575 E64.29102
G1 X127.147 Y119.972 E64.38981
G1 X126.314 Y120.776 E64.5982
G1 X125.338 Y121.62 E64.83046
G1 X124.889 Y121.978 E64.93382
G1 X123.937 Y122.665 E65.14514
G1 X123.307 Y123.081 E65.28104
G1 X122.532 Y123.553 E65.44437
G1 X121.707 Y124.01 E65.61413
G1 X120.84 Y124.441 E65.78841
G1 X120.244 Y124.71 E65.90611
G1 X118.985 Y125.223 E66.15082
G1 X117.651 Y125.65 E66.40294
G1 X116.737 Y125.889 E66.573
G1 X115.568 Y126.151 E66.78864
G1 X114.39 Y126.33 E67.00311
G1 X113.754 Y126.404 E67.11836
G1 X112.336 Y126.513 E67.37436
G1 X110.85 Y126.513 E67.64184
G1 X86.635 Y125.031 E72.00869
G1 X85.897 Y124.946 E72.14241
G1 X84.81 Y124.685 E72.34363
G1 X83.885 Y124.341 E72.52127
G1 X82.864 Y123.811 E72.72834
G1 X82.035 Y123.243 E72.90922
G1 X81.471 Y122.759 E73.043
G1 X80.96 Y122.214 E73.17748
G1 X80.593 Y121.778 E73.28006
G1 X80.146 Y121.185 E73.41373
G1 X79.765 Y120.548 E73.54733
G1 X79.37 Y119.698 E73.71604
G1 X79.05 Y118.772 E73.8924
G1 X78.795 Y117.529 E74.1208
G1 X78.723 Y116.393 E74.32569
G1 X78.724 Y106.431 E76.11885
G1 X78.764 Y105.69 E76.25242
G1 X78.904 Y104.837 E76.40801
G1 X79.173 Y103.89 E76.58522
G1 X79.415 Y103.188 E76.71888
G1 X79.73 Y102.516 E76.85247
G1 X80.224 Y101.699 E77.02432
G1 X80.814 Y100.922 E77.19993
G1 X81.324 Y100.382 E77.33363
G1 X82.062 Y99.773 E77.50586
G0 F3600 X82.411 Y100.261
G1 F1800 X82.963 Y99.866 E77.62803
G1 X83.562 Y99.486 E77.75572
G1 X84.201 Y99.176 E77.88356
G1 X85.178 Y98.858 E78.0685
G1 X85.799 Y98.711 E78.18337
G1 X86.587 Y98.571 E78.32743
G1 X110.61 Y97.106 E82.65961
G1 X111.325 Y97.086 E82.78836
G1 X112.327 Y97.099 E82.96873
G1 X113.36 Y97.151 E83.15491
G1 X114.64 Y97.311 E83.3871
G1 X115.307 Y97.42 E83.50875
G1 X116.154 Y97.59 E83.66425
G1 X117.512 Y97.929 E83.91619
G1 X118.685 Y98.318 E84.13864
G1 X119.51 Y98.624 E84.29703
G1 X120.679 Y99.138 E84.52689
G1 X121.645 Y99.636 E84.72252
G1 X122.345 Y100.032 E84.86728
G1 X123.098 Y100.493 E85.0262
G1 X123.968 Y101.088 E85.21592
G1 X124.83 Y101.741 E85.41058
G1 X125.623 Y102.415 E85.59791
G1 X126.315 Y103.053 E85.76733
G1 X126.908 Y103.651 E85.91892
G1 X127.799 Y104.64 E86.15853
G1 X128.39 Y105.38 E86.329
G1 X128.878 Y106.039 E86.4766
G1 X129.443 Y106.861 E86.65614
G1 X129.95 Y107.72 E86.83569
G1 X130.275 Y108.351 E86.96345
G1 X130.626 Y109.292 E87.14423
G1 X130.848 Y110.208 E87.31388
G1 X130.936 Y110.912 E87.44159
G1 X130.941 Y111.93 E87.62483
G1 X130.831 Y112.875 E87.79608
G1 X130.671 Y113.567 E87.92392
G1 X130.396 Y114.356 E88.07432
G1 X130.115 Y115.008 E88.20212
G1 X129.765 Y115.618 E88.32871
G1 X129.058 Y116.706 E88.56226
G1 X128.457 Y117.535 E88.74657
G1 X127.919 Y118.226 E88.90421
G1 X127.077 Y119.178 E89.13297
G1 X126.73 Y119.54 E89.22323
G1 X125.901 Y120.34 E89.43061
G1 X124.946 Y121.166 E89.65788
G1 X124.535 Y121.493 E89.75242
G1 X123.808 Y122.023 E89.91436
G1 X123.188 Y122.444 E90.04926
G1 X122.456 Y122.901 E90.20459
G1 X121.544 Y123.421 E90.39356
G1 X120.593 Y123.894 E90.58475
G1 X119.754 Y124.267 E90.75002
G1 X118.781 Y124.658 E90.93877
G1 X117.634 Y125.025 E91.15554
G1 X116.863 Y125.24 E91.29962
G1 X115.465 Y125.56 E91.55776
G1 X114.321 Y125.734 E91.76605
G1 X113.407 Y125.834 E91.93155
G1 X112.304 Y125.913 E92.1306
G1 X110.87 Y125.913 E92.38872
G1 X86.671 Y124.432 E96.75269
G1 X85.966 Y124.349 E96.88047
G1 X84.979 Y124.109 E97.06331
G1 X84.096 Y123.778 E97.23305
G1 X83.166 Y123.292 E97.42192
G1 X82.376 Y122.747 E97.59468
G1 X81.841 Y122.281 E97.72239
G1 X81.419 Y121.828 E97.83383
G1 X81.052 Y121.392 E97.93641
G1 X80.627 Y120.824 E98.0641
G1 X80.267 Y120.212 E98.19191
G1 X79.919 Y119.452 E98.34237
G1 X79.619 Y118.576 E98.50904
G1 X79.389 Y117.45 E98.7159
G1 X79.323 Y116.393 E98.90653
G1 X79.324 Y106.431 E100.69969
G1 X79.364 Y105.723 E100.82734
G1 X79.564 Y104.709 E101.01337
G1 X79.75 Y104.055 E101.13576
G1 X79.983 Y103.384 E101.26362
G1 X80.289 Y102.744 E101.39131
G1 X80.731 Y102.022 E101.54368
G1 X81.292 Y101.286 E101.71026
G1 X81.784 Y100.774 E101.83808
G1 X82.411 Y100.261 E101.9839
G0 F3600 X82.76 Y100.749
G1 F1800 X83.312 Y100.354 E102.10608
G1 X83.883 Y99.994 E102.22758
G1 X84.493 Y99.704 E102.34916
G1 X85.316 Y99.442 E102.50462
G1 X85.937 Y99.295 E102.61949
G1 X86.902 Y99.153 E102.79506
G1 X110.627 Y97.706 E107.0735
G1 X111.342 Y97.686 E107.20225
G1 X112.297 Y97.698 E107.37416
G1 X113.302 Y97.748 E107.55528
G1 X114.309 Y97.87 E107.73787
G1 X115.449 Y98.057 E107.94581
G1 X116.281 Y98.235 E108.09896
G1 X117.345 Y98.506 E108.29659
G1 X118.27 Y98.809 E108.4718
G1 X119.289 Y99.181 E108.66706
G1 X120.414 Y99.676 E108.8883
G1 X121.353 Y100.161 E109.07853
G1 X122.031 Y100.544 E109.2187
G1 X122.893 Y101.08 E109.40141
G1 X123.502 Y101.496 E109.53416
G1 X124.457 Y102.21 E109.74879
G1 X125.437 Y103.053 E109.98148
G1 X126.086 Y103.668 E110.14242
G1 X126.479 Y104.07 E110.24361
G1 X127.338 Y105.025 E110.47482
G1 X127.91 Y105.74 E110.63963
G1 X128.383 Y106.379 E110.78274
G1 X128.939 Y107.187 E110.95928
G1 X129.433 Y108.025 E111.13438
G1 X129.741 Y108.626 E111.25594
G1 X130.055 Y109.475 E111.41888
G1 X130.264 Y110.349 E111.58063
G1 X130.342 Y111.019 E111.70205
G1 X130.341 Y111.912 E111.86279
G1 X130.234 Y112.805 E112.02468
G1 X129.932 Y113.922 E112.23296
G1 X129.564 Y114.768 E112.39902
G1 X129.262 Y115.291 E112.50773
G1 X128.561 Y116.37 E112.73933
G1 X127.984 Y117.166 E112.9163
G1 X127.459 Y117.84 E113.07008
G1 X126.476 Y118.952 E113.33724
G1 X125.496 Y119.897 E113.58229
G1 X124.365 Y120.876 E113.85154
G1 X123.269 Y121.668 E114.09494
G1 X122.677 Y122.06 E114.22275
G1 X121.943 Y122.508 E114.37753
G1 X121.389 Y122.82 E114.49198
G1 X120.463 Y123.295 E114.67931
G1 X119.53 Y123.71 E114.86311
G1 X118.568 Y124.097 E115.04976
G1 X117.314 Y124.498 E115.28674
G1 X116.474 Y124.718 E115.44304
G1 X115.35 Y124.97 E115.65038
G1 X114.479 Y125.107 E115.80909
G1 X113.616 Y125.212 E115.96557
G1 X112.287 Y125.313 E116.20548
G1 X110.891 Y125.313 E116.45676
G1 X86.708 Y123.833 E120.81785
G1 X86.038 Y123.752 E120.93932
G1 X85.151 Y123.534 E121.10374
G1 X84.307 Y123.216 E121.26608
G1 X83.468 Y122.774 E121.43678
G1 X82.718 Y122.253 E121.60115
G1 X82.101 Y121.707 E121.74945
G1 X81.511 Y121.006 E121.91438
G1 X81.108 Y120.464 E122.03595
G1 X80.771 Y119.879 E122.15747
G1 X80.404 Y119.021 E122.32545
G1 X80.187 Y118.382 E122.44692
G1 X79.985 Y117.368 E122.63303
G1 X79.923 Y116.393 E122.80888
G1 X79.924 Y106.431 E124.60204
G1 X79.964 Y105.758 E124.7234
G1 X80.141 Y104.873 E124.88585
G1 X80.327 Y104.219 E125.00824
G1 X80.55 Y103.582 E125.12972
G1 X80.847 Y102.975 E125.25136
G1 X81.358 Y102.186 E125.42056
G1 X81.769 Y101.651 E125.542
G1 X82.241 Y101.168 E125.66356
G1 X82.76 Y100.749 E125.78362
G0 F3600 X83.109 Y101.236
G1 F1800 X83.661 Y100.841 E125.9058
G1 X84.203 Y100.503 E126.02078
G1 X84.782 Y100.235 E126.13562
G1 X85.454 Y100.026 E126.2623
G1 X86.075 Y99.879 E126.37717
G1 X86.939 Y99.751 E126.53438
G1 X110.475 Y98.313 E130.77876
G1 X111.571 Y98.284 E130.97611
G1 X112.267 Y98.297 E131.10141
G1 X113.254 Y98.346 E131.27929
G1 X114.447 Y98.496 E131.49572
G1 X115.327 Y98.644 E131.65635
G1 X115.91 Y98.765 E131.76352
G1 X117.177 Y99.082 E131.99861
G1 X118.083 Y99.379 E132.17023
G1 X119.07 Y99.741 E132.35946
G1 X120.158 Y100.219 E132.57337
G1 X121.061 Y100.685 E132.75628
G1 X121.532 Y100.947 E132.85329
G1 X122.457 Y101.508 E133.04802
G1 X123.367 Y102.138 E133.24725
G1 X124.083 Y102.68 E133.40889
G1 X125.027 Y103.491 E133.6329
G1 X125.495 Y103.929 E133.74828
G1 X126.05 Y104.49 E133.89033
G1 X126.798 Y105.322 E134.09171
G1 X127.319 Y105.957 E134.23956
G1 X127.766 Y106.548 E134.37294
G1 X128.423 Y107.494 E134.58026
G1 X128.916 Y108.33 E134.75496
G1 X129.206 Y108.899 E134.86991
G1 X129.485 Y109.662 E135.01614
G1 X129.679 Y110.487 E135.1687
G1 X129.746 Y111.122 E135.28363
G1 X129.74 Y111.894 E135.42259
G1 X129.638 Y112.734 E135.5749
G1 X129.365 Y113.727 E135.76028
G1 X129.013 Y114.527 E135.9176
G1 X128.759 Y114.964 E136.00858
G1 X128.136 Y115.923 E136.21443
G1 X127.632 Y116.635 E136.37145
G1 X127.003 Y117.449 E136.55662
G1 X126.039 Y118.539 E136.81854
G1 X125.082 Y119.462 E137.05786
G1 X123.998 Y120.4 E137.31589
G1 X122.935 Y121.169 E137.55205
G1 X122.362 Y121.549 E137.67581
G1 X121.649 Y121.985 E137.82624
G1 X121.095 Y122.297 E137.94069
G1 X120.303 Y122.703 E138.10089
G1 X119.307 Y123.153 E138.29762
G1 X118.362 Y123.533 E138.48096
G1 X117.039 Y123.95 E138.73064
G1 X116.552 Y124.081 E138.82142
G1 X115.236 Y124.381 E139.06438
G1 X114.182 Y124.542 E139.2563
G1 X113.321 Y124.637 E139.41222
G1 X112.259 Y124.713 E139.60387
G1 X110.91 Y124.713 E139.84669
G1 X86.744 Y123.234 E144.20471
