;FLAVOR:UltiGCode
;TIME:2132
;MATERIAL:10399
;MATERIAL2:0
;NOZZLE_DIAMETER:0.4
;MINX:77.533
;MINY:95.292
;MINZ:0.3
;MAXX:141.162
;MAXY:127.703
;MAXZ:48
;Generated with Cura_SteamEngine 5.2.1
M82 ;absolute extrusion mode
G0 F3000 Y50 ;avoid prime blob
G92 E0
G92 E0
G10
;LAYER_COUNT:160
;LAYER:0
M107
G0 F3600 X81.1 Y98.996 Z0.3
;TYPE:SKIRT
G11
G1 F1800 X81.923 Y98.408 E0.18206
G1 X82.6 Y97.973 E0.32691
G1 X83.317 Y97.608 E0.47173
G1 X84.067 Y97.316 E0.6166
G1 X84.765 Y97.117 E0.74725
G1 X85.386 Y96.97 E0.86212
G1 X86.178 Y96.824 E1.00708
G1 X86.758 Y96.767 E1.11198
G1 X110.293 Y95.329 E5.35618
G1 X111.44 Y95.292 E5.56275
G1 X112.416 Y95.311 E5.73846
G1 X113.216 Y95.351 E5.88264
G1 X113.786 Y95.4 E5.98562
G1 X114.91 Y95.542 E6.18955
G1 X115.781 Y95.682 E6.34834
G1 X116.871 Y95.919 E6.54913
G1 X117.754 Y96.144 E6.71315
G1 X118.278 Y96.296 E6.81135
G1 X119.016 Y96.538 E6.95115
G1 X120.191 Y96.967 E7.17631
G1 X121.439 Y97.516 E7.42173
G1 X122.269 Y97.941 E7.58957
G1 X122.985 Y98.334 E7.73659
G1 X124.064 Y98.987 E7.96361
G1 X125 Y99.624 E8.1674
G1 X125.965 Y100.356 E8.38542
G1 X126.785 Y101.054 E8.57925
G1 X127.65 Y101.849 E8.79073
G1 X128.323 Y102.538 E8.96409
G1 X129.167 Y103.486 E9.19256
G1 X129.829 Y104.314 E9.38338
G1 X130.164 Y104.762 E9.48407
G1 X130.794 Y105.668 E9.6827
G1 X131.095 Y106.139 E9.78332
G1 X131.491 Y106.81 E9.92356
G1 X131.865 Y107.523 E10.06849
G1 X132.333 Y108.753 E10.30537
G1 X132.589 Y109.782 E10.49624
G1 X132.705 Y110.578 E10.64103
G1 X132.741 Y111.382 E10.7859
G1 X132.7 Y112.279 E10.94752
G1 X132.612 Y113.079 E11.09239
G1 X132.446 Y113.866 E11.23717
G1 X132.152 Y114.797 E11.41291
G1 X131.759 Y115.721 E11.59365
G1 X131.268 Y116.591 E11.77346
G1 X130.528 Y117.732 E12.01826
G1 X129.87 Y118.634 E12.21923
G1 X129.454 Y119.168 E12.34107
G1 X129.13 Y119.558 E12.43234
G1 X128.415 Y120.366 E12.62654
G1 X127.973 Y120.827 E12.7415
G1 X127.107 Y121.663 E12.95816
G1 X126.116 Y122.52 E13.19399
G1 X125.589 Y122.94 E13.31529
G1 X124.6 Y123.653 E13.53475
G1 X123.933 Y124.093 E13.67858
G1 X123.116 Y124.59 E13.85072
G1 X122.562 Y124.902 E13.96516
G1 X121.497 Y125.452 E14.18092
G1 X120.417 Y125.93 E14.39351
G1 X119.652 Y126.237 E14.54188
G1 X119.099 Y126.436 E14.64767
G1 X117.97 Y126.796 E14.86097
G1 X116.998 Y127.05 E15.04181
G1 X116.054 Y127.262 E15.21596
G1 X115.524 Y127.363 E15.31307
G1 X114.836 Y127.47 E15.4384
G1 X113.735 Y127.605 E15.63807
G1 X112.654 Y127.682 E15.83314
G1 X112.076 Y127.703 E15.93725
G1 X110.81 Y127.703 E16.16513
G1 X86.565 Y126.219 E20.5374
G1 X85.765 Y126.13 E20.68229
G1 X84.479 Y125.828 E20.92006
G1 X83.481 Y125.462 E21.1114
G1 X82.253 Y124.83 E21.36
G1 X81.358 Y124.221 E21.55486
G1 X80.741 Y123.705 E21.69964
G1 X80.051 Y122.982 E21.87953
G1 X79.686 Y122.549 E21.98147
G1 X79.198 Y121.908 E22.12648
G1 X78.777 Y121.223 E22.2712
G1 X78.276 Y120.167 E22.48159
G1 X77.923 Y119.157 E22.67418
G1 X77.735 Y118.374 E22.81912
G1 X77.599 Y117.419 E22.99276
G1 X77.533 Y116.389 E23.17854
G1 X77.534 Y106.435 E24.97026
G1 X77.574 Y105.631 E25.11515
G1 X77.694 Y104.836 E25.25988
G1 X77.841 Y104.226 E25.37282
G1 X78.027 Y103.57 E25.49555
G1 X78.285 Y102.808 E25.64036
G1 X78.617 Y102.075 E25.7852
G1 X79.224 Y101.052 E25.99932
G1 X79.864 Y100.202 E26.19084
G1 X80.409 Y99.61 E26.33568
G1 X81.1 Y98.996 E26.50207
G0 F3600 X81.726 Y99.286
G1 F1800 X82.272 Y98.896 E26.62285
G1 X82.924 Y98.479 E26.76216
G1 X83.616 Y98.132 E26.9015
G1 X84.34 Y97.857 E27.0409
G1 X84.903 Y97.701 E27.14606
G1 X85.524 Y97.554 E27.26093
G1 X86.286 Y97.414 E27.40039
G1 X86.795 Y97.366 E27.49241
G1 X110.33 Y95.928 E31.73661
G1 X111.447 Y95.892 E31.93778
G1 X112.387 Y95.91 E32.10701
G1 X113.187 Y95.95 E32.25119
G1 X113.714 Y95.995 E32.34639
G1 X114.523 Y96.093 E32.49308
G1 X115.67 Y96.272 E32.70204
G1 X116.723 Y96.5 E32.89597
G1 X117.606 Y96.725 E33.05999
G1 X118.091 Y96.866 E33.1509
G1 X118.829 Y97.108 E33.2907
G1 X119.943 Y97.514 E33.50412
G1 X121.199 Y98.067 E33.75115
G1 X121.996 Y98.475 E33.91231
G1 X122.693 Y98.858 E34.05547
G1 X123.726 Y99.483 E34.27279
G1 X124.659 Y100.118 E34.47594
G1 X125.581 Y100.818 E34.68431
G1 X126.396 Y101.511 E34.87687
G1 X127.256 Y102.302 E35.08719
G1 X127.995 Y103.072 E35.2793
G1 X128.717 Y103.882 E35.47461
G1 X129.348 Y104.674 E35.65689
G1 X129.858 Y105.364 E35.81133
G1 X130.3 Y106.007 E35.95178
G1 X130.578 Y106.444 E36.045
G1 X130.974 Y107.115 E36.18525
G1 X131.333 Y107.801 E36.32462
G1 X131.76 Y108.933 E36.54239
G1 X132.006 Y109.926 E36.72653
G1 X132.113 Y110.693 E36.86593
G1 X132.131 Y111.978 E37.09725
G1 X132.015 Y113.013 E37.28472
G1 X131.851 Y113.769 E37.42396
G1 X131.584 Y114.602 E37.58142
G1 X131.207 Y115.485 E37.75424
G1 X130.764 Y116.265 E37.9157
G1 X130.035 Y117.389 E38.15685
G1 X129.397 Y118.265 E38.35192
G1 X128.838 Y118.983 E38.51571
G1 X127.966 Y119.968 E38.7525
G1 X127.556 Y120.396 E38.85919
G1 X126.693 Y121.228 E39.07496
G1 X125.724 Y122.067 E39.30568
G1 X125.235 Y122.455 E39.41804
G1 X124.266 Y123.154 E39.6331
G1 X123.618 Y123.582 E39.77289
G1 X122.821 Y124.067 E39.94082
G1 X121.982 Y124.532 E40.11349
G1 X121.391 Y124.832 E40.23279
G1 X120.485 Y125.249 E40.41231
G1 X119.428 Y125.68 E40.61778
G1 X118.916 Y125.865 E40.71577
G1 X117.81 Y126.218 E40.92475
G1 X116.866 Y126.465 E41.10039
G1 X115.679 Y126.732 E41.31939
G1 X114.744 Y126.877 E41.4897
G1 X113.665 Y127.009 E41.68537
G1 X112.611 Y127.084 E41.87557
G1 X112.076 Y127.103 E41.97193
G1 X110.831 Y127.103 E42.19603
G1 X86.602 Y125.62 E46.56541
G1 X85.832 Y125.533 E46.70489
G1 X84.65 Y125.253 E46.92354
G1 X83.688 Y124.898 E47.10811
G1 X82.559 Y124.315 E47.33683
G1 X81.697 Y123.725 E47.52485
G1 X81.106 Y123.224 E47.66431
G1 X80.51 Y122.595 E47.82029
G1 X80.145 Y122.162 E47.92222
G1 X79.677 Y121.545 E48.06162
G1 X79.275 Y120.883 E48.20103
G1 X78.826 Y119.928 E48.39098
G1 X78.491 Y118.959 E48.57553
G1 X78.211 Y117.611 E48.82335
G1 X78.133 Y116.389 E49.04375
G1 X78.134 Y106.435 E50.83547
G1 X78.174 Y105.662 E50.9748
G1 X78.294 Y104.897 E51.11418
G1 X78.418 Y104.39 E51.20813
G1 X78.604 Y103.734 E51.33087
G1 X78.854 Y103.001 E51.47027
G1 X79.177 Y102.298 E51.60953
G1 X79.73 Y101.376 E51.80305
G1 X80.344 Y100.564 E51.98629
G1 X80.872 Y99.997 E52.12575
G1 X81.726 Y99.286 E52.32577
G0 F3600 X82.074 Y99.774
G1 F1800 X82.62 Y99.384 E52.44655
G1 X83.247 Y98.986 E52.58023
G1 X83.913 Y98.657 E52.71394
G1 X84.715 Y98.362 E52.86775
G1 X85.663 Y98.138 E53.04309
G1 X86.512 Y97.984 E53.19841
G1 X110.366 Y96.527 E57.50013
G1 X111.457 Y96.492 E57.69661
G1 X112.357 Y96.51 E57.85864
G1 X113.407 Y96.562 E58.04787
G1 X114.451 Y96.689 E58.23718
G1 X115.538 Y96.858 E58.43519
G1 X116.28 Y97.013 E58.57163
G1 X117.68 Y97.362 E58.83134
G1 X118.889 Y97.765 E59.06074
G1 X119.748 Y98.083 E59.22561
G1 X120.931 Y98.604 E59.45829
G1 X121.932 Y99.122 E59.66116
G1 X122.654 Y99.53 E59.81044
G1 X123.419 Y99.999 E59.97195
G1 X124.311 Y100.607 E60.16627
G1 X125.197 Y101.279 E60.36643
G1 X126.007 Y101.968 E60.55784
G1 X126.714 Y102.619 E60.73083
G1 X127.421 Y103.331 E60.91144
G1 X128.26 Y104.272 E61.13837
G1 X128.868 Y105.033 E61.3137
G1 X129.363 Y105.704 E61.46379
G1 X129.938 Y106.54 E61.64643
G1 X130.457 Y107.42 E61.83032
G1 X130.8 Y108.079 E61.96405
G1 X131.189 Y109.116 E62.16341
G1 X131.422 Y110.07 E62.34018
G1 X131.52 Y110.806 E62.47383
G1 X131.531 Y111.954 E62.68048
G1 X131.418 Y112.946 E62.86019
G1 X131.255 Y113.67 E62.99377
G1 X131.016 Y114.407 E63.13323
G1 X130.654 Y115.248 E63.29804
G1 X130.261 Y115.938 E63.44098
G1 X129.547 Y117.039 E63.67718
G1 X129.081 Y117.686 E63.8207
G1 X128.38 Y118.595 E64.02733
G1 X127.516 Y119.571 E64.26195
G1 X127.14 Y119.964 E64.35985
G1 X126.298 Y120.776 E64.57041
G1 X125.331 Y121.613 E64.80062
G1 X124.882 Y121.97 E64.90387
G1 X123.932 Y122.656 E65.11479
G1 X123.302 Y123.072 E65.25068
G1 X122.527 Y123.544 E65.41402
G1 X121.71 Y123.997 E65.58217
G1 X120.835 Y124.433 E65.75814
G1 X119.97 Y124.817 E65.92849
G1 X119.205 Y125.124 E66.07687
G1 X118.734 Y125.293 E66.16694
G1 X117.81 Y125.588 E66.34153
G1 X117.025 Y125.808 E66.48828
G1 X115.578 Y126.14 E66.7555
G1 X114.651 Y126.284 E66.92437
G1 X113.619 Y126.41 E67.1115
G1 X112.316 Y126.503 E67.34664
G1 X110.85 Y126.503 E67.61052
G1 X86.638 Y125.021 E71.97684
G1 X85.901 Y124.936 E72.11038
G1 X84.819 Y124.677 E72.31064
G1 X83.897 Y124.334 E72.48771
G1 X82.867 Y123.8 E72.69655
G1 X82.036 Y123.23 E72.87793
G1 X81.473 Y122.746 E73.01157
G1 X80.968 Y122.208 E73.14439
G1 X80.603 Y121.775 E73.24633
G1 X80.156 Y121.182 E73.38
G1 X79.775 Y120.545 E73.5136
G1 X79.376 Y119.689 E73.6836
G1 X79.059 Y118.763 E73.85977
G1 X78.806 Y117.531 E74.08616
G1 X78.733 Y116.389 E74.29214
G1 X78.734 Y106.435 E76.08386
G1 X78.774 Y105.694 E76.21744
G1 X78.912 Y104.849 E76.37155
G1 X79.182 Y103.898 E76.5495
G1 X79.422 Y103.195 E76.68321
G1 X79.737 Y102.523 E76.8168
G1 X80.232 Y101.704 E76.98905
G1 X80.822 Y100.926 E77.16481
G1 X81.333 Y100.387 E77.2985
G1 X82.074 Y99.774 E77.4716
G0 F3600 X82.423 Y100.262
G1 F1800 X82.969 Y99.872 E77.59238
G1 X83.569 Y99.493 E77.72012
G1 X84.208 Y99.184 E77.84788
G1 X85.18 Y98.868 E78.03185
G1 X85.801 Y98.721 E78.14672
G1 X86.589 Y98.581 E78.29078
G1 X110.611 Y97.116 E82.62278
G1 X111.325 Y97.096 E82.75135
G1 X112.327 Y97.109 E82.93172
G1 X113.359 Y97.161 E83.11772
G1 X114.624 Y97.319 E83.34719
G1 X115.445 Y97.451 E83.49687
G1 X116.427 Y97.663 E83.6777
G1 X117.519 Y97.941 E83.88053
G1 X118.681 Y98.327 E84.10093
G1 X119.512 Y98.635 E84.26045
G1 X120.673 Y99.146 E84.48878
G1 X121.641 Y99.646 E84.68489
G1 X122.11 Y99.907 E84.7815
G1 X123.087 Y100.499 E84.98713
G1 X123.96 Y101.095 E85.17739
G1 X124.82 Y101.746 E85.37154
G1 X125.738 Y102.527 E85.58849
G1 X126.509 Y103.257 E85.77961
G1 X127.099 Y103.871 E85.93288
G1 X127.8 Y104.658 E86.12259
G1 X128.387 Y105.392 E86.29177
G1 X128.869 Y106.044 E86.43771
G1 X129.434 Y106.866 E86.61725
G1 X129.941 Y107.725 E86.7968
G1 X130.266 Y108.356 E86.92456
G1 X130.618 Y109.298 E87.10557
G1 X130.838 Y110.212 E87.27479
G1 X130.926 Y110.916 E87.40249
G1 X130.931 Y111.931 E87.5852
G1 X130.821 Y112.877 E87.75662
G1 X130.66 Y113.568 E87.88433
G1 X130.385 Y114.359 E88.03507
G1 X130.103 Y115.01 E88.16278
G1 X129.758 Y115.611 E88.28751
G1 X129.049 Y116.704 E88.52202
G1 X128.594 Y117.336 E88.66219
G1 X127.924 Y118.204 E88.85957
G1 X126.904 Y119.358 E89.1368
G1 X125.894 Y120.332 E89.38936
G1 X124.938 Y121.159 E89.61689
G1 X124.528 Y121.485 E89.71118
G1 X123.598 Y122.157 E89.91771
G1 X122.987 Y122.561 E90.04955
G1 X122.232 Y123.021 E90.20869
G1 X121.439 Y123.462 E90.37202
G1 X120.588 Y123.886 E90.54316
G1 X119.746 Y124.26 E90.709
G1 X118.765 Y124.654 E90.89929
G1 X117.627 Y125.017 E91.11429
G1 X116.868 Y125.228 E91.2561
G1 X115.46 Y125.552 E91.51616
G1 X114.321 Y125.724 E91.7235
G1 X113.687 Y125.798 E91.8384
G1 X112.316 Y125.903 E92.0859
G1 X110.871 Y125.903 E92.346
G1 X86.675 Y124.422 E96.70943
G1 X85.97 Y124.339 E96.83721
G1 X84.989 Y124.102 E97.01887
G1 X84.106 Y123.771 E97.18861
G1 X83.171 Y123.283 E97.37845
G1 X82.377 Y122.735 E97.55211
G1 X81.842 Y122.268 E97.67993
G1 X81.427 Y121.821 E97.78972
G1 X81.062 Y121.388 E97.89166
G1 X80.636 Y120.821 E98.01932
G1 X80.276 Y120.209 E98.14712
G1 X79.926 Y119.446 E98.29822
G1 X79.627 Y118.569 E98.46501
G1 X79.4 Y117.449 E98.6707
G1 X79.333 Y116.389 E98.86189
G1 X79.334 Y106.435 E100.65361
G1 X79.374 Y105.727 E100.78125
G1 X79.573 Y104.717 E100.96654
G1 X79.759 Y104.061 E101.08928
G1 X79.991 Y103.391 E101.2169
G1 X80.296 Y102.75 E101.34468
G1 X80.741 Y102.023 E101.49811
G1 X81.301 Y101.29 E101.66415
G1 X81.792 Y100.778 E101.79184
G1 X82.423 Y100.262 E101.93856
G0 F3600 X82.772 Y100.751
G1 F1800 X83.318 Y100.361 E102.05933
G1 X83.889 Y100.002 E102.18074
G1 X84.499 Y99.713 E102.30224
G1 X85.318 Y99.452 E102.45696
G1 X85.939 Y99.305 E102.57183
G1 X86.904 Y99.163 E102.7474
G1 X110.627 Y97.716 E107.02548
G1 X111.341 Y97.696 E107.15405
G1 X112.297 Y97.708 E107.32614
G1 X113.3 Y97.758 E107.50691
G1 X114.306 Y97.88 E107.68931
G1 X115.34 Y98.042 E107.8777
G1 X116.278 Y98.244 E108.05042
G1 X117.35 Y98.517 E108.24953
G1 X118.472 Y98.89 E108.46236
G1 X119.295 Y99.195 E108.62035
G1 X120.409 Y99.685 E108.83941
G1 X121.349 Y100.17 E109.0298
G1 X121.818 Y100.431 E109.12641
G1 X122.652 Y100.937 E109.302
G1 X123.594 Y101.57 E109.50629
G1 X124.459 Y102.226 E109.7017
G1 X125.425 Y103.056 E109.93095
G1 X125.895 Y103.495 E110.04671
G1 X126.471 Y104.077 E110.1941
G1 X127.329 Y105.03 E110.42492
G1 X127.907 Y105.752 E110.5914
G1 X128.374 Y106.384 E110.73285
G1 X128.93 Y107.192 E110.90939
G1 X129.424 Y108.03 E111.08449
G1 X129.732 Y108.631 E111.20605
G1 X130.046 Y109.48 E111.36899
G1 X130.254 Y110.352 E111.53035
G1 X130.332 Y111.022 E111.65177
G1 X130.331 Y111.914 E111.81233
G1 X130.224 Y112.807 E111.97422
G1 X129.92 Y113.926 E112.18294
G1 X129.552 Y114.77 E112.34867
G1 X129.255 Y115.285 E112.45568
G1 X128.557 Y116.36 E112.68639
G1 X127.977 Y117.159 E112.86411
G1 X127.455 Y117.83 E113.01713
G1 X126.466 Y118.947 E113.28568
G1 X125.49 Y119.888 E113.52971
G1 X124.359 Y120.867 E113.79897
G1 X123.264 Y121.659 E114.04222
G1 X122.672 Y122.051 E114.17002
G1 X121.938 Y122.499 E114.32481
G1 X121.384 Y122.811 E114.43925
G1 X120.47 Y123.282 E114.62433
G1 X119.523 Y123.703 E114.81088
G1 X118.565 Y124.087 E114.99666
G1 X117.445 Y124.445 E115.20831
G1 X116.711 Y124.649 E115.34543
G1 X115.342 Y124.963 E115.59825
G1 X114.252 Y125.128 E115.79669
G1 X113.618 Y125.202 E115.91158
G1 X112.285 Y125.303 E116.15221
G1 X110.892 Y125.303 E116.40295
G1 X86.712 Y123.823 E120.76349
G1 X86.042 Y123.742 E120.88497
G1 X85.159 Y123.526 E121.0486
G1 X84.318 Y123.209 E121.21038
G1 X83.474 Y122.765 E121.38204
G1 X82.719 Y122.241 E121.54746
G1 X82.106 Y121.696 E121.6951
G1 X81.521 Y121.002 E121.85848
G1 X81.117 Y120.461 E121.98002
G1 X80.78 Y119.876 E122.10154
G1 X80.412 Y119.015 E122.27008
G1 X80.196 Y118.376 E122.3915
G1 X79.995 Y117.368 E122.57651
G1 X79.933 Y116.389 E122.75308
G1 X79.934 Y106.435 E124.5448
G1 X79.974 Y105.762 E124.66616
G1 X80.15 Y104.881 E124.82787
G1 X80.336 Y104.225 E124.9506
G1 X80.558 Y103.588 E125.07203
G1 X80.854 Y102.981 E125.19359
G1 X81.367 Y102.191 E125.36314
G1 X81.778 Y101.656 E125.48457
G1 X82.249 Y101.173 E125.60601
G1 X82.772 Y100.751 E125.72697
G0 F3600 X83.121 Y101.239
G1 F1800 X83.667 Y100.849 E125.84775
G1 X84.208 Y100.511 E125.96257
G1 X84.788 Y100.244 E126.0775
G1 X85.456 Y100.036 E126.20344
G1 X86.077 Y99.889 E126.31831
G1 X86.941 Y99.761 E126.47552
G1 X110.476 Y98.323 E130.71972
G1 X111.571 Y98.294 E130.91689
G1 X112.267 Y98.307 E131.04219
G1 X113.25 Y98.356 E131.21935
G1 X114.433 Y98.504 E131.43395
G1 X115.333 Y98.654 E131.59819
G1 X115.913 Y98.775 E131.70484
G1 X117.172 Y99.091 E131.93849
G1 X118.081 Y99.389 E132.11067
G1 X119.071 Y99.751 E132.30041
G1 X120.142 Y100.223 E132.51108
G1 X120.902 Y100.612 E132.66476
G1 X121.526 Y100.956 E132.79302
G1 X122.339 Y101.449 E132.96416
G1 X123.255 Y102.065 E133.16286
G1 X124.077 Y102.688 E133.34851
G1 X125.015 Y103.495 E133.57124
G1 X125.651 Y104.096 E133.72875
G1 X126.203 Y104.669 E133.87196
G1 X126.947 Y105.512 E134.07435
G1 X127.307 Y105.957 E134.17738
G1 X127.88 Y106.724 E134.34971
G1 X128.419 Y107.508 E134.52096
G1 X128.907 Y108.335 E134.69381
G1 X129.197 Y108.904 E134.80876
G1 X129.476 Y109.667 E134.955
G1 X129.669 Y110.49 E135.10715
G1 X129.736 Y111.125 E135.22209
G1 X129.73 Y111.897 E135.36105
G1 X129.627 Y112.735 E135.51303
G1 X129.354 Y113.73 E135.69875
G1 X128.936 Y114.676 E135.88491
G1 X127.992 Y116.118 E136.19514
G1 X127.62 Y116.635 E136.30979
G1 X126.992 Y117.447 E136.49456
G1 X126.037 Y118.526 E136.75393
G1 X125.076 Y119.454 E136.99439
G1 X123.991 Y120.392 E137.25256
G1 X123.097 Y121.044 E137.45173
G1 X122.357 Y121.54 E137.61208
G1 X121.644 Y121.976 E137.76252
G1 X121.09 Y122.288 E137.87696
G1 X120.304 Y122.692 E138.03604
G1 X119.299 Y123.146 E138.23454
G1 X118.356 Y123.525 E138.41747
G1 X117.043 Y123.938 E138.66523
G1 X116.341 Y124.123 E138.7959
G1 X115.229 Y124.373 E139.00106
G1 X114.182 Y124.532 E139.19168
G1 X113.548 Y124.606 E139.30658
G1 X112.269 Y124.703 E139.53746
G1 X110.911 Y124.703 E139.7819
G1 X86.748 Y123.224 E144.13938
G1 X86.115 Y123.146 E144.25418
