;FLAVOR:Marlin
;TIME:2349
;Filament used: 1.7312m
;Layer height: 0.3
;MINX:77.658
;MINY:95.417
;MINZ:0.3
;MAXX:141.187
;MAXY:127.578
;MAXZ:48
;Generated with Cura_SteamEngine 5.2.1
M140 S60
M105
M190 S60
M104 S200
M105
M109 S200
M82 ;absolute extrusion mode
G21 ;metric values
G90 ;absolute positioning
M82 ;set extruder to absolute mode
M107 ;start with the fan off
G28 Z0 ;move Z to bottom endstops
G28 X0 Y0 ;move X/Y to endstops
G1 X15 Y0 F4000 ;move X/Y to front of printer
G1 Z15.0 F9000 ;move the platform to 15mm
G92 E0 ;zero the extruded length
G1 F200 E10 ;extrude 10 mm of feed stock
G92 E0 ;zero the extruded length again
G1 Y50 F9000
;Put printing message on LCD screen
M117 Printing...
G92 E0
G92 E0
G1 F1500 E-6.5
;LAYER_COUNT:160
;LAYER:0
M107
G0 F3600 X81.19 Y99.084 Z0.3
;TYPE:SKIRT
G1 F1500 E0
G1 F1800 X81.996 Y98.509 E0.02561
G1 X82.668 Y98.078 E0.04626
G1 X83.38 Y97.717 E0.0669
G1 X84.124 Y97.428 E0.08755
G1 X84.794 Y97.238 E0.10556
G1 X85.415 Y97.091 E0.12207
G1 X86.2 Y96.947 E0.14271
G1 X86.766 Y96.892 E0.15742
G1 X110.301 Y95.454 E0.76727
G1 X111.442 Y95.417 E0.7968
G1 X112.41 Y95.436 E0.82184
G1 X113.21 Y95.476 E0.84256
G1 X113.771 Y95.524 E0.85712
G1 X114.58 Y95.622 E0.8782
G1 X115.757 Y95.805 E0.90901
G1 X116.84 Y96.04 E0.93767
G1 X117.723 Y96.265 E0.96124
G1 X118.239 Y96.415 E0.97514
G1 X118.977 Y96.657 E0.99523
G1 X120.132 Y97.078 E1.02702
G1 X121.396 Y97.634 E1.06274
G1 X122.455 Y98.182 E1.09358
G1 X123.216 Y98.614 E1.11621
G1 X124 Y99.095 E1.14
G1 X124.945 Y99.739 E1.16958
G1 X125.875 Y100.443 E1.19975
G1 X126.836 Y101.261 E1.23239
G1 X127.583 Y101.96 E1.25885
G1 X128.216 Y102.606 E1.28224
G1 X129.083 Y103.58 E1.31597
G1 X129.729 Y104.389 E1.34275
G1 X130.249 Y105.095 E1.36543
G1 X130.691 Y105.738 E1.38561
G1 X130.987 Y106.203 E1.39986
G1 X131.383 Y106.874 E1.42002
G1 X131.754 Y107.581 E1.44067
G1 X132.213 Y108.789 E1.47409
G1 X132.468 Y109.812 E1.50136
G1 X132.581 Y110.603 E1.52203
G1 X132.616 Y111.4 E1.54266
G1 X132.575 Y112.271 E1.56521
G1 X132.488 Y113.065 E1.58587
G1 X132.322 Y113.846 E1.60652
G1 X132.034 Y114.756 E1.63121
G1 X131.644 Y115.672 E1.65696
G1 X131.163 Y116.523 E1.68224
G1 X130.428 Y117.656 E1.71717
G1 X129.771 Y118.557 E1.74602
G1 X129.202 Y119.287 E1.76996
G1 X128.321 Y120.283 E1.80435
G1 X127.886 Y120.737 E1.82061
G1 X127.016 Y121.576 E1.85187
G1 X126.034 Y122.426 E1.88546
G1 X125.515 Y122.839 E1.90262
G1 X124.791 Y123.367 E1.9258
G1 X124.115 Y123.827 E1.94694
G1 X123.331 Y124.317 E1.97086
G1 X122.5 Y124.793 E1.99563
G1 X121.461 Y125.33 E2.02588
G1 X120.681 Y125.682 E2.04801
G1 X119.605 Y126.121 E2.07807
G1 X119.061 Y126.317 E2.09302
G1 X117.945 Y126.673 E2.12332
G1 X116.97 Y126.928 E2.14939
G1 X116.026 Y127.14 E2.17441
G1 X115.505 Y127.239 E2.18813
G1 X114.516 Y127.387 E2.21399
G1 X113.526 Y127.495 E2.23975
G1 X112.645 Y127.558 E2.2626
G1 X112.076 Y127.578 E2.27732
G1 X110.818 Y127.578 E2.30986
G1 X86.573 Y126.094 E2.93812
G1 X85.779 Y126.005 E2.95878
G1 X84.515 Y125.707 E2.99237
G1 X83.524 Y125.344 E3.01967
G1 X82.318 Y124.724 E3.05474
G1 X81.428 Y124.118 E3.08259
G1 X80.817 Y123.604 E3.10324
G1 X80.146 Y122.901 E3.12838
G1 X79.781 Y122.468 E3.14303
G1 X79.298 Y121.832 E3.16368
G1 X78.88 Y121.152 E3.18433
G1 X78.39 Y120.116 E3.21397
G1 X78.041 Y119.115 E3.24139
G1 X77.856 Y118.339 E3.26202
G1 X77.723 Y117.403 E3.28647
G1 X77.658 Y116.389 E3.31275
G1 X77.659 Y106.435 E3.57021
G1 X77.699 Y105.638 E3.59085
G1 X77.819 Y104.848 E3.61152
G1 X77.961 Y104.261 E3.62714
G1 X78.147 Y103.605 E3.64477
G1 X78.403 Y102.848 E3.66544
G1 X78.734 Y102.121 E3.6861
G1 X79.329 Y101.12 E3.71622
G1 X79.964 Y100.277 E3.74352
G1 X80.506 Y99.691 E3.76416
G1 X81.19 Y99.084 E3.78782
G0 F3600 X81.769 Y99.347
G1 F1800 X82.315 Y98.957 E3.80517
G1 X82.965 Y98.542 E3.82512
G1 X83.653 Y98.197 E3.84502
G1 X84.374 Y97.925 E3.86496
G1 X84.921 Y97.774 E3.87963
G1 X85.542 Y97.627 E3.89614
G1 X86.3 Y97.488 E3.91607
G1 X86.799 Y97.441 E3.92903
G1 X110.334 Y96.003 E4.53889
G1 X111.447 Y95.967 E4.56769
G1 X112.383 Y95.985 E4.59191
G1 X113.183 Y96.025 E4.61262
G1 X113.705 Y96.07 E4.62618
G1 X114.514 Y96.168 E4.64725
G1 X115.636 Y96.342 E4.67662
G1 X116.387 Y96.499 E4.69646
G1 X117.587 Y96.798 E4.72845
G1 X118.068 Y96.938 E4.74141
G1 X119.071 Y97.272 E4.76875
G1 X119.941 Y97.594 E4.79274
G1 X121.162 Y98.132 E4.82725
G1 X122.188 Y98.663 E4.85714
G1 X122.657 Y98.924 E4.87102
G1 X123.695 Y99.553 E4.90241
G1 X124.612 Y100.177 E4.9311
G1 X125.531 Y100.873 E4.96091
G1 X126.489 Y101.689 E4.99346
G1 X127.314 Y102.471 E5.02286
G1 X127.822 Y102.991 E5.04167
G1 X128.649 Y103.92 E5.07384
G1 X129.115 Y104.495 E5.09298
G1 X129.623 Y105.166 E5.11475
G1 X130.238 Y106.05 E5.1426
G1 X130.513 Y106.482 E5.15584
G1 X130.909 Y107.153 E5.176
G1 X131.266 Y107.836 E5.19593
G1 X131.69 Y108.956 E5.2269
G1 X131.933 Y109.944 E5.25322
G1 X132.039 Y110.708 E5.27317
G1 X132.056 Y111.976 E5.30597
G1 X131.94 Y113.005 E5.33275
G1 X131.776 Y113.757 E5.35266
G1 X131.514 Y114.578 E5.37495
G1 X131.137 Y115.455 E5.39964
G1 X130.702 Y116.224 E5.42249
G1 X129.987 Y117.326 E5.45647
G1 X129.507 Y117.993 E5.47772
G1 X128.78 Y118.936 E5.50852
G1 X127.91 Y119.919 E5.54247
G1 X127.504 Y120.342 E5.55764
G1 X126.654 Y121.162 E5.58818
G1 X125.674 Y122.01 E5.6217
G1 X125.191 Y122.394 E5.63766
G1 X124.467 Y122.922 E5.66084
G1 X123.809 Y123.37 E5.68143
G1 X122.785 Y124.002 E5.71255
G1 X122.231 Y124.314 E5.729
G1 X121.22 Y124.836 E5.75843
G1 X120.455 Y125.181 E5.78013
G1 X119.4 Y125.611 E5.8096
G1 X118.893 Y125.793 E5.82353
G1 X117.788 Y126.146 E5.85353
G1 X116.85 Y126.392 E5.87861
G1 X115.668 Y126.657 E5.90995
G1 X114.732 Y126.803 E5.93445
G1 X113.674 Y126.933 E5.96202
G1 X112.606 Y127.009 E5.98971
G1 X112.076 Y127.028 E6.00343
G1 X110.835 Y127.028 E6.03553
G1 X86.606 Y125.545 E6.66337
G1 X85.841 Y125.458 E6.68328
G1 X84.67 Y125.18 E6.71441
G1 X83.714 Y124.827 E6.74077
G1 X82.599 Y124.251 E6.77323
G1 X81.739 Y123.663 E6.80018
G1 X81.152 Y123.165 E6.82009
G1 X80.567 Y122.547 E6.8421
G1 X80.202 Y122.114 E6.85674
G1 X79.737 Y121.499 E6.87669
G1 X79.337 Y120.841 E6.8966
G1 X78.895 Y119.897 E6.92356
G1 X78.562 Y118.935 E6.94989
G1 X78.285 Y117.6 E6.98516
G1 X78.208 Y116.389 E7.01654
G1 X78.209 Y106.435 E7.274
G1 X78.249 Y105.666 E7.29391
G1 X78.369 Y104.905 E7.31384
G1 X78.491 Y104.411 E7.327
G1 X78.677 Y103.755 E7.34464
G1 X78.925 Y103.025 E7.36458
G1 X79.248 Y102.326 E7.38449
G1 X79.79 Y101.42 E7.4118
G1 X80.403 Y100.609 E7.4381
G1 X80.929 Y100.046 E7.45802
G1 X81.769 Y99.347 E7.48629
G0 F3600 X82.089 Y99.795
G1 F1800 X82.635 Y99.405 E7.50364
G1 X83.261 Y99.007 E7.52283
G1 X83.925 Y98.679 E7.54198
G1 X84.733 Y98.383 E7.56424
G1 X85.668 Y98.162 E7.58909
G1 X86.51 Y98.01 E7.61122
G1 X110.368 Y96.552 E8.22945
G1 X111.456 Y96.517 E8.2576
G1 X112.355 Y96.535 E8.28086
G1 X113.403 Y96.587 E8.308
G1 X114.448 Y96.714 E8.33523
G1 X115.551 Y96.886 E8.3641
G1 X116.569 Y97.106 E8.39104
G1 X117.679 Y97.389 E8.42067
G1 X118.634 Y97.702 E8.44666
G1 X119.719 Y98.098 E8.47653
G1 X120.914 Y98.624 E8.5103
G1 X121.711 Y99.032 E8.53346
G1 X122.389 Y99.405 E8.55348
G1 X123.385 Y100.008 E8.58359
G1 X124.306 Y100.635 E8.61241
G1 X125.183 Y101.299 E8.64086
G1 X125.991 Y101.987 E8.66831
G1 X126.813 Y102.744 E8.69721
G1 X127.529 Y103.488 E8.72392
G1 X128.233 Y104.278 E8.75128
G1 X128.848 Y105.048 E8.77677
G1 X129.343 Y105.718 E8.79832
G1 X129.915 Y106.55 E8.82443
G1 X130.436 Y107.433 E8.85095
G1 X130.778 Y108.091 E8.87013
G1 X131.165 Y109.122 E8.89861
G1 X131.398 Y110.076 E8.92401
G1 X131.495 Y110.811 E8.94319
G1 X131.506 Y111.952 E8.9727
G1 X131.393 Y112.943 E8.9985
G1 X131.231 Y113.666 E9.01766
G1 X130.992 Y114.402 E9.03768
G1 X130.631 Y115.238 E9.06123
G1 X130.24 Y115.924 E9.08165
G1 X129.515 Y117.042 E9.11612
G1 X128.904 Y117.881 E9.14296
G1 X128.356 Y118.584 E9.16602
G1 X127.498 Y119.554 E9.19951
G1 X127.122 Y119.946 E9.21356
G1 X126.273 Y120.765 E9.24407
G1 X125.315 Y121.594 E9.27684
G1 X124.867 Y121.95 E9.29164
G1 X123.918 Y122.635 E9.32191
G1 X123.289 Y123.051 E9.34142
G1 X122.753 Y123.382 E9.35771
G1 X121.961 Y123.834 E9.3813
G1 X120.969 Y124.346 E9.41017
G1 X119.96 Y124.793 E9.43871
G1 X118.946 Y125.2 E9.46697
G1 X117.506 Y125.652 E9.50601
G1 X116.729 Y125.855 E9.52678
G1 X115.551 Y126.12 E9.55801
G1 X114.388 Y126.295 E9.58843
G1 X113.754 Y126.369 E9.60494
G1 X112.331 Y126.478 E9.64185
G1 X110.852 Y126.478 E9.68011
G1 X86.64 Y124.996 E10.30751
G1 X85.904 Y124.911 E10.32667
G1 X84.827 Y124.653 E10.35532
G1 X83.905 Y124.311 E10.38075
G1 X82.877 Y123.778 E10.4107
G1 X82.05 Y123.209 E10.43667
G1 X81.488 Y122.726 E10.45583
G1 X80.987 Y122.192 E10.47477
G1 X80.622 Y121.759 E10.48942
G1 X80.176 Y121.167 E10.50859
G1 X79.796 Y120.531 E10.52775
G1 X79.4 Y119.68 E10.55203
G1 X79.082 Y118.755 E10.57733
G1 X78.831 Y117.527 E10.60975
G1 X78.758 Y116.389 E10.63924
G1 X78.759 Y106.435 E10.8967
G1 X78.799 Y105.695 E10.91586
G1 X78.937 Y104.854 E10.93791
G1 X79.206 Y103.905 E10.96342
G1 X79.446 Y103.203 E10.98261
G1 X79.761 Y102.532 E11.00178
G1 X80.253 Y101.717 E11.0264
G1 X80.842 Y100.942 E11.05158
G1 X81.352 Y100.403 E11.07077
G1 X82.089 Y99.795 E11.09548
G0 F3600 X82.409 Y100.242
G1 F1800 X82.955 Y99.852 E11.11284
G1 X83.556 Y99.472 E11.13123
G1 X84.195 Y99.162 E11.1496
G1 X85.174 Y98.844 E11.17622
G1 X85.795 Y98.697 E11.19273
G1 X86.583 Y98.556 E11.21343
G1 X110.61 Y97.091 E11.83603
G1 X111.324 Y97.071 E11.85451
G1 X112.328 Y97.084 E11.88048
G1 X113.352 Y97.135 E11.907
G1 X114.382 Y97.26 E11.93383
G1 X115.298 Y97.403 E11.95781
G1 X116.163 Y97.576 E11.98063
G1 X117.509 Y97.912 E12.01651
G1 X118.463 Y98.225 E12.04248
G1 X119.521 Y98.611 E12.07161
G1 X120.691 Y99.127 E12.10468
G1 X121.653 Y99.624 E12.13269
G1 X122.122 Y99.885 E12.14657
G1 X123.111 Y100.485 E12.17649
G1 X123.97 Y101.071 E12.20338
G1 X124.834 Y101.725 E12.23141
G1 X125.754 Y102.508 E12.26266
G1 X126.527 Y103.24 E12.29019
G1 X127.118 Y103.854 E12.31224
G1 X127.811 Y104.632 E12.33918
G1 X128.407 Y105.377 E12.36386
G1 X128.889 Y106.03 E12.38485
G1 X129.457 Y106.856 E12.41078
G1 X129.962 Y107.712 E12.43649
G1 X130.289 Y108.344 E12.45489
G1 X130.642 Y109.291 E12.48103
G1 X130.863 Y110.206 E12.50538
G1 X130.951 Y110.911 E12.52375
G1 X130.956 Y111.932 E12.55016
G1 X130.846 Y112.88 E12.57485
G1 X130.685 Y113.573 E12.59325
G1 X130.409 Y114.367 E12.61499
G1 X130.126 Y115.02 E12.6334
G1 X129.779 Y115.625 E12.65144
G1 X129.071 Y116.716 E12.68507
G1 X128.47 Y117.543 E12.71152
G1 X127.93 Y118.237 E12.73426
G1 X126.927 Y119.369 E12.77338
G1 X125.901 Y120.36 E12.81027
G1 X124.955 Y121.178 E12.84262
G1 X124.543 Y121.505 E12.85622
G1 X123.612 Y122.178 E12.88594
G1 X123 Y122.583 E12.90492
G1 X122.464 Y122.914 E12.92121
G1 X121.691 Y123.355 E12.94423
G1 X120.732 Y123.849 E12.97213
G1 X119.756 Y124.283 E12.99976
G1 X118.77 Y124.679 E13.02724
G1 X117.363 Y125.121 E13.06539
G1 X116.875 Y125.253 E13.07846
G1 X115.466 Y125.576 E13.11585
G1 X114.563 Y125.716 E13.13948
G1 X113.553 Y125.839 E13.1658
G1 X112.302 Y125.928 E13.19824
G1 X110.87 Y125.928 E13.23528
G1 X86.674 Y124.447 E13.86227
G1 X85.967 Y124.364 E13.88068
G1 X84.983 Y124.126 E13.90686
G1 X84.098 Y123.795 E13.9313
G1 X83.156 Y123.303 E13.95879
G1 X82.363 Y122.755 E13.98372
G1 X81.827 Y122.288 E14.00211
G1 X81.408 Y121.838 E14.01801
G1 X81.043 Y121.405 E14.03266
G1 X80.616 Y120.836 E14.05106
G1 X80.255 Y120.223 E14.06946
G1 X79.903 Y119.454 E14.09133
G1 X79.604 Y118.577 E14.1153
G1 X79.376 Y117.454 E14.14494
G1 X79.308 Y116.389 E14.17254
G1 X79.309 Y106.435 E14.42999
G1 X79.349 Y105.725 E14.44839
G1 X79.549 Y104.711 E14.47512
G1 X79.735 Y104.055 E14.49275
G1 X79.967 Y103.383 E14.51114
G1 X80.273 Y102.741 E14.52954
G1 X80.718 Y102.012 E14.55163
G1 X81.281 Y101.275 E14.57561
G1 X81.773 Y100.762 E14.594
G1 X82.409 Y100.242 E14.61525
G0 F3600 X82.728 Y100.69
G1 F1800 X83.274 Y100.3 E14.6326
G1 X83.849 Y99.938 E14.65017
G1 X84.463 Y99.646 E14.66776
G1 X85.301 Y99.379 E14.69051
G1 X85.922 Y99.232 E14.70701
G1 X86.9 Y99.088 E14.73258
G1 X110.625 Y97.641 E15.34736
G1 X111.339 Y97.621 E15.36583
G1 X112.3 Y97.633 E15.39069
G1 X113.299 Y97.683 E15.41656
G1 X114.315 Y97.806 E15.44303
G1 X115.345 Y97.967 E15.47
G1 X116.297 Y98.172 E15.49518
G1 X117.376 Y98.447 E15.52398
G1 X118.291 Y98.747 E15.54889
G1 X119.321 Y99.124 E15.57726
G1 X120.433 Y99.613 E15.60868
G1 X121.209 Y100.011 E15.63123
G1 X122.066 Y100.489 E15.65661
G1 X122.692 Y100.873 E15.67561
G1 X123.64 Y101.511 E15.70516
G1 X124.5 Y102.163 E15.73308
G1 X125.476 Y103.002 E15.76637
G1 X126.134 Y103.624 E15.78979
G1 X126.525 Y104.024 E15.80425
G1 X127.294 Y104.879 E15.834
G1 X127.832 Y105.533 E15.8559
G1 X128.302 Y106.155 E15.87606
G1 X128.983 Y107.136 E15.90695
G1 X129.488 Y107.992 E15.93266
G1 X129.799 Y108.596 E15.95023
G1 X130.117 Y109.459 E15.97402
G1 X130.327 Y110.334 E15.99729
G1 X130.406 Y111.009 E16.01487
G1 X130.406 Y111.913 E16.03825
G1 X130.299 Y112.816 E16.06177
G1 X129.99 Y113.951 E16.09219
G1 X129.621 Y114.8 E16.11614
G1 X129.317 Y115.326 E16.13185
G1 X128.54 Y116.512 E16.16852
G1 X128.168 Y117.029 E16.185
G1 X127.518 Y117.872 E16.21253
G1 X126.521 Y118.998 E16.25143
G1 X125.538 Y119.946 E16.28675
G1 X124.404 Y120.927 E16.32553
G1 X123.306 Y121.721 E16.36058
G1 X122.711 Y122.115 E16.37904
G1 X121.975 Y122.564 E16.40134
G1 X121.201 Y122.994 E16.42424
G1 X120.372 Y123.408 E16.4482
G1 X119.551 Y123.773 E16.47144
G1 X118.594 Y124.157 E16.49811
G1 X117.219 Y124.59 E16.5354
G1 X116.488 Y124.782 E16.55495
G1 X115.356 Y125.036 E16.58495
G1 X114.261 Y125.202 E16.6136
G1 X113.369 Y125.3 E16.63681
G1 X112.278 Y125.378 E16.6651
G1 X110.887 Y125.378 E16.70108
G1 X86.707 Y123.898 E17.32765
G1 X86.033 Y123.817 E17.34521
G1 X85.137 Y123.597 E17.36907
G1 X84.291 Y123.279 E17.39245
G1 X83.434 Y122.828 E17.4175
G1 X82.677 Y122.302 E17.44134
G1 X82.168 Y121.852 E17.45891
G1 X81.828 Y121.483 E17.47189
G1 X81.463 Y121.05 E17.48653
G1 X81.057 Y120.506 E17.50409
G1 X80.717 Y119.917 E17.52168
G1 X80.343 Y119.043 E17.54627
G1 X80.125 Y118.4 E17.56383
G1 X79.921 Y117.379 E17.59076
G1 X79.858 Y116.389 E17.61642
G1 X79.859 Y106.435 E17.87387
G1 X79.899 Y105.757 E17.89144
G1 X80.078 Y104.861 E17.91507
G1 X80.264 Y104.205 E17.93271
G1 X80.487 Y103.563 E17.95029
G1 X80.785 Y102.952 E17.96787
G1 X81.305 Y102.149 E17.99261
G1 X81.718 Y101.61 E18.01018
G1 X82.192 Y101.123 E18.02775
G1 X82.728 Y100.69 E18.04558
G0 F3600 X83.048 Y101.137
G1 F1800 X83.594 Y100.747 E18.06293
G1 X84.142 Y100.405 E18.07964
G1 X84.728 Y100.133 E18.09635
G1 X85.427 Y99.915 E18.11529
G1 X86.048 Y99.768 E18.13179
G1 X86.933 Y99.637 E18.15493
G1 X110.641 Y98.191 E18.76927
G1 X111.573 Y98.169 E18.79338
G1 X112.084 Y98.176 E18.8066
G1 X113.256 Y98.232 E18.83694
G1 X114.249 Y98.352 E18.86281
G1 X115.123 Y98.489 E18.8857
G1 X115.938 Y98.653 E18.9072
G1 X117.218 Y98.974 E18.94133
G1 X118.307 Y99.335 E18.971
G1 X119.108 Y99.632 E18.9931
G1 X120.214 Y100.118 E19.02435
G1 X120.959 Y100.5 E19.046
G1 X121.587 Y100.846 E19.06455
G1 X122.404 Y101.342 E19.08927
G1 X123.223 Y101.893 E19.1148
G1 X124.14 Y102.579 E19.14442
G1 X124.921 Y103.243 E19.17093
G1 X125.571 Y103.843 E19.19381
G1 X126.131 Y104.409 E19.2144
G1 X126.962 Y105.332 E19.24653
G1 X127.526 Y106.036 E19.26986
G1 X127.983 Y106.653 E19.28972
G1 X128.528 Y107.446 E19.3146
G1 X129.015 Y108.271 E19.33938
G1 X129.308 Y108.847 E19.3561
G1 X129.595 Y109.627 E19.37759
G1 X129.791 Y110.462 E19.39978
G1 X129.86 Y111.104 E19.41648
G1 X129.856 Y111.898 E19.43702
G1 X129.752 Y112.75 E19.45922
G1 X129.471 Y113.77 E19.48658
G1 X129.116 Y114.579 E19.50943
G1 X128.856 Y115.026 E19.52281
G1 X128.093 Y116.191 E19.55883
G1 X127.602 Y116.867 E19.58044
G1 X127.083 Y117.533 E19.60227
G1 X126.13 Y118.611 E19.63949
G1 X125.166 Y119.541 E19.67413
G1 X124.065 Y120.493 E19.71178
G1 X123.171 Y121.145 E19.7404
G1 X122.585 Y121.542 E19.75871
G1 X121.886 Y121.978 E19.78001
G1 X121.151 Y122.397 E19.8019
G1 X120.361 Y122.803 E19.82487
G1 X119.346 Y123.262 E19.85368
G1 X118.401 Y123.641 E19.88002
G1 X117.075 Y124.059 E19.91598
G1 X116.368 Y124.245 E19.93489
G1 X115.243 Y124.498 E19.96471
G1 X114.197 Y124.656 E19.99207
G1 X113.33 Y124.752 E20.01463
