;FLAVOR:UltiGCode
;TIME:5428
;MATERIAL:9490
;MATERIAL2:0
;NOZZLE_DIAMETER:0.4
;MINX:77.818
;MINY:95.577
;MINZ:0.3
;MAXX:141.268
;MAXY:127.418
;MAXZ:48
;Generated with Cura_SteamEngine 5.2.1
M82 ;absolute extrusion mode
G0 F3000 Y50 ;avoid prime blob
G92 E0
G92 E0
G10
;LAYER_COUNT:319
;LAYER:0
M107
G0 F3600 X81.299 Y99.204 Z0.3
;TYPE:SKIRT
G11
G1 F1800 X82.09 Y98.639 E0.11665
G1 X82.755 Y98.213 E0.21142
G1 X83.46 Y97.857 E0.30619
G1 X84.197 Y97.573 E0.40097
G1 X84.831 Y97.394 E0.48002
G1 X85.457 Y97.246 E0.55722
G1 X86.234 Y97.104 E0.652
G1 X86.776 Y97.052 E0.71734
G1 X110.31 Y95.614 E3.54669
G1 X111.444 Y95.577 E3.68284
G1 X112.402 Y95.596 E3.79782
G1 X113.203 Y95.636 E3.89406
G1 X113.751 Y95.682 E3.96005
G1 X114.561 Y95.78 E4.05796
G1 X115.548 Y95.935 E4.17785
G1 X116.603 Y96.146 E4.30696
G1 X117.684 Y96.421 E4.44081
G1 X118.185 Y96.566 E4.5034
G1 X118.924 Y96.808 E4.59671
G1 X120.077 Y97.228 E4.74397
G1 X121.31 Y97.77 E4.90559
G1 X122.14 Y98.195 E5.01749
G1 X122.842 Y98.58 E5.11357
G1 X123.903 Y99.221 E5.26232
G1 X124.84 Y99.86 E5.39841
G1 X125.768 Y100.564 E5.53819
G1 X126.768 Y101.414 E5.69569
G1 X127.591 Y102.196 E5.83192
G1 X128.096 Y102.713 E5.91864
G1 X128.943 Y103.663 E6.07137
G1 X129.417 Y104.249 E6.16182
G1 X130.026 Y105.052 E6.28276
G1 X130.564 Y105.837 E6.39696
G1 X130.845 Y106.279 E6.45981
G1 X131.245 Y106.956 E6.55417
G1 X131.612 Y107.656 E6.64901
G1 X132.061 Y108.835 E6.80041
G1 X132.311 Y109.845 E6.92526
G1 X132.423 Y110.627 E7.02006
G1 X132.446 Y111.982 E7.18268
G1 X132.33 Y113.042 E7.31064
G1 X132.165 Y113.814 E7.40538
G1 X131.883 Y114.7 E7.51695
G1 X131.498 Y115.606 E7.63508
G1 X131.029 Y116.435 E7.74938
G1 X130.295 Y117.565 E7.91107
G1 X129.643 Y118.462 E8.04414
G1 X129.081 Y119.183 E8.15384
G1 X128.205 Y120.174 E8.31256
G1 X127.776 Y120.622 E8.387
G1 X126.913 Y121.454 E8.53085
G1 X125.93 Y122.305 E8.68687
G1 X125.422 Y122.709 E8.76476
G1 X124.441 Y123.416 E8.90986
G1 X123.783 Y123.851 E9.00452
G1 X123.247 Y124.182 E9.08011
G1 X122.28 Y124.734 E9.21373
G1 X121.369 Y125.196 E9.3363
G1 X120.314 Y125.664 E9.4748
G1 X119.545 Y125.973 E9.57425
G1 X119.014 Y126.164 E9.64197
G1 X117.898 Y126.521 E9.78257
G1 X116.935 Y126.772 E9.90199
G1 X115.994 Y126.983 E10.01772
G1 X115.497 Y127.078 E10.07844
G1 X114.803 Y127.187 E10.16274
G1 X113.721 Y127.32 E10.29356
G1 X112.632 Y127.398 E10.42457
G1 X112.076 Y127.418 E10.49133
G1 X110.827 Y127.418 E10.64121
G1 X86.578 Y125.934 E13.55654
G1 X85.793 Y125.846 E13.65133
G1 X84.555 Y125.554 E13.80396
G1 X83.575 Y125.193 E13.92929
G1 X82.4 Y124.588 E14.08788
G1 X81.518 Y123.986 E14.21603
G1 X80.914 Y123.477 E14.31081
G1 X80.261 Y122.789 E14.42464
G1 X79.894 Y122.352 E14.49312
G1 X79.417 Y121.723 E14.58785
G1 X79.007 Y121.048 E14.68262
G1 X78.541 Y120.063 E14.81338
G1 X78.196 Y119.075 E14.93896
G1 X78.012 Y118.307 E15.03373
G1 X77.88 Y117.375 E15.14668
G1 X77.818 Y116.393 E15.26476
G1 X77.819 Y106.431 E16.4602
G1 X77.859 Y105.643 E16.55488
G1 X77.979 Y104.862 E16.6497
G1 X78.117 Y104.295 E16.71973
G1 X78.305 Y103.635 E16.80208
G1 X78.56 Y102.888 E16.89679
G1 X78.889 Y102.17 E16.99157
G1 X79.462 Y101.207 E17.12604
G1 X80.091 Y100.374 E17.2513
G1 X80.628 Y99.795 E17.34606
G1 X81.299 Y99.204 E17.45336
G0 F3600 X81.769 Y99.361
G1 F1800 X82.323 Y98.965 E17.53507
G1 X82.971 Y98.551 E17.62735
G1 X83.659 Y98.206 E17.71971
G1 X84.378 Y97.935 E17.81191
G1 X84.923 Y97.784 E17.87978
G1 X85.549 Y97.636 E17.95697
G1 X86.444 Y97.473 E18.06613
G1 X110.335 Y96.013 E20.9384
G1 X111.448 Y95.977 E21.07203
G1 X112.382 Y95.995 E21.18413
G1 X113.183 Y96.035 E21.28037
G1 X113.703 Y96.08 E21.34301
G1 X114.816 Y96.221 E21.47763
G1 X115.796 Y96.387 E21.59691
G1 X116.534 Y96.54 E21.68735
G1 X117.832 Y96.871 E21.8481
G1 X118.8 Y97.188 E21.97033
G1 X119.917 Y97.596 E22.11303
G1 X121.151 Y98.138 E22.27476
G1 X121.958 Y98.551 E22.38355
G1 X122.648 Y98.93 E22.47802
G1 X123.686 Y99.557 E22.62354
G1 X124.612 Y100.189 E22.75807
G1 X125.521 Y100.879 E22.89502
G1 X126.479 Y101.693 E23.04587
G1 X127.07 Y102.246 E23.143
G1 X127.809 Y102.991 E23.26892
G1 X128.649 Y103.934 E23.42046
G1 X129.279 Y104.722 E23.54153
G1 X129.615 Y105.171 E23.60883
G1 X130.366 Y106.254 E23.76698
G1 X130.901 Y107.16 E23.89324
G1 X131.257 Y107.841 E23.98545
G1 X131.678 Y108.955 E24.12836
G1 X131.923 Y109.942 E24.25039
G1 X132.029 Y110.703 E24.34259
G1 X132.046 Y111.966 E24.49417
G1 X131.932 Y112.998 E24.61876
G1 X131.768 Y113.75 E24.71112
G1 X131.505 Y114.572 E24.81469
G1 X131.129 Y115.449 E24.92919
G1 X130.693 Y116.217 E25.03517
G1 X129.965 Y117.338 E25.19556
G1 X129.327 Y118.216 E25.3258
G1 X128.771 Y118.929 E25.4343
G1 X127.905 Y119.909 E25.59124
G1 X127.498 Y120.335 E25.66194
G1 X126.648 Y121.155 E25.80367
G1 X125.669 Y122.002 E25.95901
G1 X125.186 Y122.386 E26.03306
G1 X124.218 Y123.084 E26.17627
G1 X123.573 Y123.51 E26.26903
G1 X123.037 Y123.841 E26.34462
G1 X122.088 Y124.383 E26.47577
G1 X121.195 Y124.835 E26.59587
G1 X120.446 Y125.173 E26.69448
G1 X119.396 Y125.601 E26.83054
G1 X118.892 Y125.783 E26.89485
G1 X117.781 Y126.138 E27.03481
G1 X116.847 Y126.382 E27.15065
G1 X115.663 Y126.648 E27.29627
G1 X114.45 Y126.831 E27.44348
G1 X113.485 Y126.936 E27.55996
G1 X112.603 Y126.999 E27.66607
G1 X112.076 Y127.018 E27.72935
G1 X110.835 Y127.018 E27.87827
G1 X86.602 Y125.535 E30.79167
G1 X85.838 Y125.448 E30.88394
G1 X84.669 Y125.171 E31.02811
G1 X83.713 Y124.817 E31.15044
G1 X82.603 Y124.243 E31.3004
G1 X81.744 Y123.655 E31.42531
G1 X81.157 Y123.157 E31.51769
G1 X80.567 Y122.532 E31.62083
G1 X80.2 Y122.095 E31.68931
G1 X79.737 Y121.481 E31.78159
G1 X79.34 Y120.822 E31.87391
G1 X78.909 Y119.904 E31.99561
G1 X78.574 Y118.943 E32.11773
G1 X78.398 Y118.194 E32.21006
G1 X78.277 Y117.325 E32.31535
G1 X78.218 Y116.393 E32.42741
G1 X78.219 Y106.431 E33.62285
G1 X78.259 Y105.663 E33.71513
G1 X78.379 Y104.903 E33.80746
G1 X78.502 Y104.405 E33.86902
G1 X78.69 Y103.745 E33.95137
G1 X78.939 Y103.017 E34.0437
G1 X79.262 Y102.319 E34.13599
G1 X79.799 Y101.423 E34.26134
G1 X80.41 Y100.616 E34.38281
G1 X80.936 Y100.054 E34.47518
G1 X81.769 Y99.361 E34.60521
G0 F3600 X82.001 Y99.686
G1 F1800 X82.555 Y99.29 E34.68693
G1 X83.186 Y98.888 E34.77671
G1 X83.857 Y98.556 E34.86654
G1 X84.678 Y98.253 E34.97156
G1 X85.641 Y98.025 E35.09031
G1 X86.501 Y97.87 E35.19518
G1 X110.359 Y96.412 E38.06348
G1 X111.456 Y96.377 E38.19519
G1 X112.362 Y96.395 E38.30393
G1 X113.426 Y96.448 E38.43177
G1 X114.751 Y96.615 E38.59202
G1 X115.419 Y96.724 E38.67324
G1 X116.298 Y96.9 E38.78082
G1 X117.709 Y97.252 E38.95533
G1 X118.932 Y97.658 E39.10996
G1 X119.784 Y97.974 E39.21901
G1 X120.981 Y98.5 E39.3759
G1 X121.776 Y98.907 E39.48308
G1 X122.453 Y99.279 E39.57578
G1 X123.466 Y99.892 E39.71786
G1 X124.384 Y100.518 E39.85119
G1 X125.266 Y101.187 E39.98404
G1 X126.208 Y101.988 E40.13242
G1 X126.796 Y102.538 E40.22903
G1 X127.518 Y103.266 E40.35207
G1 X128.22 Y104.054 E40.47871
G1 X128.795 Y104.752 E40.58723
G1 X129.294 Y105.411 E40.68643
G1 X130.032 Y106.474 E40.84172
G1 X130.557 Y107.363 E40.96561
G1 X130.902 Y108.027 E41.0554
G1 X131.297 Y109.075 E41.1898
G1 X131.534 Y110.037 E41.30869
G1 X131.633 Y110.779 E41.39852
G1 X131.646 Y111.951 E41.53917
G1 X131.533 Y112.954 E41.66029
G1 X131.371 Y113.684 E41.75002
G1 X131.127 Y114.442 E41.84558
G1 X130.761 Y115.291 E41.95652
G1 X130.358 Y115.999 E42.05428
G1 X129.638 Y117.107 E42.21285
G1 X129.012 Y117.97 E42.34078
G1 X128.469 Y118.666 E42.44671
G1 X127.605 Y119.644 E42.60331
G1 X127.22 Y120.047 E42.67019
G1 X126.372 Y120.865 E42.81158
G1 X125.407 Y121.7 E42.96471
G1 X124.951 Y122.062 E43.03458
G1 X123.996 Y122.752 E43.17596
G1 X123.363 Y123.17 E43.26699
G1 X122.583 Y123.645 E43.37658
G1 X122.027 Y123.958 E43.45315
G1 X121.039 Y124.467 E43.58651
G1 X120.282 Y124.808 E43.68615
G1 X119.247 Y125.23 E43.82027
G1 X118.77 Y125.402 E43.88112
G1 X117.663 Y125.756 E44.02059
G1 X116.76 Y125.991 E44.13256
G1 X115.579 Y126.256 E44.2778
G1 X114.403 Y126.434 E44.42053
G1 X113.457 Y126.537 E44.53472
G1 X112.323 Y126.618 E44.67115
G1 X110.842 Y126.618 E44.84887
G1 X86.626 Y125.136 E47.76022
G1 X85.883 Y125.05 E47.84998
G1 X84.782 Y124.787 E47.98581
G1 X83.852 Y124.441 E48.10489
G1 X82.807 Y123.899 E48.24615
G1 X81.97 Y123.324 E48.36801
G1 X81.402 Y122.838 E48.45771
G1 X80.874 Y122.275 E48.55034
G1 X80.507 Y121.838 E48.61882
G1 X80.057 Y121.24 E48.70862
G1 X79.673 Y120.598 E48.79839
G1 X79.275 Y119.742 E48.91167
G1 X78.952 Y118.812 E49.02981
G1 X78.691 Y117.541 E49.18552
G1 X78.618 Y116.393 E49.32355
G1 X78.619 Y106.431 E50.51899
G1 X78.659 Y105.684 E50.60876
G1 X78.799 Y104.823 E50.71344
G1 X79.075 Y103.854 E50.83434
G1 X79.318 Y103.147 E50.92405
G1 X79.635 Y102.469 E51.01387
G1 X80.137 Y101.639 E51.13027
G1 X80.73 Y100.858 E51.24794
G1 X81.243 Y100.314 E51.33767
G1 X82.001 Y99.686 E51.45579
G0 F3600 X82.234 Y100.012
G1 F1800 X82.788 Y99.616 E51.53751
G1 X83.401 Y99.226 E51.6247
G1 X84.054 Y98.907 E51.71191
G1 X84.83 Y98.627 E51.8109
G1 X85.733 Y98.414 E51.92224
G1 X86.554 Y98.267 E52.02232
G1 X110.383 Y96.811 E54.88714
G1 X111.459 Y96.778 E55.01632
G1 X112.342 Y96.794 E55.12229
G1 X113.386 Y96.846 E55.24773
G1 X114.687 Y97.01 E55.40509
G1 X115.355 Y97.119 E55.48631
G1 X116.358 Y97.32 E55.60906
G1 X117.608 Y97.639 E55.76387
G1 X118.793 Y98.033 E55.91372
G1 X119.636 Y98.346 E56.02163
G1 X120.799 Y98.856 E56.17402
G1 X121.789 Y99.368 E56.30776
G1 X122.506 Y99.773 E56.40658
G1 X123.274 Y100.244 E56.51469
G1 X124.149 Y100.841 E56.6418
G1 X125.009 Y101.493 E56.77131
G1 X125.948 Y102.292 E56.91926
G1 X126.523 Y102.83 E57.01375
G1 X127.218 Y103.531 E57.13221
G1 X127.921 Y104.32 E57.25902
G1 X128.484 Y105.004 E57.36533
G1 X128.974 Y105.651 E57.46272
G1 X129.689 Y106.682 E57.61328
G1 X130.212 Y107.567 E57.73664
G1 X130.547 Y108.211 E57.82375
G1 X130.917 Y109.199 E57.95035
G1 X131.145 Y110.133 E58.06572
G1 X131.238 Y110.853 E58.15284
G1 X131.247 Y111.937 E58.28293
G1 X131.135 Y112.909 E58.40034
G1 X130.974 Y113.617 E58.48747
G1 X130.681 Y114.466 E58.59524
G1 X130.393 Y115.133 E58.68242
G1 X130.022 Y115.781 E58.77203
G1 X129.31 Y116.878 E58.92896
G1 X128.854 Y117.513 E59.02278
G1 X128.163 Y118.409 E59.15856
G1 X127.306 Y119.379 E59.31388
G1 X126.943 Y119.759 E59.37694
G1 X126.115 Y120.558 E59.51502
G1 X125.145 Y121.397 E59.66892
G1 X124.715 Y121.739 E59.73485
G1 X123.773 Y122.419 E59.87426
G1 X123.153 Y122.83 E59.96353
G1 X122.617 Y123.161 E60.03912
G1 X121.831 Y123.609 E60.14769
G1 X120.855 Y124.111 E60.27939
G1 X119.867 Y124.55 E60.40913
G1 X118.877 Y124.948 E60.53717
G1 X117.566 Y125.367 E60.70233
G1 X116.672 Y125.601 E60.81322
G1 X115.507 Y125.862 E60.95649
G1 X114.357 Y126.037 E61.09608
G1 X113.722 Y126.111 E61.17279
G1 X112.324 Y126.218 E61.34104
G1 X110.851 Y126.218 E61.5178
G1 X86.651 Y124.737 E64.42724
G1 X85.929 Y124.652 E64.51448
G1 X84.897 Y124.404 E64.64184
G1 X83.992 Y124.066 E64.75777
G1 X83.009 Y123.554 E64.89077
G1 X82.197 Y122.994 E65.00914
G1 X81.648 Y122.519 E65.09625
G1 X81.18 Y122.018 E65.17852
G1 X80.813 Y121.581 E65.247
G1 X80.377 Y120.999 E65.33427
G1 X80.008 Y120.374 E65.42136
G1 X79.642 Y119.58 E65.52628
G1 X79.331 Y118.681 E65.64043
G1 X79.087 Y117.488 E65.78655
G1 X79.018 Y116.393 E65.91821
G1 X79.019 Y106.431 E67.11365
G1 X79.059 Y105.706 E67.20079
G1 X79.197 Y104.885 E67.30069
G1 X79.459 Y103.964 E67.41559
G1 X79.697 Y103.277 E67.50284
G1 X80.008 Y102.621 E67.58996
G1 X80.474 Y101.855 E67.69755
G1 X81.049 Y101.1 E67.81143
G1 X81.549 Y100.574 E67.89852
G1 X82.234 Y100.012 E68.00485
G0 F3600 X82.467 Y100.337
G1 F1800 X83.021 Y99.941 E68.08656
G1 X83.616 Y99.565 E68.17103
G1 X84.249 Y99.259 E68.2554
G1 X85.2 Y98.951 E68.37535
G1 X85.826 Y98.803 E68.45254
G1 X86.609 Y98.665 E68.54795
G1 X110.613 Y97.201 E71.43378
G1 X111.328 Y97.181 E71.51962
G1 X112.322 Y97.194 E71.63891
G1 X113.359 Y97.246 E71.7635
G1 X114.622 Y97.405 E71.91626
G1 X115.552 Y97.562 E72.02944
G1 X116.406 Y97.746 E72.13427
G1 X117.498 Y98.024 E72.26949
G1 X118.654 Y98.408 E72.41566
G1 X119.487 Y98.717 E72.52228
G1 X120.628 Y99.218 E72.67182
G1 X121.595 Y99.718 E72.80245
G1 X122.297 Y100.114 E72.89917
G1 X122.923 Y100.498 E72.9873
G1 X123.906 Y101.159 E73.12945
G1 X124.775 Y101.818 E73.26032
G1 X125.782 Y102.684 E73.4197
G1 X126.25 Y103.122 E73.49662
G1 X126.939 Y103.818 E73.61414
G1 X127.726 Y104.702 E73.75617
G1 X128.318 Y105.441 E73.86979
G1 X128.654 Y105.89 E73.93709
G1 X129.357 Y106.905 E74.08525
G1 X129.868 Y107.77 E74.20581
G1 X130.191 Y108.396 E74.29034
G1 X130.536 Y109.321 E74.40881
G1 X130.755 Y110.227 E74.52066
G1 X130.842 Y110.926 E74.60519
G1 X130.846 Y111.924 E74.72495
G1 X130.737 Y112.863 E74.83839
G1 X130.578 Y113.548 E74.92277
G1 X130.306 Y114.328 E75.0219
G1 X130.026 Y114.973 E75.10628
G1 X129.687 Y115.563 E75.18793
G1 X128.974 Y116.661 E75.34503
G1 X128.381 Y117.478 E75.46618
G1 X127.85 Y118.159 E75.5698
G1 X126.838 Y119.304 E75.75318
G1 X125.839 Y120.268 E75.91977
G1 X124.883 Y121.095 E76.07146
G1 X124.479 Y121.416 E76.13338
G1 X123.551 Y122.087 E76.2708
G1 X122.943 Y122.489 E76.35827
G1 X122.19 Y122.948 E76.46409
G1 X121.634 Y123.261 E76.54066
G1 X120.673 Y123.756 E76.67037
G1 X119.718 Y124.179 E76.79571
G1 X118.746 Y124.57 E76.92144
G1 X117.445 Y124.986 E77.08534
G1 X116.585 Y125.211 E77.19202
G1 X115.451 Y125.465 E77.33147
G1 X114.555 Y125.606 E77.44031
G1 X113.676 Y125.713 E77.54657
G1 X112.31 Y125.818 E77.71097
G1 X110.875 Y125.818 E77.88317
G1 X86.675 Y124.337 E80.79261
G1 X85.976 Y124.255 E80.87706
G1 X85.008 Y124.019 E80.99662
G1 X84.133 Y123.691 E81.10876
G1 X83.213 Y123.21 E81.23334
G1 X82.425 Y122.665 E81.34831
G1 X81.895 Y122.201 E81.43284
G1 X81.486 Y121.76 E81.50502
G1 X81.119 Y121.323 E81.5735
G1 X80.698 Y120.759 E81.65795
G1 X80.343 Y120.151 E81.74244
G1 X80.006 Y119.416 E81.83947
G1 X79.71 Y118.55 E81.94929
G1 X79.483 Y117.436 E82.08572
G1 X79.418 Y116.393 E82.21112
G1 X79.419 Y106.431 E83.40656
G1 X79.459 Y105.729 E83.49094
G1 X79.656 Y104.734 E83.61265
G1 X79.844 Y104.074 E83.69501
G1 X80.075 Y103.408 E83.7796
G1 X80.38 Y102.774 E83.86402
G1 X80.813 Y102.07 E83.9632
G1 X81.367 Y101.343 E84.07289
G1 X81.855 Y100.836 E84.15733
G1 X82.467 Y100.337 E84.25209
G0 F3600 X82.699 Y100.662
G1 F1800 X83.253 Y100.266 E84.3338
G1 X83.829 Y99.904 E84.41544
G1 X84.444 Y99.611 E84.49719
G1 X85.292 Y99.341 E84.60398
G1 X85.918 Y99.193 E84.68117
G1 X86.898 Y99.048 E84.80005
G1 X110.624 Y97.601 E87.65246
G1 X111.339 Y97.581 E87.7383
G1 X112.302 Y97.593 E87.85387
G1 X113.305 Y97.643 E87.97438
G1 X114.321 Y97.766 E88.09719
G1 X115.226 Y97.909 E88.20713
G1 X116.054 Y98.075 E88.30847
G1 X117.383 Y98.407 E88.47285
G1 X118.515 Y98.783 E88.61599
G1 X119.323 Y99.083 E88.71942
G1 X120.466 Y99.585 E88.86922
G1 X121.401 Y100.067 E88.99545
G1 X122.088 Y100.455 E89.09013
G1 X122.949 Y100.991 E89.21184
G1 X123.559 Y101.407 E89.30044
G1 X124.512 Y102.12 E89.44326
G1 X125.302 Y102.792 E89.56772
G1 X125.976 Y103.414 E89.67778
G1 X126.553 Y103.996 E89.77612
G1 X127.41 Y104.947 E89.92975
G1 X127.998 Y105.681 E90.0426
G1 X128.334 Y106.13 E90.1099
G1 X129.021 Y107.122 E90.2547
G1 X129.524 Y107.974 E90.37343
G1 X129.835 Y108.579 E90.45506
G1 X130.155 Y109.443 E90.56562
G1 X130.366 Y110.321 E90.67398
G1 X130.446 Y110.997 E90.75567
G1 X130.446 Y111.912 E90.86547
G1 X130.339 Y112.816 E90.9747
G1 X130.181 Y113.479 E91.05649
G1 X129.93 Y114.189 E91.14686
G1 X129.658 Y114.814 E91.22865
G1 X129.351 Y115.346 E91.30236
G1 X128.575 Y116.53 E91.47224
G1 X128.066 Y117.232 E91.57629
G1 X127.542 Y117.904 E91.67855
G1 X126.555 Y119.021 E91.85742
G1 X125.564 Y119.977 E92.02265
G1 X124.435 Y120.954 E92.20182
G1 X123.517 Y121.623 E92.33813
G1 X122.913 Y122.033 E92.42573
G1 X122.196 Y122.48 E92.52712
G1 X121.438 Y122.912 E92.63182
G1 X120.515 Y123.388 E92.75644
G1 X119.569 Y123.808 E92.88064
G1 X118.613 Y124.192 E93.00427
G1 X117.482 Y124.554 E93.14677
G1 X116.735 Y124.762 E93.23982
G1 X115.373 Y125.073 E93.40747
G1 X114.493 Y125.211 E93.51436
G1 X113.629 Y125.316 E93.6188
G1 X112.292 Y125.418 E93.77971
G1 X110.884 Y125.418 E93.94867
G1 X86.7 Y123.938 E96.85618
G1 X86.024 Y123.857 E96.93788
G1 X85.121 Y123.635 E97.04947
G1 X84.274 Y123.316 E97.15808
