;FLAVOR:Marlin
;TIME:2948
;Filament used: 1.92624m
;Layer height: 0.3
;MINX:81.729
;MINY:96.216
;MINZ:0.3
;MAXX:141.258
;MAXY:126.782
;MAXZ:48
;Generated with Cura_SteamEngine 5.2.1
M140 S85
M105
M190 S85
M104 S225
M105
M109 S225
M82 ;absolute extrusion mode
G21 ;metric values
G90 ;absolute positioning
M82 ;set extruder to absolute mode
M107 ;start with the fan off
G28 Z0 ;move Z to bottom endstops
G28 X0 Y0 ;move X/Y to endstops
G1 X15 Y0 F4000 ;move X/Y to front of printer
G1 Z15.0 F9000 ;move the platform to 15mm
G92 E0 ;zero the extruded length
G1 F200 E10 ;extrude 10 mm of feed stock
G92 E0 ;zero the extruded length again
G1 Y50 F9000
;Put printing message on LCD screen
M117 Printing...
G92 E0
G92 E0
G1 F1500 E-6.5
;LAYER_COUNT:160
;LAYER:0
M107
G0 F5040 X85.323 Y103.688 Z0.3
;TYPE:SKIRT
G1 F1500 E0
G1 F2100 X86.038 Y103.299 E0.01531
G1 X86.982 Y103.065 E0.03361
G1 X110.678 Y101.617 E0.48017
G1 X111.56 Y101.595 E0.49677
G1 X112.787 Y101.64 E0.51986
G1 X113.633 Y101.725 E0.53586
G1 X115.227 Y101.988 E0.56625
G1 X116.554 Y102.361 E0.59218
G1 X117.94 Y102.845 E0.61979
G1 X119.429 Y103.549 E0.65077
G1 X120.686 Y104.308 E0.67839
G1 X121.297 Y104.725 E0.69231
G1 X122.168 Y105.394 E0.71297
G1 X123.299 Y106.413 E0.7416
G1 X123.959 Y107.104 E0.75958
G1 X124.926 Y108.245 E0.78771
G1 X125.76 Y109.497 E0.81601
G1 X126.145 Y110.184 E0.83082
G1 X126.391 Y110.916 E0.84535
G1 X126.437 Y111.46 E0.85562
G1 X126.293 Y112.455 E0.87453
G1 X126.046 Y113.024 E0.8862
G1 X125.538 Y113.855 E0.90452
G1 X124.758 Y114.969 E0.9301
G1 X123.672 Y116.225 E0.96133
G1 X122.816 Y117.045 E0.98363
G1 X121.847 Y117.881 E1.00771
G1 X120.65 Y118.729 E1.0353
G1 X119.613 Y119.336 E1.0579
G1 X118.424 Y119.947 E1.08305
G1 X117.146 Y120.443 E1.10884
G1 X115.925 Y120.836 E1.13296
G1 X114.636 Y121.119 E1.15779
G1 X113.478 Y121.307 E1.17986
G1 X112.077 Y121.403 E1.20627
G1 X110.951 Y121.4 E1.22745
G1 X86.951 Y119.931 E1.67975
G1 X86.109 Y119.723 E1.69606
G1 X85.704 Y119.54 E1.70442
G1 X85.005 Y119.067 E1.7203
G1 X84.346 Y118.308 E1.73921
G1 X83.94 Y117.34 E1.75895
G1 X83.838 Y116.503 E1.77481
G1 X83.839 Y106.487 E1.96322
G1 X84.027 Y105.45 E1.98305
G1 X84.385 Y104.666 E1.99926
G1 X84.893 Y104.055 E2.0142
G1 X85.323 Y103.688 E2.02484
G0 F5040 X85.904 Y103.803
G1 F2100 X86.312 Y103.635 E2.03314
G1 X87.168 Y103.455 E2.04959
G1 X110.749 Y102.015 E2.49399
G1 X111.547 Y101.995 E2.50901
G1 X112.747 Y102.038 E2.53159
G1 X113.684 Y102.135 E2.54931
G1 X115.142 Y102.379 E2.57712
G1 X116.422 Y102.738 E2.60213
G1 X117.788 Y103.215 E2.62934
G1 X119.233 Y103.898 E2.65941
G1 X120.392 Y104.595 E2.68485
G1 X121.138 Y105.104 E2.70184
G1 X121.924 Y105.711 E2.72052
G1 X123.011 Y106.69 E2.74803
G1 X123.595 Y107.297 E2.76388
G1 X124.605 Y108.484 E2.7932
G1 X125.352 Y109.597 E2.81841
G1 X125.796 Y110.38 E2.83534
G1 X126.002 Y111.01 E2.84781
G1 X126.038 Y111.433 E2.8558
G1 X125.919 Y112.314 E2.87252
G1 X125.704 Y112.817 E2.88281
G1 X125.211 Y113.625 E2.90061
G1 X124.446 Y114.717 E2.92569
G1 X123.38 Y115.95 E2.95635
G1 X122.555 Y116.742 E2.97787
G1 X121.602 Y117.564 E3.00154
G1 X120.385 Y118.42 E3.02953
G1 X119.341 Y119.029 E3.05226
G1 X118.26 Y119.581 E3.07509
G1 X116.919 Y120.099 E3.10214
G1 X115.821 Y120.449 E3.12381
G1 X114.471 Y120.743 E3.1498
G1 X113.373 Y120.913 E3.1707
G1 X112.077 Y121.003 E3.19514
G1 X111.061 Y121.003 E3.21425
G1 X86.975 Y119.531 E3.66817
G1 X86.227 Y119.341 E3.68269
G1 X85.514 Y118.956 E3.69793
G1 X85.174 Y118.664 E3.70636
G1 X84.807 Y118.229 E3.71706
G1 X84.578 Y117.847 E3.72544
G1 X84.313 Y117.091 E3.74051
G1 X84.238 Y116.503 E3.75166
G1 X84.239 Y106.487 E3.94007
G1 X84.313 Y105.906 E3.95108
G1 X84.579 Y105.151 E3.96614
G1 X84.813 Y104.764 E3.97465
G1 X85.197 Y104.315 E3.98576
G1 X85.904 Y103.803 E4.00218
G0 F5040 X86.226 Y104.064
G1 F2100 X87.192 Y103.854 E4.02078
G1 X110.76 Y102.414 E4.46493
G1 X111.472 Y102.394 E4.47833
G1 X112.707 Y102.436 E4.50158
G1 X113.553 Y102.521 E4.51757
G1 X115.105 Y102.784 E4.54718
G1 X116.228 Y103.096 E4.5691
G1 X117.637 Y103.587 E4.59717
G1 X119.088 Y104.278 E4.6274
G1 X120.235 Y104.969 E4.65259
G1 X120.846 Y105.386 E4.66651
G1 X121.738 Y106.076 E4.68772
G1 X122.672 Y106.918 E4.71137
G1 X123.349 Y107.621 E4.72973
G1 X124.284 Y108.724 E4.75693
G1 X125.062 Y109.888 E4.78327
G1 X125.447 Y110.575 E4.79808
G1 X125.613 Y111.104 E4.80851
G1 X125.639 Y111.406 E4.81421
G1 X125.544 Y112.174 E4.82877
G1 X125.362 Y112.609 E4.83764
G1 X124.883 Y113.396 E4.85497
G1 X124.094 Y114.514 E4.88071
G1 X123.122 Y115.639 E4.90868
G1 X122.333 Y116.403 E4.92933
G1 X121.312 Y117.28 E4.95465
G1 X120.183 Y118.075 E4.98063
G1 X119.159 Y118.673 E5.00293
G1 X118.141 Y119.193 E5.02444
G1 X116.798 Y119.718 E5.05156
G1 X115.757 Y120.05 E5.07211
G1 X114.464 Y120.338 E5.09703
G1 X113.345 Y120.514 E5.11834
G1 X112.077 Y120.603 E5.14225
G1 X111.061 Y120.603 E5.16136
G1 X87 Y119.132 E5.61481
G1 X86.346 Y118.959 E5.62753
G1 X85.723 Y118.614 E5.64093
G1 X85.48 Y118.406 E5.64694
G1 X84.949 Y117.698 E5.66359
G1 X84.708 Y117.029 E5.67697
G1 X84.638 Y116.503 E5.68695
G1 X84.639 Y106.487 E5.87536
G1 X84.708 Y105.968 E5.8852
G1 X84.95 Y105.3 E5.89857
G1 X85.501 Y104.575 E5.9157
G1 X86.226 Y104.064 E5.93238
G0 F5040 X86.495 Y104.414
G1 F2100 X87.216 Y104.253 E5.94628
G1 X110.771 Y102.814 E6.39019
G1 X111.52 Y102.794 E6.40428
G1 X112.627 Y102.831 E6.42512
G1 X113.552 Y102.924 E6.4426
G1 X114.936 Y103.156 E6.469
G1 X116.121 Y103.482 E6.49212
G1 X117.457 Y103.948 E6.51874
G1 X118.882 Y104.621 E6.54838
G1 X120.009 Y105.299 E6.57312
G1 X120.649 Y105.737 E6.58771
G1 X121.47 Y106.373 E6.60724
G1 X122.404 Y107.215 E6.6309
G1 X123.044 Y107.88 E6.64826
G1 X123.947 Y108.945 E6.67452
G1 X124.688 Y110.043 E6.69944
G1 X125.098 Y110.771 E6.71516
G1 X125.24 Y111.379 E6.7269
G1 X125.17 Y112.033 E6.73928
G1 X125.02 Y112.402 E6.74677
G1 X124.577 Y113.133 E6.76285
G1 X123.791 Y114.252 E6.78857
G1 X122.781 Y115.418 E6.81759
G1 X122.056 Y116.115 E6.8365
G1 X121.081 Y116.954 E6.8607
G1 X120.025 Y117.702 E6.88504
G1 X119.007 Y118.3 E6.90725
G1 X117.959 Y118.836 E6.92939
G1 X116.676 Y119.337 E6.9553
G1 X115.635 Y119.669 E6.97586
G1 X114.379 Y119.947 E7.00005
G1 X113.316 Y120.115 E7.0203
G1 X112.077 Y120.203 E7.04366
G1 X111.024 Y120.202 E7.06347
G1 X87.024 Y118.733 E7.51577
G1 X86.464 Y118.577 E7.5267
G1 X85.785 Y118.148 E7.54181
G1 X85.32 Y117.549 E7.55608
G1 X85.103 Y116.967 E7.56776
G1 X85.038 Y116.503 E7.57657
G1 X85.039 Y106.487 E7.76498
G1 X85.103 Y106.03 E7.77366
G1 X85.421 Y105.284 E7.78891
G1 X85.948 Y104.713 E7.80353
G1 X86.495 Y104.414 E7.81526
G0 F5040 X86.587 Y104.803
G1 F2100 X87.241 Y104.652 E7.82788
G1 X110.782 Y103.214 E8.27153
G1 X111.507 Y103.194 E8.28517
G1 X112.627 Y103.232 E8.30625
G1 X113.486 Y103.319 E8.32249
G1 X114.891 Y103.555 E8.34929
G1 X116.026 Y103.871 E8.37145
G1 X117.325 Y104.325 E8.39734
G1 X118.658 Y104.954 E8.42506
G1 X119.784 Y105.63 E8.44977
G1 X120.404 Y106.054 E8.4639
G1 X121.202 Y106.67 E8.48286
G1 X122.146 Y107.522 E8.50678
G1 X122.739 Y108.139 E8.52288
G1 X123.642 Y109.204 E8.54914
G1 X124.364 Y110.279 E8.5735
G1 X124.749 Y110.966 E8.58831
G1 X124.841 Y111.352 E8.59578
G1 X124.808 Y111.836 E8.6049
G1 X124.678 Y112.195 E8.61208
G1 X124.228 Y112.937 E8.62841
G1 X123.501 Y113.975 E8.65225
G1 X122.504 Y115.129 E8.68093
G1 X121.771 Y115.833 E8.70005
G1 X120.85 Y116.627 E8.72292
G1 X119.779 Y117.385 E8.74761
G1 X118.795 Y117.96 E8.76904
G1 X117.777 Y118.48 E8.79055
G1 X116.555 Y118.956 E8.81522
G1 X115.514 Y119.288 E8.83577
G1 X114.282 Y119.558 E8.85949
G1 X113.287 Y119.716 E8.87844
G1 X112.077 Y119.803 E8.90126
G1 X111.049 Y119.803 E8.9206
G1 X87.049 Y118.334 E9.3729
G1 X86.538 Y118.175 E9.38297
G1 X86.091 Y117.89 E9.39294
G1 X85.691 Y117.4 E9.40484
G1 X85.498 Y116.906 E9.41481
G1 X85.44 Y116.534 E9.4219
G1 X85.441 Y106.456 E9.61147
G1 X85.498 Y106.092 E9.6184
G1 X85.725 Y105.544 E9.62956
G1 X86.157 Y105.054 E9.64184
G1 X86.587 Y104.803 E9.65121
G1 F1500 E3.15121
G0 F5040 X102.759 Y108.874
G1 F1500 E9.65121
G1 F2100 X102.796 Y110.022 E9.67282
G1 X102.806 Y113.967 E9.74702
G1 X102.913 Y114.197 E9.7518
G1 X103.527 Y114.206 E9.76335
G1 X104.794 Y114.21 E9.78718
G1 X105.46 Y114.072 E9.79997
G1 X105.93 Y113.845 E9.80979
G1 X106.431 Y113.358 E9.82293
G1 X106.705 Y112.861 E9.83361
G1 X106.854 Y112.382 E9.84305
G1 X106.938 Y111.802 E9.85407
G1 X106.925 Y110.943 E9.87023
G1 X106.695 Y109.999 E9.88851
G1 X106.499 Y109.625 E9.89645
G1 X106.142 Y109.207 E9.90679
G1 X105.782 Y108.966 E9.91494
G1 X105.442 Y108.843 E9.92174
G1 X104.451 Y108.72 E9.94052
G1 X103.081 Y108.701 E9.9663
G1 X102.759 Y108.874 E9.97317
G1 F1500 E3.47317
G0 F5040 X103.555 Y109.557
G1 F1500 E9.97317
G1 F2100 X103.674 Y109.447 E9.97622
G1 X103.963 Y109.363 E9.98188
G1 X104.95 Y109.419 E10.00048
G1 X105.546 Y109.592 E10.01215
G1 X105.804 Y109.798 E10.01836
G1 X106.038 Y110.148 E10.02628
G1 X106.187 Y110.553 E10.0344
G1 X106.283 Y111.189 E10.0465
G1 X106.217 Y112.201 E10.06557
G1 X106.065 Y112.682 E10.07506
G1 X105.805 Y113.084 E10.08407
G1 X105.386 Y113.39 E10.09383
G1 X104.697 Y113.54 E10.10709
G1 X103.914 Y113.571 E10.12183
G1 X103.603 Y113.407 E10.12845
G1 X103.448 Y113.073 E10.13537
G1 X103.461 Y112.691 E10.14256
G1 X103.454 Y109.834 E10.19631
G1 X103.555 Y109.557 E10.20185
;MESH:3DBenchy.3mf
G0 F5040 X103.903 Y109.762
;TYPE:WALL-OUTER
G1 F2100 X103.855 Y109.872 E10.20411
G1 X103.862 Y113.05 E10.26389
G1 X103.929 Y113.17 E10.26647
G1 X104.663 Y113.14 E10.28029
G1 X105.189 Y113.038 E10.29037
G1 X105.537 Y112.784 E10.29848
G1 X105.692 Y112.535 E10.30399
G1 X105.818 Y112.149 E10.31163
G1 X105.881 Y111.188 E10.32975
G1 X105.795 Y110.638 E10.34022
G1 X105.675 Y110.319 E10.34663
G1 X105.338 Y109.935 E10.35624
G1 X104.908 Y109.818 E10.36462
G1 X103.903 Y109.762 E10.38356
G0 F5040 X103.855 Y109.872
G0 X103.855 Y109.952
G0 X104.256 Y110.183
;TYPE:WALL-INNER
G1 F2100 X104.262 Y112.756 E10.43196
G1 X105.025 Y112.662 E10.44642
G1 X105.239 Y112.506 E10.4514
G1 X105.422 Y112.072 E10.46026
G1 X105.479 Y111.206 E10.47658
G1 X105.318 Y110.506 E10.49009
G1 X105.159 Y110.301 E10.49497
G1 X104.844 Y110.216 E10.50111
G1 X104.256 Y110.183 E10.51219
G0 F5040 X104.523 Y110.465
G0 X104.653 Y112.335
G1 F2196.3 X104.946 Y112.234 E10.51779
G1 X105.034 Y111.997 E10.52235
G1 F2123.3 X105.073 Y111.224 E10.53676
G1 X105.026 Y110.841 E10.54395
G1 F2202.5 X104.94 Y110.646 E10.54779
G1 X104.648 Y110.597 E10.55312
G1 F2123.3 X104.662 Y111.233 E10.56497
G1 X104.653 Y112.335 E10.58549
G0 F5040 X104.815 Y112.093
G1 F1500 E4.08549
G0 F5040 X104.067 Y109.983
G0 X104.095 Y108.095
G0 X102.245 Y107.876
G1 F1500 E10.58549
G0 F5040 X102.646 Y108.447
;TYPE:WALL-OUTER
G1 F2100 X102.997 Y108.302 E10.59264
G1 X104.487 Y108.321 E10.62067
G1 X105.557 Y108.459 E10.64096
G1 X105.981 Y108.618 E10.64948
G1 X106.387 Y108.889 E10.65866
G1 X106.826 Y109.391 E10.6712
G1 X107.07 Y109.853 E10.68103
G1 X107.325 Y110.906 E10.70141
G1 X107.337 Y111.845 E10.71908
G1 X107.213 Y112.581 E10.73312
G1 F1573.8 X107.161 Y113.111 E10.74609
G1 X107.679 Y112.787 E10.76097
G1 F2100 X108.096 Y112.646 E10.76925
G1 X108.5 Y112.656 E10.77685
G1 X108.848 Y112.781 E10.78381
G1 X109.147 Y113.005 E10.79084
G1 X109.424 Y113.45 E10.8007
G1 F2077.1 X109.503 Y113.825 E10.80798
G1 F2043.7 X109.455 Y114.201 E10.81529
G1 F2071.5 X109.312 Y114.516 E10.82188
G1 F2100 X108.98 Y114.867 E10.83096
G1 X108.488 Y115.074 E10.841
G1 X108.015 Y115.065 E10.8499
G1 X107.699 Y114.954 E10.8562
G1 X107.353 Y114.685 E10.86445
G1 X107.123 Y114.309 E10.87274
G1 X107.042 Y113.757 E10.88323
G1 X107.193 Y113.276 E10.89272
G1 X106.986 Y113.186 E10.89696
G1 X106.769 Y113.579 E10.90541
G1 X106.17 Y114.167 E10.9212
G1 X105.576 Y114.457 E10.93363
G1 X104.838 Y114.609 E10.9478
G1 X103.477 Y114.608 E10.9734
G1 X102.917 Y114.634 E10.98395
G1 X102.611 Y114.476 E10.99043
G1 X102.407 Y114.063 E10.99909
G1 X102.396 Y110.017 E11.0752
G1 F2105.8 X102.365 Y109.041 E11.09352
G1 X102.444 Y108.652 E11.10097
G1 F2100 X102.646 Y108.447 E11.10638
G0 F5040 X102.831 Y108.371
G0 X102.563 Y107.721
G0 X98.84 Y107.926
G0 X97.977 Y108.18
G0 X97.262 Y109.129
G0 X97.254 Y112.59
G0 X97.728 Y113.103
G1 F2100 X97.997 Y112.982 E11.11193
G1 X98.568 Y113.017 E11.12269
G1 X99.159 Y113.397 E11.13591
G1 X99.413 Y113.421 E11.14071
G1 X99.763 Y113.196 E11.14854
G1 X99.885 Y112.917 E11.15426
G1 X99.88 Y112.672 E11.15887
G1 X99.77 Y112.41 E11.16422
G1 X99.36 Y111.993 E11.17522
G1 X98.395 Y111.735 E11.19401
G1 X98.209 Y111.516 E11.19941
G1 X98.152 Y111.218 E11.20512
G1 X98.275 Y110.783 E11.21362
G1 F1866.4 X98.489 Y110.471 E11.22154
G1 F1735.3 X99.267 Y110.34 E11.23917
G1 F1938.8 X99.541 Y110.098 E11.24656
G1 F2100 X99.569 Y109.747 E11.25318
G1 X99.447 Y109.579 E11.25709
G1 X99.256 Y109.511 E11.2609
G1 F2016.5 X99.05 Y109.532 E11.26494
G1 F1866.4 X98.303 Y110.004 E11.28343
G1 F1938.8 X97.927 Y109.887 E11.2914
G1 F2100 X97.59 Y109.562 E11.3002
G1 F1923.9 X97.45 Y109.252 E11.30713
G1 F1699.1 X97.424 Y109.166 E11.30917
G1 F1843.3 X97.65 Y108.722 E11.31972
G1 F2100 X98.122 Y108.374 E11.33075
G1 X98.912 Y108.158 E11.34615
G1 X99.631 Y108.156 E11.35968
G1 X100.132 Y108.258 E11.3693
G1 X100.566 Y108.457 E11.37828
G1 X100.866 Y108.72 E11.38578
G1 X101.091 Y109.07 E11.39361
G1 X101.19 Y109.45 E11.40099
G1 X101.147 Y110.265 E11.41635
G1 X100.927 Y110.735 E11.42611
G1 X100.49 Y111.014 E11.43586
G1 X100.871 Y111.177 E11.44366
G1 X101.135 Y111.51 E11.45165
G1 X101.388 Y112.285 E11.46698
G1 X101.443 Y112.839 E11.47746
G1 X101.255 Y113.575 E11.49175
G1 X100.972 Y114.033 E11.50187
G1 X100.71 Y114.304 E11.50896
G1 X100.135 Y114.64 E11.52149
G1 X99.671 Y114.758 E11.5305
G1 X98.836 Y114.768 E11.54621
G1 X98.205 Y114.617 E11.55841
G1 X97.849 Y114.42 E11.56606
G1 X97.588 Y114.115 E11.57361
G1 X97.477 Y113.577 E11.58395
G1 X97.728 Y113.103 E11.59404
G0 F5040 X97.91 Y113.021
G0 X97.603 Y112.387
G0 X95.404 Y114.732
G0 X94.832 Y114.332
G1 F2100 X94.616 Y114.543 E11.59972
G1 X94.172 Y114.634 E11.60824
G1 X93.732 Y114.476 E11.61704
G1 X93.569 Y114.271 E11.62196
G1 X93.562 Y111.197 E11.67979
G1 X93.591 Y109.965 E11.70297
G1 X93.514 Y109.835 E11.70581
G1 X93.188 Y109.686 E11.71255
G1 X92.244 Y109.767 E11.73037
G1 X91.973 Y109.667 E11.73581
G1 F1803.1 X91.631 Y109.231 E11.74777
G1 F1715 X91.659 Y108.895 E11.75538
G1 F1984.8 X91.874 Y108.49 E11.76446
G1 F2100 X92.225 Y108.278 E11.77217
G1 X93.639 Y108.315 E11.79878
G1 X96.426 Y108.321 E11.8512
G1 X96.732 Y108.523 E11.8581
G1 F2000.5 X96.896 Y108.889 E11.86598
G1 F1760.1 X96.923 Y109.171 E11.87223
G1 F1838.8 X96.694 Y109.516 E11.88101
G1 F2100 X96.141 Y109.726 E11.89214
G1 X95.009 Y109.712 E11.91344
G1 X94.965 Y110.286 E11.92427
G1 X94.949 Y114.031 E11.99471
G1 X94.832 Y114.332 E12.00079
G0 F5040 X94.689 Y114.472
G0 X95.191 Y114.968
G0 X94.164 Y115.283
G0 X93.295 Y114.961
G0 X90.913 Y110.716
G0 X90.634 Y110.076
G1 F2100 X90.221 Y110.111 E12.00858
G1 X89.391 Y109.691 E12.02608
G1 X88.972 Y109.607 E12.03412
G1 X88.49 Y109.739 E12.04352
G1 X88.093 Y110.094 E12.05354
G1 X87.896 Y110.555 E12.06297
G1 X87.794 Y111.425 E12.07945
G1 X87.916 Y112.448 E12.09883
G1 X88.09 Y112.828 E12.10669
G1 X88.439 Y113.162 E12.11577
G1 X89.026 Y113.331 E12.12726
G1 X89.596 Y113.211 E12.13822
G1 X90.086 Y112.838 E12.1498
G1 X90.547 Y112.847 E12.15848
G1 F2105.8 X90.992 Y113.173 E12.16883
G1 X91.095 Y113.547 E12.17611
G1 F2100 X90.935 Y113.933 E12.18397
G1 X90.599 Y114.322 E12.19364
G1 X90.153 Y114.594 E12.20346
G1 X89.567 Y114.755 E12.21489
G1 X89.109 Y114.786 E12.22353
G1 X88.462 Y114.724 E12.23576
G1 X88.031 Y114.592 E12.24423
G1 X87.484 Y114.284 E12.25604
G1 X86.906 Y113.697 E12.27154
G1 F2021.9 X86.523 Y112.909 E12.2886
G1 F1871.1 X86.323 Y111.972 E12.3086
G1 F1829.7 X86.31 Y111.318 E12.32254
G1 F1760.1 X86.374 Y110.455 E12.34162
G1 F1866.4 X86.696 Y109.596 E12.36082
G1 F2100 X87.104 Y108.981 E12.3747
G1 X87.764 Y108.459 E12.39053
G1 X88.319 Y108.24 E12.40176
G1 X88.829 Y108.152 E12.41149
G1 X89.694 Y108.196 E12.42778
G1 X90.132 Y108.328 E12.43639
G1 X90.538 Y108.559 E12.44517
G1 F1857.1 X91.065 Y109.12 E12.46135
G1 F1616.1 X91.128 Y109.358 E12.46721
G1 F1803.1 X90.912 Y109.853 E12.47887
G1 F2100 X90.634 Y110.076 E12.48557
