;FLAVOR:Marlin
;TIME:2969
;Filament used: 1.94006m
;Layer height: 0.3
;MINX:78.839
;MINY:96.216
;MINZ:0.3
;MAXX:141.258
;MAXY:126.782
;MAXZ:48
;Generated with Cura_SteamEngine 5.2.1
M140 S85
M105
M190 S85
M104 S225
M105
M109 S225
M82 ;absolute extrusion mode
G21 ;metric values
G90 ;absolute positioning
M82 ;set extruder to absolute mode
M107 ;start with the fan off
G28 Z0 ;move Z to bottom endstops
G28 X0 Y0 ;move X/Y to endstops
G1 X15 Y0 F4000 ;move X/Y to front of printer
G1 Z15.0 F9000 ;move the platform to 15mm
G92 E0 ;zero the extruded length
G1 F200 E20 ;extrude 20 mm of feed stock
G92 E0 ;zero the extruded length again
G1 Y50 F9000
;Put printing message on LCD screen
M117 Printing...
G92 E0
G92 E0
G1 F1500 E-6.5
;LAYER_COUNT:160
;LAYER:0
M107
G0 F5040 X82.057 Y99.898 Z0.3
;TYPE:SKIRT
G1 F1500 E0
G1 F2100 X82.829 Y99.355 E0.01775
G1 X83.666 Y98.892 E0.03575
G1 X84.346 Y98.606 E0.04962
G1 X85.422 Y98.287 E0.07073
G1 X86.74 Y98.082 E0.09582
G1 X87.469 Y98.027 E0.10958
G1 X109.714 Y96.668 E0.5288
G1 X111.274 Y96.602 E0.55817
G1 X112.716 Y96.636 E0.5853
G1 X113.996 Y96.74 E0.60946
G1 X115.479 Y96.964 E0.63767
G1 X116.516 Y97.169 E0.65755
G1 X117.503 Y97.428 E0.67675
G1 X118.863 Y97.875 E0.70368
G1 X119.82 Y98.22 E0.72281
G1 X120.949 Y98.738 E0.74618
G1 X121.744 Y99.128 E0.76284
G1 X122.418 Y99.514 E0.77745
G1 X123.185 Y99.985 E0.79438
G1 X124.083 Y100.576 E0.8146
G1 X124.922 Y101.208 E0.83436
G1 X125.551 Y101.718 E0.84959
G1 X126.086 Y102.188 E0.86299
G1 X126.628 Y102.69 E0.87688
G1 X127.331 Y103.386 E0.89549
G1 X128.575 Y104.812 E0.93109
G1 X129.069 Y105.464 E0.94647
G1 X129.506 Y106.099 E0.96097
G1 X129.985 Y106.831 E0.97743
G1 X130.5 Y107.731 E0.99693
G1 X130.878 Y108.541 E1.01375
G1 X131.219 Y109.615 E1.03494
G1 X131.378 Y110.495 E1.05177
G1 X131.43 Y111.23 E1.06563
G1 X131.384 Y112.259 E1.085
G1 X131.294 Y112.991 E1.09887
G1 X131.125 Y113.709 E1.11275
G1 X130.903 Y114.366 E1.12579
G1 X130.559 Y115.19 E1.14259
G1 X130.012 Y116.13 E1.16305
G1 X129.268 Y117.236 E1.18812
G1 X128.833 Y117.844 E1.20219
G1 X128.262 Y118.558 E1.21938
G1 X127.379 Y119.566 E1.24459
G1 X126.577 Y120.362 E1.26584
G1 X125.938 Y120.955 E1.28224
G1 X125.12 Y121.648 E1.30241
G1 X124.307 Y122.266 E1.32162
G1 X123.576 Y122.773 E1.33835
G1 X122.689 Y123.326 E1.35802
G1 X122.039 Y123.696 E1.37208
G1 X121.401 Y124.037 E1.38569
G1 X120.468 Y124.501 E1.40529
G1 X119.266 Y124.988 E1.42969
G1 X117.945 Y125.437 E1.45593
G1 X117.211 Y125.661 E1.47037
G1 X116.235 Y125.886 E1.48921
G1 X115.418 Y126.05 E1.50488
G1 X114.297 Y126.241 E1.52628
G1 X112.71 Y126.377 E1.55624
G1 X111.659 Y126.402 E1.57601
G1 X110.879 Y126.388 E1.59069
G1 X109.809 Y126.339 E1.61084
G1 X87.281 Y124.959 E2.03539
G1 X86.6 Y124.908 E2.04824
G1 X85.869 Y124.813 E2.06211
G1 X84.755 Y124.526 E2.08375
G1 X84.059 Y124.283 E2.09761
G1 X82.946 Y123.72 E2.12107
G1 X82.128 Y123.159 E2.13973
G1 X81.569 Y122.678 E2.1536
G1 X80.769 Y121.802 E2.17592
G1 X80.316 Y121.22 E2.18979
G1 X79.929 Y120.593 E2.20365
G1 X79.518 Y119.739 E2.22148
G1 X79.192 Y118.822 E2.23979
G1 X78.969 Y117.86 E2.25836
G1 X78.861 Y116.723 E2.27985
G1 X78.839 Y115.622 E2.30056
G1 X78.84 Y106.599 E2.47029
G1 X78.927 Y105.441 E2.49213
G1 X79.114 Y104.472 E2.5107
G1 X79.443 Y103.442 E2.53104
G1 X79.849 Y102.554 E2.5494
G1 X80.227 Y101.921 E2.56327
G1 X81.004 Y100.927 E2.587
G1 X81.502 Y100.384 E2.60086
G1 X82.057 Y99.898 E2.61474
G0 F5040 X82.337 Y100.186
G1 F2100 X83.233 Y99.588 E2.635
G1 X83.86 Y99.242 E2.64847
G1 X84.52 Y98.969 E2.66191
G1 X85.773 Y98.636 E2.6863
G1 X86.771 Y98.481 E2.7053
G1 X87.591 Y98.42 E2.72076
G1 X109.613 Y97.074 E3.13578
G1 X111.278 Y97.002 E3.16713
G1 X112.691 Y97.035 E3.19372
G1 X113.961 Y97.139 E3.21769
G1 X115.213 Y97.325 E3.2415
G1 X116.211 Y97.502 E3.26056
G1 X117.38 Y97.808 E3.28329
G1 X118.738 Y98.255 E3.31019
G1 X119.67 Y98.591 E3.32882
G1 X120.773 Y99.097 E3.35165
G1 X121.564 Y99.485 E3.36822
G1 X122.209 Y99.855 E3.38221
G1 X122.976 Y100.326 E3.39914
G1 X123.692 Y100.798 E3.41527
G1 X124.514 Y101.399 E3.43443
G1 X125.177 Y101.922 E3.45031
G1 X125.814 Y102.482 E3.46626
G1 X126.496 Y103.117 E3.48379
G1 X127.282 Y103.937 E3.50516
G1 X128.27 Y105.069 E3.53342
G1 X128.869 Y105.862 E3.55212
G1 X129.735 Y107.18 E3.58178
G1 X130.213 Y108.062 E3.60065
G1 X130.514 Y108.71 E3.61409
G1 X130.829 Y109.709 E3.6338
G1 X130.984 Y110.566 E3.65018
G1 X131.031 Y111.279 E3.66362
G1 X130.985 Y112.232 E3.68157
G1 X130.896 Y112.942 E3.69503
G1 X130.599 Y114.059 E3.71677
G1 X130.194 Y115.023 E3.73644
G1 X129.676 Y115.912 E3.75579
G1 X128.936 Y117.013 E3.78074
G1 X128.509 Y117.61 E3.79455
G1 X127.961 Y118.294 E3.81104
G1 X127.079 Y119.301 E3.83622
G1 X126.303 Y120.071 E3.85678
G1 X125.703 Y120.629 E3.87219
G1 X124.697 Y121.481 E3.89699
G1 X124.079 Y121.937 E3.91144
G1 X123.18 Y122.56 E3.93201
G1 X122.31 Y123.083 E3.95111
G1 X121.439 Y123.572 E3.9699
G1 X120.305 Y124.135 E3.99371
G1 X119.393 Y124.505 E4.01223
G1 X118.657 Y124.775 E4.02697
G1 X117.461 Y125.179 E4.05072
G1 X116.33 Y125.456 E4.07262
G1 X115.539 Y125.62 E4.08782
G1 X114.86 Y125.741 E4.10079
G1 X114.076 Y125.858 E4.1157
G1 X113.188 Y125.937 E4.13247
G1 X112.433 Y125.983 E4.1467
G1 X111.664 Y126.002 E4.16117
G1 X110.897 Y125.989 E4.1756
G1 X109.938 Y125.946 E4.19366
G1 X87.311 Y124.56 E4.62008
G1 X86.63 Y124.509 E4.63293
G1 X85.921 Y124.416 E4.64638
G1 X84.866 Y124.141 E4.66689
G1 X84.191 Y123.905 E4.68034
G1 X83.15 Y123.376 E4.7023
G1 X82.355 Y122.829 E4.72046
G1 X81.815 Y122.36 E4.73391
G1 X81.071 Y121.539 E4.75475
G1 X80.632 Y120.974 E4.76821
G1 X80.26 Y120.364 E4.78165
G1 X79.808 Y119.362 E4.80233
G1 X79.569 Y118.688 E4.81578
G1 X79.363 Y117.79 E4.83311
G1 X79.261 Y116.715 E4.85342
G1 X79.239 Y115.614 E4.87414
G1 X79.24 Y106.605 E5.0436
G1 X79.323 Y105.492 E5.0646
G1 X79.507 Y104.548 E5.08269
G1 X79.818 Y103.583 E5.10176
G1 X80.213 Y102.721 E5.11959
G1 X80.583 Y102.109 E5.13305
G1 X81.313 Y101.181 E5.15526
G1 X81.797 Y100.655 E5.1687
G1 X82.337 Y100.186 E5.18216
G0 F5040 X82.617 Y100.476
G1 F2100 X83.446 Y99.927 E5.20086
G1 X84.053 Y99.593 E5.21389
G1 X84.694 Y99.332 E5.22691
G1 X85.866 Y99.025 E5.2497
G1 X86.801 Y98.88 E5.2675
G1 X87.615 Y98.819 E5.28285
G1 X109.748 Y97.467 E5.69996
G1 X111.273 Y97.402 E5.72868
G1 X112.667 Y97.435 E5.7549
G1 X113.913 Y97.537 E5.77842
G1 X115.154 Y97.721 E5.80202
G1 X116.11 Y97.89 E5.82028
G1 X117.276 Y98.195 E5.84295
G1 X118.798 Y98.699 E5.87311
G1 X119.737 Y99.062 E5.89205
G1 X120.596 Y99.456 E5.90983
G1 X121.375 Y99.838 E5.92615
G1 X122 Y100.196 E5.93969
G1 X122.767 Y100.667 E5.95663
G1 X123.462 Y101.125 E5.97228
G1 X124.275 Y101.719 E5.99122
G1 X124.821 Y102.151 E6.00432
G1 X125.408 Y102.654 E6.01886
G1 X126.084 Y103.277 E6.03615
G1 X126.741 Y103.927 E6.05354
G1 X127.599 Y104.906 E6.07802
G1 X128.266 Y105.709 E6.09766
G1 X128.836 Y106.537 E6.11657
G1 X129.301 Y107.249 E6.13257
G1 X129.794 Y108.108 E6.1512
G1 X130.151 Y108.879 E6.16718
G1 X130.442 Y109.806 E6.18545
G1 X130.589 Y110.636 E6.20131
G1 X130.631 Y111.327 E6.21433
G1 X130.586 Y112.204 E6.23085
G1 X130.499 Y112.891 E6.24388
G1 X130.22 Y113.93 E6.26411
G1 X129.827 Y114.862 E6.28314
G1 X129.269 Y115.796 E6.30361
G1 X128.486 Y116.959 E6.32998
G1 X127.871 Y117.79 E6.34942
G1 X126.792 Y119.022 E6.38023
G1 X126.029 Y119.779 E6.40045
G1 X125.444 Y120.324 E6.41549
G1 X124.603 Y121.037 E6.43623
G1 X123.851 Y121.608 E6.45399
G1 X122.958 Y122.228 E6.47444
G1 X122.114 Y122.735 E6.49296
G1 X121.515 Y123.071 E6.50588
G1 X120.86 Y123.416 E6.5198
G1 X119.954 Y123.846 E6.53867
G1 X119.254 Y124.13 E6.55288
G1 X118.529 Y124.396 E6.5674
G1 X117.69 Y124.679 E6.58406
G1 X116.992 Y124.89 E6.59778
G1 X116.074 Y125.102 E6.6155
G1 X115.012 Y125.317 E6.63588
G1 X113.852 Y125.477 E6.65791
G1 X113.152 Y125.539 E6.67113
G1 X111.976 Y125.607 E6.69329
G1 X110.915 Y125.589 E6.71325
G1 X109.858 Y125.541 E6.73315
G1 X87.422 Y124.167 E7.15597
G1 X86.66 Y124.11 E7.17035
G1 X85.973 Y124.019 E7.18338
G1 X84.977 Y123.757 E7.20276
G1 X84.324 Y123.527 E7.21578
G1 X83.353 Y123.032 E7.23628
G1 X82.582 Y122.499 E7.25391
G1 X82.062 Y122.042 E7.26693
G1 X81.373 Y121.277 E7.2863
G1 X80.949 Y120.729 E7.29933
G1 X80.592 Y120.136 E7.31235
G1 X80.177 Y119.207 E7.33149
G1 X79.947 Y118.554 E7.34452
G1 X79.756 Y117.722 E7.36057
G1 X79.661 Y116.707 E7.37975
G1 X79.639 Y115.606 E7.40046
G1 X79.64 Y106.61 E7.56968
G1 X79.72 Y105.544 E7.58979
G1 X79.9 Y104.625 E7.60741
G1 X80.193 Y103.723 E7.62525
G1 X80.577 Y102.889 E7.64252
G1 X80.938 Y102.298 E7.65555
G1 X81.621 Y101.435 E7.67625
G1 X82.092 Y100.927 E7.68928
G1 X82.617 Y100.476 E7.7023
G0 F5040 X82.896 Y100.766
G1 F2100 X83.658 Y100.265 E7.71945
G1 X84.245 Y99.945 E7.73203
G1 X84.866 Y99.696 E7.74461
G1 X85.958 Y99.415 E7.76582
G1 X86.831 Y99.279 E7.78244
G1 X87.639 Y99.218 E7.79769
G1 X109.661 Y97.872 E8.2127
G1 X111.28 Y97.802 E8.24319
G1 X112.659 Y97.835 E8.26913
G1 X113.858 Y97.933 E8.29176
G1 X115.266 Y98.145 E8.31855
G1 X116.409 Y98.368 E8.34045
G1 X117.466 Y98.679 E8.36118
G1 X118.488 Y99.015 E8.38142
G1 X119.362 Y99.33 E8.39889
G1 X120.42 Y99.815 E8.42078
G1 X121.181 Y100.189 E8.43673
G1 X121.79 Y100.537 E8.44993
G1 X123.018 Y101.295 E8.47707
G1 X124.036 Y102.04 E8.5008
G1 X124.572 Y102.464 E8.51366
G1 X125.145 Y102.956 E8.52787
G1 X125.812 Y103.571 E8.54493
G1 X126.445 Y104.196 E8.56166
G1 X127.649 Y105.575 E8.5961
G1 X128.212 Y106.318 E8.61364
G1 X128.873 Y107.325 E8.63629
G1 X129.507 Y108.438 E8.66039
G1 X129.787 Y109.046 E8.67298
G1 X130.054 Y109.903 E8.68986
G1 X130.195 Y110.706 E8.7052
G1 X130.231 Y111.374 E8.71778
G1 X130.187 Y112.177 E8.73291
G1 X130.101 Y112.841 E8.74551
G1 X129.833 Y113.829 E8.76476
G1 X129.364 Y114.858 E8.78603
G1 X129 Y115.485 E8.79967
G1 X128.162 Y116.725 E8.82782
G1 X127.562 Y117.535 E8.84679
G1 X126.497 Y118.751 E8.87719
G1 X125.878 Y119.369 E8.89365
G1 X125.161 Y120.041 E8.91213
G1 X124.345 Y120.732 E8.93224
G1 X123.624 Y121.28 E8.94928
G1 X122.893 Y121.787 E8.96601
G1 X122.067 Y122.299 E8.98429
G1 X121.08 Y122.858 E9.00563
G1 X119.982 Y123.403 E9.02869
G1 X118.851 Y123.862 E9.05165
G1 X117.242 Y124.409 E9.08362
G1 X116.148 Y124.677 E9.1048
G1 X115.213 Y124.868 E9.12275
G1 X114.008 Y125.062 E9.14571
G1 X112.944 Y125.153 E9.1658
G1 X111.953 Y125.207 E9.18447
G1 X110.933 Y125.189 E9.20366
G1 X109.883 Y125.142 E9.22343
G1 X87.447 Y123.768 E9.64625
G1 X86.69 Y123.711 E9.66053
G1 X86.027 Y123.622 E9.67312
G1 X85.088 Y123.373 E9.69139
G1 X84.457 Y123.149 E9.70399
G1 X83.555 Y122.686 E9.72306
G1 X82.811 Y122.17 E9.74009
G1 X82.311 Y121.725 E9.75268
G1 X81.675 Y121.014 E9.77062
G1 X81.267 Y120.484 E9.78321
G1 X80.925 Y119.909 E9.79579
G1 X80.546 Y119.052 E9.81342
G1 X80.325 Y118.421 E9.82599
G1 X80.139 Y117.523 E9.84324
G1 X80.061 Y116.699 E9.85881
G1 X80.039 Y115.598 E9.87953
G1 X80.04 Y106.615 E10.0485
G1 X80.116 Y105.595 E10.06774
G1 X80.293 Y104.702 E10.08487
G1 X80.659 Y103.664 E10.10557
G1 X80.941 Y103.057 E10.11816
G1 X81.293 Y102.488 E10.13075
G1 X81.93 Y101.689 E10.14997
G1 X82.385 Y101.199 E10.16255
G1 X82.896 Y100.766 E10.17515
G0 F5040 X83.173 Y101.058
G1 F2100 X84.205 Y100.387 E10.1983
G1 X85.037 Y100.061 E10.21511
G1 X86.051 Y99.804 E10.23479
G1 X86.861 Y99.678 E10.25021
G1 X87.664 Y99.618 E10.26535
G1 X109.782 Y98.267 E10.68218
G1 X111.303 Y98.202 E10.71082
G1 X112.617 Y98.233 E10.73554
G1 X113.821 Y98.331 E10.75826
G1 X115.036 Y98.512 E10.78137
G1 X115.951 Y98.675 E10.79885
G1 X117.028 Y98.956 E10.81979
G1 X118.363 Y99.395 E10.84623
G1 X119.212 Y99.702 E10.86321
G1 X120.244 Y100.174 E10.88456
G1 X120.853 Y100.473 E10.89732
G1 X121.581 Y100.878 E10.91299
G1 X122.795 Y101.628 E10.93983
G1 X123.796 Y102.36 E10.96316
G1 X124.323 Y102.777 E10.9758
G1 X124.882 Y103.257 E10.98966
G1 X125.654 Y103.972 E11.00945
G1 X126.379 Y104.728 E11.02915
G1 X127.342 Y105.831 E11.0567
G1 X127.887 Y106.551 E11.07368
G1 X128.62 Y107.67 E11.09885
G1 X129.35 Y108.975 E11.12697
G1 X129.627 Y109.874 E11.14467
G1 X129.8 Y110.775 E11.16193
G1 X129.819 Y111.699 E11.17931
G1 X129.704 Y112.789 E11.19993
G1 X129.455 Y113.699 E11.21768
G1 X129.016 Y114.661 E11.23757
G1 X128.591 Y115.371 E11.25313
G1 X127.838 Y116.49 E11.2785
G1 X127.263 Y117.269 E11.29672
G1 X126.21 Y118.472 E11.32679
G1 X125.595 Y119.086 E11.34314
G1 X124.926 Y119.715 E11.36041
G1 X123.948 Y120.543 E11.38451
G1 X123.396 Y120.951 E11.39743
G1 X122.665 Y121.458 E11.41416
G1 X121.86 Y121.957 E11.43198
G1 X121.253 Y122.302 E11.44511
G1 X120.507 Y122.698 E11.461
G1 X119.65 Y123.106 E11.47885
G1 X118.975 Y123.38 E11.49255
G1 X118.273 Y123.638 E11.50662
G1 X117.434 Y123.921 E11.52328
G1 X116.795 Y124.115 E11.53584
G1 X115.586 Y124.395 E11.55918
G1 X114.521 Y124.58 E11.57952
G1 X113.782 Y124.68 E11.59354
G1 X113.082 Y124.742 E11.60676
G1 X111.963 Y124.807 E11.62785
G1 X110.951 Y124.79 E11.64689
G1 X109.992 Y124.747 E11.66494
G1 X87.401 Y123.363 E12.09069
G1 X86.283 Y123.279 E12.11178
G1 X84.807 Y122.883 E12.14053
G1 X83.934 Y122.433 E12.159
G1 X83.04 Y121.841 E12.17917
G1 X82.35 Y121.182 E12.19712
G1 X81.584 Y120.24 E12.21996
G1 X81.259 Y119.684 E12.23207
G1 X80.751 Y118.522 E12.25593
G1 X80.533 Y117.456 E12.27639
G1 X80.461 Y116.691 E12.29085
G1 X80.439 Y115.59 E12.31156
G1 X80.439 Y106.621 E12.48027
G1 X80.495 Y105.88 E12.49425
G1 X80.686 Y104.781 E12.51523
G1 X81.154 Y103.467 E12.54147
G1 X81.647 Y102.681 E12.55893
G1 X82.489 Y101.631 E12.58424
G1 X83.173 Y101.058 E12.60103
G0 F5040 X83.705 Y101.18
G1 F2100 X84.628 Y100.649 E12.62106
G1 X85.206 Y100.427 E12.6327
G1 X86.143 Y100.193 E12.65087
G1 X86.891 Y100.077 E12.66511
G1 X87.688 Y100.017 E12.68014
G1 X109.799 Y98.666 E13.09684
G1 X111.296 Y98.602 E13.12503
G1 X112.594 Y98.633 E13.14945
G1 X113.777 Y98.729 E13.17177
G1 X115.124 Y98.932 E13.1974
G1 X116.021 Y99.107 E13.21459
G1 X116.914 Y99.34 E13.23195
G1 X118.238 Y99.775 E13.25816
G1 X119.067 Y100.075 E13.27475
G1 X120.067 Y100.533 E13.29544
G1 X121.01 Y100.996 E13.3152
G1 X122.268 Y101.772 E13.343
G1 X122.926 Y102.209 E13.35786
G1 X123.675 Y102.772 E13.37549
G1 X124.447 Y103.396 E13.39416
G1 X125.269 Y104.157 E13.41523
G1 X125.862 Y104.744 E13.43093
G1 X126.697 Y105.697 E13.45476
G1 X127.308 Y106.434 E13.47277
G1 X127.832 Y107.193 E13.49012
G1 X128.204 Y107.762 E13.5029
G1 X128.73 Y108.656 E13.52242
G1 X129.058 Y109.379 E13.53735
G1 X129.4 Y110.58 E13.56084
G1 X129.42 Y111.671 E13.58137
G1 X129.306 Y112.736 E13.60151
G1 X129.077 Y113.567 E13.61773
G1 X128.668 Y114.463 E13.63625
G1 X128.323 Y115.058 E13.64919
G1 X127.609 Y116.12 E13.67326
G1 X127.029 Y116.929 E13.69199
G1 X125.91 Y118.208 E13.72396
G1 X125.313 Y118.803 E13.73981
G1 X124.64 Y119.434 E13.75716
G1 X123.705 Y120.225 E13.7802
G1 X123.168 Y120.622 E13.79276
G1 X122.311 Y121.216 E13.81238
G1 X121.304 Y121.822 E13.83449
G1 X120.33 Y122.339 E13.85523
G1 X119.498 Y122.736 E13.87257
G1 X118.836 Y123.005 E13.88601
G1 X118.145 Y123.259 E13.89986
G1 X117.306 Y123.542 E13.91651
G1 X116.543 Y123.763 E13.93146
G1 X115.503 Y124.004 E13.95154
G1 X114.463 Y124.184 E13.97139
G1 X113.746 Y124.281 E13.985
G1 X112.898 Y124.354 E14.00101
G1 X112.204 Y124.392 E14.01409
G1 X111.117 Y124.395 E14.03453
G1 X109.932 Y124.343 E14.05685
G1 X87.431 Y122.965 E14.48089
G1 X86.34 Y122.883 E14.50147
G1 X84.938 Y122.503 E14.5288
G1 X84.142 Y122.091 E14.54566
G1 X83.269 Y121.512 E14.56536
G1 X82.652 Y120.919 E14.58146
G1 X81.903 Y119.997 E14.60381
G1 X81.473 Y119.194 E14.62094
G1 X81.082 Y118.158 E14.64177
G1 X80.927 Y117.389 E14.65653
G1 X80.861 Y116.683 E14.66986
G1 X80.838 Y115.485 E14.6924
G1 X80.839 Y106.626 E14.85905
G1 X80.909 Y105.691 E14.87668
G1 X81.079 Y104.86 E14.89264
G1 X81.533 Y103.594 E14.91794
G1 X82.163 Y102.666 E14.93904
G1 X82.972 Y101.746 E14.96208
G1 X83.705 Y101.18 E14.9795
G0 F5040 X83.918 Y101.519
G1 F2100 X84.818 Y101.002 E14.99903
G1 X85.887 Y100.636 E15.02028
G1 X86.921 Y100.475 E15.03996
G1 X87.713 Y100.416 E15.0549
G1 X109.816 Y99.066 E15.47145
G1 X111.304 Y99.003 E15.49946
G1 X112.568 Y99.033 E15.52325
G1 X113.728 Y99.127 E15.54514
G1 X114.919 Y99.304 E15.56779
G1 X115.774 Y99.456 E15.58412
G1 X116.76 Y99.712 E15.60329
G1 X118.249 Y100.202 E15.63277
G1 X119.073 Y100.518 E15.64937
