;FLAVOR:UltiGCode
;TIME:2965
;MATERIAL:6046
;MATERIAL2:0
;NOZZLE_DIAMETER:0.4
;MINX:83.72
;MINY:98.72
;MINZ:0.3
;MAXX:139.28
;MAXY:124.28
;MAXZ:62.3
;POSTPROCESSED
;Generated with Cura_SteamEngine 5.2.1
M82 ;absolute extrusion mode
G0 F3000 Y50 ;avoid prime blob
G92 E0
G92 E0
G10
;LAYER_COUNT:311
;LAYER:0
M107
G0 F3600 X86.742 Y100.354 Z0.3
;TYPE:SKIRT
G11
G1 F1800 X87.39 Y99.903 E0.09474
G1 X88.081 Y99.519 E0.1896
G1 X88.806 Y99.207 E0.28432
G1 X89.559 Y98.97 E0.37905
G1 X90.333 Y98.811 E0.47387
G1 X91.215 Y98.72 E0.58027
G1 X131.48 Y98.72 E5.41207
G1 X132.269 Y98.76 E5.50687
G1 X133.049 Y98.879 E5.60155
G1 X133.814 Y99.077 E5.69638
G1 X134.554 Y99.351 E5.79107
G1 X135.263 Y99.699 E5.88585
G1 X135.934 Y100.117 E5.98071
G1 X136.558 Y100.6 E6.0754
G1 X137.131 Y101.143 E6.17013
G1 X137.646 Y101.742 E6.26493
G1 X138.097 Y102.39 E6.35967
G1 X138.481 Y103.081 E6.45453
G1 X138.793 Y103.806 E6.54924
G1 X139.03 Y104.559 E6.64397
G1 X139.189 Y105.333 E6.73879
G1 X139.28 Y106.215 E6.8452
G1 X139.28 Y116.48 E8.077
G1 X139.24 Y117.269 E8.1718
G1 X139.121 Y118.049 E8.26648
G1 X138.923 Y118.814 E8.36131
G1 X138.649 Y119.554 E8.456
G1 X138.301 Y120.263 E8.55077
G1 X137.883 Y120.934 E8.64564
G1 X137.4 Y121.558 E8.74033
G1 X136.857 Y122.131 E8.83506
G1 X136.258 Y122.646 E8.92985
G1 X135.61 Y123.097 E9.02459
G1 X134.919 Y123.481 E9.11946
G1 X134.194 Y123.793 E9.21417
G1 X133.441 Y124.03 E9.3089
G1 X132.667 Y124.189 E9.40372
G1 X131.785 Y124.28 E9.51012
G1 X91.52 Y124.28 E14.34192
G1 X90.731 Y124.24 E14.43672
G1 X89.951 Y124.121 E14.53141
G1 X89.186 Y123.923 E14.62623
G1 X88.446 Y123.649 E14.72092
G1 X87.737 Y123.301 E14.8157
G1 X87.066 Y122.883 E14.91057
G1 X86.442 Y122.4 E15.00526
G1 X85.869 Y121.857 E15.09999
G1 X85.354 Y121.258 E15.19478
G1 X84.903 Y120.61 E15.28952
G1 X84.519 Y119.919 E15.38438
G1 X84.207 Y119.194 E15.4791
G1 X83.97 Y118.441 E15.57383
G1 X83.811 Y117.667 E15.66865
G1 X83.72 Y116.785 E15.77505
G1 X83.72 Y106.52 E17.00685
G1 X83.76 Y105.731 E17.10165
G1 X83.879 Y104.951 E17.19633
G1 X84.077 Y104.186 E17.29116
G1 X84.351 Y103.446 E17.38585
G1 X84.699 Y102.737 E17.48063
G1 X85.117 Y102.066 E17.57549
G1 X85.6 Y101.442 E17.67018
G1 X86.143 Y100.869 E17.76491
G1 X86.742 Y100.354 E17.85971
G0 F3600 X87.131 Y100.562
G1 F1800 X87.773 Y100.139 E17.95197
G1 X88.456 Y99.784 E18.04434
G1 X89.171 Y99.503 E18.13653
G1 X89.913 Y99.297 E18.22893
G1 X90.671 Y99.169 E18.32118
G1 X91.52 Y99.12 E18.42323
G1 X131.48 Y99.12 E23.21843
G1 X132.248 Y99.16 E23.31072
G1 X133.008 Y99.279 E23.40303
G1 X133.751 Y99.477 E23.4953
G1 X134.47 Y99.751 E23.58763
G1 X135.156 Y100.098 E23.67988
G1 X135.803 Y100.514 E23.77219
G1 X136.403 Y100.995 E23.86447
G1 X136.95 Y101.536 E23.95679
G1 X137.438 Y102.131 E24.04913
G1 X137.861 Y102.773 E24.14139
G1 X138.216 Y103.456 E24.23376
G1 X138.497 Y104.171 E24.32595
G1 X138.703 Y104.913 E24.41836
G1 X138.831 Y105.671 E24.5106
G1 X138.88 Y106.52 E24.61265
G1 X138.88 Y116.48 E25.80785
G1 X138.84 Y117.248 E25.90014
G1 X138.721 Y118.008 E25.99245
G1 X138.523 Y118.751 E26.08472
G1 X138.249 Y119.47 E26.17705
G1 X137.902 Y120.156 E26.26931
G1 X137.486 Y120.803 E26.36161
G1 X137.005 Y121.403 E26.45389
G1 X136.464 Y121.95 E26.54621
G1 X135.869 Y122.438 E26.63855
G1 X135.227 Y122.861 E26.73081
G1 X134.544 Y123.216 E26.82318
G1 X133.829 Y123.497 E26.91537
G1 X133.087 Y123.703 E27.00778
G1 X132.329 Y123.831 E27.10003
G1 X131.48 Y123.88 E27.20208
G1 X91.52 Y123.88 E31.99728
G1 X90.752 Y123.84 E32.08956
G1 X89.992 Y123.721 E32.18187
G1 X89.249 Y123.523 E32.27414
G1 X88.53 Y123.249 E32.36648
G1 X87.844 Y122.902 E32.45873
G1 X87.197 Y122.486 E32.55103
G1 X86.597 Y122.005 E32.64331
G1 X86.05 Y121.464 E32.73563
G1 X85.562 Y120.869 E32.82798
G1 X85.139 Y120.227 E32.92024
G1 X84.784 Y119.544 E33.01261
G1 X84.503 Y118.829 E33.10479
G1 X84.297 Y118.087 E33.1972
G1 X84.169 Y117.329 E33.28945
G1 X84.12 Y116.48 E33.3915
G1 X84.12 Y106.52 E34.5867
G1 X84.16 Y105.752 E34.67898
G1 X84.279 Y104.992 E34.7713
G1 X84.477 Y104.249 E34.86357
G1 X84.751 Y103.53 E34.9559
G1 X85.098 Y102.844 E35.04815
G1 X85.514 Y102.197 E35.14046
G1 X85.995 Y101.597 E35.23274
G1 X86.536 Y101.05 E35.32506
G1 X87.131 Y100.562 E35.4174
G0 F3600 X87.518 Y100.777
G1 F1800 X88.154 Y100.382 E35.50724
G1 X88.828 Y100.058 E35.59698
G1 X89.533 Y99.808 E35.68674
G1 X90.261 Y99.634 E35.77656
G1 X91.003 Y99.539 E35.86633
G1 X91.52 Y99.52 E35.92841
G1 X131.48 Y99.52 E40.72361
G1 X132.227 Y99.56 E40.81338
G1 X132.965 Y99.679 E40.90308
G1 X133.687 Y99.877 E40.99292
G1 X134.383 Y100.15 E41.08264
G1 X135.046 Y100.497 E41.17244
G1 X135.669 Y100.912 E41.26226
G1 X136.243 Y101.391 E41.35198
G1 X136.764 Y101.928 E41.44176
G1 X137.223 Y102.518 E41.53146
G1 X137.618 Y103.154 E41.62131
G1 X137.942 Y103.828 E41.71105
G1 X138.192 Y104.533 E41.80081
G1 X138.366 Y105.261 E41.89063
G1 X138.461 Y106.003 E41.98039
G1 X138.48 Y106.52 E42.04248
G1 X138.48 Y116.48 E43.23768
G1 X138.44 Y117.227 E43.32744
G1 X138.321 Y117.965 E43.41715
G1 X138.123 Y118.687 E43.50699
G1 X137.85 Y119.383 E43.5967
G1 X137.503 Y120.046 E43.6865
G1 X137.088 Y120.669 E43.77633
G1 X136.609 Y121.243 E43.86604
G1 X136.072 Y121.764 E43.95583
G1 X135.482 Y122.223 E44.04553
G1 X134.846 Y122.618 E44.13537
G1 X134.172 Y122.942 E44.22511
G1 X133.467 Y123.192 E44.31487
G1 X132.739 Y123.366 E44.40469
G1 X131.997 Y123.461 E44.49446
G1 X131.48 Y123.48 E44.55654
G1 X91.52 Y123.48 E49.35174
G1 X90.773 Y123.44 E49.44151
G1 X90.035 Y123.321 E49.53121
G1 X89.313 Y123.123 E49.62105
G1 X88.617 Y122.85 E49.71077
G1 X87.954 Y122.503 E49.80057
G1 X87.331 Y122.088 E49.89039
G1 X86.757 Y121.609 E49.98011
G1 X86.236 Y121.072 E50.06989
G1 X85.777 Y120.482 E50.15959
G1 X85.382 Y119.846 E50.24943
G1 X85.058 Y119.172 E50.33917
G1 X84.808 Y118.467 E50.42894
G1 X84.634 Y117.739 E50.51876
G1 X84.539 Y116.997 E50.60852
G1 X84.52 Y116.48 E50.67061
G1 X84.52 Y106.52 E51.86581
G1 X84.56 Y105.773 E51.95557
G1 X84.679 Y105.035 E52.04528
G1 X84.877 Y104.313 E52.13512
G1 X85.15 Y103.617 E52.22483
G1 X85.497 Y102.954 E52.31463
G1 X85.912 Y102.331 E52.40446
G1 X86.391 Y101.757 E52.49417
G1 X86.928 Y101.236 E52.58396
G1 X87.518 Y100.777 E52.67366
G0 F3600 X87.904 Y100.999
G1 F1800 X88.533 Y100.635 E52.76086
G1 X89.198 Y100.342 E52.84807
G1 X89.891 Y100.124 E52.93524
G1 X90.603 Y99.984 E53.02232
G1 X91.52 Y99.92 E53.13263
G1 X131.48 Y99.92 E57.92783
G1 X132.205 Y99.96 E58.01496
G1 X132.922 Y100.079 E58.10218
G1 X133.621 Y100.277 E58.18936
G1 X134.294 Y100.55 E58.27651
G1 X134.933 Y100.895 E58.36365
G1 X135.53 Y101.309 E58.45083
G1 X136.078 Y101.785 E58.53794
G1 X136.571 Y102.319 E58.62515
G1 X137.001 Y102.904 E58.71227
G1 X137.365 Y103.533 E58.79948
G1 X137.658 Y104.198 E58.88668
G1 X137.876 Y104.891 E58.97386
G1 X138.016 Y105.603 E59.06094
G1 X138.08 Y106.52 E59.17124
G1 X138.08 Y116.48 E60.36644
G1 X138.04 Y117.205 E60.45358
G1 X137.921 Y117.922 E60.54079
G1 X137.723 Y118.621 E60.62797
G1 X137.45 Y119.294 E60.71513
G1 X137.105 Y119.933 E60.80227
G1 X136.691 Y120.53 E60.88945
G1 X136.215 Y121.078 E60.97655
G1 X135.681 Y121.571 E61.06377
G1 X135.096 Y122.001 E61.15089
G1 X134.467 Y122.365 E61.2381
G1 X133.802 Y122.658 E61.3253
G1 X133.109 Y122.876 E61.41248
G1 X132.397 Y123.016 E61.49955
G1 X131.48 Y123.08 E61.60986
G1 X91.52 Y123.08 E66.40506
G1 X90.795 Y123.04 E66.49219
G1 X90.078 Y122.921 E66.57941
G1 X89.379 Y122.723 E66.66659
G1 X88.706 Y122.45 E66.75374
G1 X88.067 Y122.105 E66.84088
G1 X87.47 Y121.691 E66.92806
G1 X86.922 Y121.215 E67.01517
G1 X86.429 Y120.681 E67.10238
G1 X85.999 Y120.096 E67.18951
G1 X85.635 Y119.467 E67.27671
G1 X85.342 Y118.802 E67.36392
G1 X85.124 Y118.109 E67.45109
G1 X84.984 Y117.397 E67.53817
G1 X84.92 Y116.48 E67.64848
G1 X84.92 Y106.52 E68.84368
G1 X84.96 Y105.795 E68.93081
G1 X85.079 Y105.078 E69.01803
G1 X85.277 Y104.379 E69.10521
G1 X85.55 Y103.706 E69.19236
G1 X85.895 Y103.067 E69.2795
G1 X86.309 Y102.47 E69.36668
G1 X86.785 Y101.922 E69.45378
G1 X87.319 Y101.429 E69.541
G1 X87.904 Y100.999 E69.62812
G0 F3600 X88.288 Y101.229
G1 F1800 X88.909 Y100.897 E69.71262
G1 X89.563 Y100.637 E69.79708
G1 X90.243 Y100.453 E69.88161
G1 X90.939 Y100.347 E69.96609
G1 X91.52 Y100.32 E70.03589
G1 X131.48 Y100.32 E74.83109
G1 X132.183 Y100.36 E74.91559
G1 X132.877 Y100.479 E75.00008
G1 X133.552 Y100.677 E75.08449
G1 X134.201 Y100.949 E75.16894
G1 X134.815 Y101.294 E75.25345
G1 X135.386 Y101.705 E75.33788
G1 X135.907 Y102.179 E75.4224
G1 X136.371 Y102.709 E75.50693
G1 X136.771 Y103.288 E75.59138
G1 X137.103 Y103.909 E75.67588
G1 X137.363 Y104.563 E75.76033
G1 X137.547 Y105.243 E75.84487
G1 X137.653 Y105.939 E75.92935
G1 X137.68 Y106.52 E75.99915
G1 X137.68 Y116.48 E77.19435
G1 X137.64 Y117.183 E77.27884
G1 X137.521 Y117.877 E77.36334
G1 X137.323 Y118.552 E77.44775
G1 X137.051 Y119.201 E77.53219
G1 X136.706 Y119.815 E77.61671
G1 X136.295 Y120.386 E77.70113
G1 X135.821 Y120.907 E77.78565
G1 X135.291 Y121.371 E77.87018
G1 X134.712 Y121.771 E77.95463
G1 X134.091 Y122.103 E78.03913
G1 X133.437 Y122.363 E78.12359
G1 X132.757 Y122.547 E78.20812
G1 X132.061 Y122.653 E78.29261
G1 X131.48 Y122.68 E78.3624
G1 X91.52 Y122.68 E83.1576
G1 X90.817 Y122.64 E83.2421
G1 X90.123 Y122.521 E83.32659
G1 X89.448 Y122.323 E83.41101
G1 X88.799 Y122.051 E83.49545
G1 X88.185 Y121.706 E83.57996
G1 X87.614 Y121.295 E83.66439
G1 X87.093 Y120.821 E83.74891
G1 X86.629 Y120.291 E83.83344
G1 X86.229 Y119.712 E83.91789
G1 X85.897 Y119.091 E84.00239
G1 X85.637 Y118.437 E84.08684
G1 X85.453 Y117.757 E84.17138
G1 X85.347 Y117.061 E84.25586
G1 X85.32 Y116.48 E84.32566
G1 X85.32 Y106.52 E85.52086
G1 X85.36 Y105.817 E85.60535
G1 X85.479 Y105.123 E85.68985
G1 X85.677 Y104.448 E85.77426
G1 X85.949 Y103.799 E85.8587
G1 X86.294 Y103.185 E85.94322
G1 X86.705 Y102.614 E86.02764
G1 X87.179 Y102.093 E86.11217
G1 X87.709 Y101.629 E86.1967
G1 X88.288 Y101.229 E86.28114
G0 F3600 X88.67 Y101.468
G1 F1800 X89.282 Y101.169 E86.36288
G1 X89.924 Y100.944 E86.44451
G1 X90.589 Y100.795 E86.52629
G1 X91.52 Y100.72 E86.63837
G1 X131.48 Y100.72 E91.43357
G1 X132.16 Y100.76 E91.51532
G1 X132.83 Y100.879 E91.59697
G1 X133.482 Y101.076 E91.67871
G1 X134.106 Y101.348 E91.76039
G1 X134.694 Y101.692 E91.84214
G1 X135.238 Y102.102 E91.92388
G1 X135.729 Y102.573 E92.00553
G1 X136.163 Y103.098 E92.08727
G1 X136.532 Y103.67 E92.16895
G1 X136.831 Y104.282 E92.25069
G1 X137.056 Y104.924 E92.33232
G1 X137.205 Y105.589 E92.4141
G1 X137.28 Y106.52 E92.52618
G1 X137.28 Y116.48 E93.72138
G1 X137.24 Y117.16 E93.80312
G1 X137.121 Y117.83 E93.88478
G1 X136.924 Y118.482 E93.96652
G1 X136.652 Y119.106 E94.0482
G1 X136.308 Y119.694 E94.12995
G1 X135.898 Y120.238 E94.21169
G1 X135.427 Y120.729 E94.29334
G1 X134.902 Y121.163 E94.37508
G1 X134.33 Y121.532 E94.45676
G1 X133.718 Y121.831 E94.5385
G1 X133.076 Y122.056 E94.62013
G1 X132.411 Y122.205 E94.70191
G1 X131.48 Y122.28 E94.81399
G1 X91.52 Y122.28 E99.60919
G1 X90.84 Y122.24 E99.69093
G1 X90.17 Y122.121 E99.77259
G1 X89.518 Y121.924 E99.85433
G1 X88.894 Y121.652 E99.93601
G1 X88.306 Y121.308 E100.01776
G1 X87.762 Y120.898 E100.0995
G1 X87.271 Y120.427 E100.18115
G1 X86.837 Y119.902 E100.26289
G1 X86.468 Y119.33 E100.34457
G1 X86.169 Y118.718 E100.42631
G1 X85.944 Y118.076 E100.50794
G1 X85.795 Y117.411 E100.58972
G1 X85.72 Y116.48 E100.7018
G1 X85.72 Y106.52 E101.897
G1 X85.76 Y105.84 E101.97874
G1 X85.879 Y105.17 E102.0604
G1 X86.076 Y104.518 E102.14214
G1 X86.348 Y103.894 E102.22382
G1 X86.692 Y103.306 E102.30557
G1 X87.102 Y102.762 E102.38731
G1 X87.573 Y102.271 E102.46896
G1 X88.098 Y101.837 E102.5507
G1 X88.67 Y101.468 E102.63238
G0 F3600 X89.049 Y101.718
G1 F1800 X89.651 Y101.454 E102.71126
G1 X90.28 Y101.264 E102.79011
G1 X90.927 Y101.153 E102.86889
G1 X91.52 Y101.12 E102.94016
G1 X131.48 Y101.12 E107.73536
G1 X132.136 Y101.16 E107.81422
G1 X132.782 Y101.279 E107.89305
G1 X133.409 Y101.476 E107.97191
G1 X134.007 Y101.748 E108.05075
G1 X134.568 Y102.09 E108.12959
G1 X135.083 Y102.498 E108.20843
G1 X135.545 Y102.965 E108.28726
G1 X135.946 Y103.485 E108.36606
G1 X136.282 Y104.049 E108.44484
G1 X136.546 Y104.651 E108.52372
G1 X136.736 Y105.28 E108.60257
G1 X136.847 Y105.927 E108.68135
G1 X136.88 Y106.52 E108.75262
G1 X136.88 Y116.48 E109.94782
G1 X136.84 Y117.136 E110.02668
G1 X136.721 Y117.782 E110.10551
G1 X136.524 Y118.409 E110.18437
G1 X136.252 Y119.007 E110.26321
G1 X135.91 Y119.568 E110.34205
G1 X135.502 Y120.083 E110.42089
G1 X135.035 Y120.545 E110.49972
G1 X134.515 Y120.946 E110.57852
G1 X133.951 Y121.282 E110.6573
G1 X133.349 Y121.546 E110.73618
G1 X132.72 Y121.736 E110.81503
G1 X132.073 Y121.847 E110.89381
G1 X131.48 Y121.88 E110.96508
G1 X91.52 Y121.88 E115.76028
G1 X90.864 Y121.84 E115.83914
G1 X90.218 Y121.721 E115.91797
G1 X89.591 Y121.524 E115.99683
G1 X88.993 Y121.252 E116.07567
G1 X88.432 Y120.91 E116.15451
G1 X87.917 Y120.502 E116.23335
G1 X87.455 Y120.035 E116.31218
G1 X87.054 Y119.515 E116.39098
G1 X86.718 Y118.951 E116.46976
G1 X86.454 Y118.349 E116.54864
G1 X86.264 Y117.72 E116.62749
G1 X86.153 Y117.073 E116.70627
G1 X86.12 Y116.48 E116.77754
G1 X86.12 Y106.52 E117.97274
G1 X86.16 Y105.864 E118.0516
G1 X86.279 Y105.218 E118.13043
G1 X86.476 Y104.591 E118.20929
G1 X86.748 Y103.993 E118.28813
G1 X87.09 Y103.432 E118.36697
G1 X87.498 Y102.917 E118.44582
G1 X87.965 Y102.455 E118.52464
G1 X88.485 Y102.054 E118.60344
G1 X89.049 Y101.718 E118.68222
G0 F3600 X89.426 Y101.98
G1 F1800 X90.015 Y101.752 E118.75801
G1 X90.629 Y101.6 E118.83392
G1 X91.52 Y101.52 E118.94127
G1 X131.48 Y101.52 E123.73647
G1 X132.111 Y101.56 E123.81234
G1 X132.732 Y101.679 E123.88822
G1 X133.332 Y101.876 E123.964
G1 X133.904 Y102.147 E124.03995
G1 X134.436 Y102.487 E124.11572
G1 X134.921 Y102.893 E124.19162
G1 X135.351 Y103.356 E124.26744
G1 X135.72 Y103.87 E124.34337
G1 X136.02 Y104.426 E124.41918
G1 X136.248 Y105.015 E124.49497
G1 X136.4 Y105.629 E124.57088
G1 X136.48 Y106.52 E124.67823
G1 X136.48 Y116.48 E125.87343
G1 X136.44 Y117.111 E125.9493
G1 X136.321 Y117.732 E126.02518
G1 X136.124 Y118.332 E126.10096
G1 X135.853 Y118.904 E126.17691
G1 X135.513 Y119.436 E126.25268
G1 X135.107 Y119.921 E126.32858
G1 X134.644 Y120.351 E126.4044
G1 X134.13 Y120.72 E126.48033
G1 X133.574 Y121.02 E126.55614
G1 X132.985 Y121.248 E126.63193
G1 X132.371 Y121.4 E126.70784
G1 X131.48 Y121.48 E126.81519
G1 X91.52 Y121.48 E131.61039
G1 X90.889 Y121.44 E131.68626
G1 X90.268 Y121.321 E131.76214
G1 X89.668 Y121.124 E131.83792
G1 X89.096 Y120.853 E131.91387
G1 X88.564 Y120.513 E131.98963
G1 X88.079 Y120.107 E132.06554
G1 X87.649 Y119.644 E132.14136
G1 X87.28 Y119.13 E132.21729
G1 X86.98 Y118.574 E132.2931
G1 X86.752 Y117.985 E132.36889
G1 X86.6 Y117.371 E132.4448
G1 X86.52 Y116.48 E132.55215
G1 X86.52 Y106.52 E133.74735
G1 X86.56 Y105.889 E133.82322
G1 X86.679 Y105.268 E133.89909
G1 X86.876 Y104.668 E133.97488
G1 X87.147 Y104.096 E134.05083
G1 X87.487 Y103.564 E134.12659
G1 X87.893 Y103.079 E134.20249
G1 X88.356 Y102.649 E134.27832
G1 X88.87 Y102.28 E134.35425
G1 X89.426 Y101.98 E134.43006
G0 F3600 X89.798 Y102.254
G1 F1800 X90.374 Y102.065 E134.50281
G1 X90.97 Y101.953 E134.57558
G1 X91.52 Y101.92 E134.6417
G1 X131.48 Y101.92 E139.4369
G1 X132.085 Y101.96 E139.50966
G1 X132.679 Y102.079 E139.58235
G1 X133.253 Y102.275 E139.65514
G1 X133.796 Y102.546 E139.72796
G1 X134.299 Y102.885 E139.80075
G1 X134.752 Y103.287 E139.87343
G1 X135.149 Y103.745 E139.94616
G1 X135.482 Y104.252 E140.01895
G1 X135.746 Y104.798 E140.09173
G1 X135.935 Y105.374 E140.16447
G1 X136.047 Y105.97 E140.23725
G1 X136.08 Y106.52 E140.30336
G1 X136.08 Y116.48 E141.49856
G1 X136.04 Y117.085 E141.57132
G1 X135.921 Y117.679 E141.64402
G1 X135.725 Y118.253 E141.7168
G1 X135.454 Y118.796 E141.78963
G1 X135.115 Y119.299 E141.86242
G1 X134.713 Y119.752 E141.9351
G1 X134.255 Y120.149 E142.00783
G1 X133.748 Y120.482 E142.08062
G1 X133.202 Y120.746 E142.1534
G1 X132.626 Y120.935 E142.22614
G1 X132.03 Y121.047 E142.29891
G1 X131.48 Y121.08 E142.36503
G1 X91.52 Y121.08 E147.16023
G1 X90.915 Y121.04 E147.23299
G1 X90.321 Y120.921 E147.30569
G1 X89.747 Y120.725 E147.37847
G1 X89.204 Y120.454 E147.4513
G1 X88.701 Y120.115 E147.52408
