;FLAVOR:UltiGCode
;TIME:4010
;MATERIAL:9282
;MATERIAL2:0
;NOZZLE_DIAMETER:0.4
;MINX:77.823
;MINY:95.582
;MINZ:0.3
;MAXX:141.246
;MAXY:127.413
;MAXZ:48.1
;Generated with Cura_SteamEngine 5.2.1
M82 ;absolute extrusion mode
G0 F3000 Y50 ;avoid prime blob
G92 E0
G92 E0
G10
;LAYER_COUNT:240
;LAYER:0
M107
G0 F3600 X81.538 Y99.041 Z0.3
;TYPE:SKIRT
G11
G1 F1800 X82.09 Y98.646 E0.08145
G1 X82.755 Y98.219 E0.17629
G1 X83.459 Y97.862 E0.27101
G1 X84.196 Y97.578 E0.36579
G1 X84.832 Y97.399 E0.44507
G1 X85.453 Y97.252 E0.52165
G1 X86.23 Y97.109 E0.61646
G1 X86.774 Y97.057 E0.68204
G1 X110.31 Y95.619 E3.51162
G1 X111.444 Y95.582 E3.64777
G1 X112.402 Y95.601 E3.76276
G1 X113.203 Y95.641 E3.859
G1 X113.751 Y95.687 E3.92499
G1 X114.561 Y95.785 E4.0229
G1 X115.549 Y95.94 E4.14291
G1 X116.603 Y96.151 E4.2719
G1 X117.683 Y96.426 E4.40563
G1 X118.184 Y96.571 E4.46822
G1 X118.923 Y96.813 E4.56153
G1 X120.077 Y97.233 E4.7089
G1 X121.309 Y97.775 E4.87041
G1 X122.137 Y98.199 E4.98204
G1 X122.845 Y98.588 E5.07898
G1 X123.902 Y99.226 E5.22714
G1 X124.833 Y99.861 E5.36237
G1 X125.762 Y100.566 E5.50232
G1 X126.765 Y101.418 E5.66024
G1 X127.588 Y102.2 E5.79647
G1 X128.093 Y102.717 E5.8832
G1 X128.951 Y103.68 E6.03797
G1 X129.59 Y104.48 E6.16084
G1 X130.114 Y105.189 E6.26663
G1 X130.556 Y105.832 E6.36026
G1 X130.845 Y106.287 E6.42495
G1 X131.241 Y106.958 E6.51844
G1 X131.608 Y107.657 E6.61318
G1 X132.056 Y108.838 E6.76475
G1 X132.307 Y109.851 E6.88999
G1 X132.419 Y110.633 E6.98479
G1 X132.44 Y111.987 E7.14729
G1 X132.324 Y113.044 E7.27489
G1 X132.159 Y113.816 E7.36962
G1 X131.88 Y114.696 E7.4804
G1 X131.495 Y115.599 E7.5982
G1 X131.023 Y116.435 E7.7134
G1 X130.299 Y117.549 E7.87284
G1 X129.825 Y118.21 E7.97044
G1 X129.088 Y119.168 E8.11549
G1 X128.201 Y120.171 E8.27616
G1 X127.772 Y120.62 E8.35068
G1 X126.92 Y121.442 E8.49275
G1 X125.927 Y122.301 E8.6503
G1 X125.419 Y122.705 E8.72819
G1 X124.438 Y123.412 E8.8733
G1 X123.78 Y123.847 E8.96795
G1 X123.244 Y124.178 E9.04355
G1 X122.288 Y124.725 E9.17572
G1 X121.35 Y125.199 E9.30183
G1 X120.313 Y125.659 E9.43797
G1 X119.544 Y125.968 E9.53742
G1 X119.013 Y126.159 E9.60514
G1 X117.897 Y126.516 E9.74574
G1 X116.934 Y126.767 E9.86516
G1 X115.993 Y126.978 E9.98089
G1 X115.498 Y127.072 E10.04135
G1 X114.494 Y127.224 E10.1632
G1 X113.693 Y127.317 E10.25997
G1 X112.634 Y127.393 E10.38737
G1 X112.077 Y127.413 E10.45426
G1 X110.828 Y127.413 E10.60414
G1 X86.58 Y125.929 E13.51934
G1 X85.795 Y125.841 E13.61413
G1 X84.553 Y125.548 E13.76726
G1 X83.572 Y125.186 E13.89274
G1 X82.405 Y124.585 E14.05026
G1 X81.527 Y123.987 E14.17774
G1 X80.922 Y123.478 E14.27261
G1 X80.272 Y122.794 E14.38584
G1 X79.905 Y122.358 E14.45423
G1 X79.427 Y121.729 E14.54903
G1 X79.016 Y121.055 E14.64377
G1 X78.545 Y120.058 E14.77608
G1 X78.199 Y119.067 E14.90204
G1 X78.016 Y118.299 E14.99678
G1 X77.885 Y117.379 E15.1083
G1 X77.823 Y116.393 E15.22685
G1 X77.824 Y106.431 E16.42229
G1 X77.864 Y105.643 E16.51697
G1 X77.984 Y104.862 E16.61179
G1 X78.122 Y104.298 E16.68147
G1 X78.308 Y103.644 E16.76306
G1 X78.562 Y102.897 E16.85774
G1 X78.89 Y102.178 E16.95258
G1 X79.467 Y101.211 E17.0877
G1 X80.095 Y100.378 E17.21289
G1 X80.632 Y99.799 E17.30765
G1 X81.538 Y99.041 E17.4494
G0 F3600 X81.771 Y99.366
G1 F1800 X82.323 Y98.971 E17.53086
G1 X82.971 Y98.557 E17.62313
G1 X83.658 Y98.212 E17.71538
G1 X84.378 Y97.94 E17.80774
G1 X84.924 Y97.788 E17.87575
G1 X85.545 Y97.641 E17.95233
G1 X86.439 Y97.478 E18.06138
G1 X110.335 Y96.018 E20.93425
G1 X111.448 Y95.982 E21.06788
G1 X112.382 Y96 E21.17998
G1 X113.183 Y96.04 E21.27622
G1 X113.703 Y96.085 E21.33885
G1 X114.817 Y96.226 E21.4736
G1 X115.795 Y96.392 E21.59264
G1 X116.533 Y96.545 E21.68308
G1 X117.831 Y96.876 E21.84382
G1 X118.799 Y97.193 E21.96605
G1 X119.918 Y97.601 E22.10898
G1 X121.152 Y98.144 E22.27076
G1 X121.955 Y98.555 E22.37901
G1 X122.65 Y98.937 E22.47418
G1 X123.675 Y99.556 E22.61787
G1 X124.615 Y100.199 E22.75453
G1 X125.515 Y100.88 E22.88997
G1 X126.476 Y101.697 E23.04133
G1 X127.067 Y102.25 E23.13846
G1 X127.806 Y102.995 E23.26438
G1 X128.644 Y103.936 E23.41558
G1 X129.27 Y104.72 E23.53598
G1 X129.784 Y105.416 E23.6398
G1 X130.226 Y106.059 E23.73343
G1 X130.501 Y106.49 E23.79479
G1 X130.897 Y107.161 E23.88828
G1 X131.253 Y107.843 E23.9806
G1 X131.675 Y108.959 E24.12378
G1 X131.918 Y109.947 E24.24587
G1 X132.024 Y110.709 E24.33819
G1 X132.041 Y111.969 E24.4894
G1 X131.926 Y113 E24.61389
G1 X131.762 Y113.751 E24.70613
G1 X131.501 Y114.565 E24.80871
G1 X131.127 Y115.442 E24.92312
G1 X130.688 Y116.217 E25.03001
G1 X129.967 Y117.326 E25.18874
G1 X129.325 Y118.211 E25.31994
G1 X128.765 Y118.929 E25.42921
G1 X127.901 Y119.907 E25.5858
G1 X127.494 Y120.332 E25.65642
G1 X126.645 Y121.151 E25.79798
G1 X125.666 Y121.998 E25.95332
G1 X125.183 Y122.382 E26.02737
G1 X124.215 Y123.08 E26.17058
G1 X123.57 Y123.506 E26.26333
G1 X122.777 Y123.989 E26.37476
G1 X121.933 Y124.456 E26.49051
G1 X121.342 Y124.755 E26.56999
G1 X120.449 Y125.166 E26.68795
G1 X119.395 Y125.596 E26.82455
G1 X118.891 Y125.778 E26.88885
G1 X117.78 Y126.133 E27.02881
G1 X116.846 Y126.377 E27.14466
G1 X115.677 Y126.639 E27.28842
G1 X114.743 Y126.786 E27.40188
G1 X113.663 Y126.918 E27.53244
G1 X112.605 Y126.994 E27.65973
G1 X112.077 Y127.013 E27.72313
G1 X110.836 Y127.013 E27.87205
G1 X86.604 Y125.53 E30.78533
G1 X85.84 Y125.443 E30.8776
G1 X84.668 Y125.164 E31.02217
G1 X83.711 Y124.81 E31.14462
G1 X82.609 Y124.242 E31.29339
G1 X81.752 Y123.656 E31.41797
G1 X81.166 Y123.158 E31.51026
G1 X80.578 Y122.536 E31.61297
G1 X80.211 Y122.1 E31.68136
G1 X79.747 Y121.487 E31.77361
G1 X79.349 Y120.829 E31.86589
G1 X78.913 Y119.901 E31.98893
G1 X78.577 Y118.936 E32.11155
G1 X78.299 Y117.595 E32.27589
G1 X78.223 Y116.393 E32.42042
G1 X78.224 Y106.431 E33.61586
G1 X78.264 Y105.663 E33.70814
G1 X78.384 Y104.903 E33.80047
G1 X78.506 Y104.408 E33.86165
G1 X78.692 Y103.754 E33.94324
G1 X78.941 Y103.026 E34.03557
G1 X79.264 Y102.328 E34.12787
G1 X79.802 Y101.431 E34.25338
G1 X80.415 Y100.619 E34.37547
G1 X80.94 Y100.057 E34.46776
G1 X81.771 Y99.366 E34.59745
G0 F3600 X82.003 Y99.691
G1 F1800 X82.555 Y99.296 E34.6789
G1 X83.186 Y98.894 E34.76868
G1 X83.856 Y98.562 E34.85841
G1 X84.68 Y98.257 E34.96385
G1 X85.638 Y98.03 E35.08199
G1 X86.496 Y97.875 E35.18662
G1 X110.359 Y96.417 E38.05552
G1 X111.456 Y96.382 E38.18723
G1 X112.362 Y96.4 E38.29597
G1 X113.428 Y96.453 E38.42405
G1 X114.753 Y96.621 E38.58432
G1 X115.714 Y96.784 E38.70129
G1 X116.297 Y96.905 E38.77274
G1 X117.708 Y97.257 E38.94725
G1 X118.928 Y97.662 E39.1015
G1 X119.784 Y97.979 E39.21104
G1 X120.98 Y98.505 E39.36783
G1 X121.773 Y98.911 E39.47473
G1 X122.456 Y99.287 E39.56829
G1 X123.472 Y99.902 E39.71081
G1 X124.388 Y100.527 E39.84388
G1 X125.261 Y101.189 E39.97535
G1 X126.205 Y101.992 E40.12407
G1 X126.793 Y102.542 E40.22069
G1 X127.514 Y103.269 E40.34356
G1 X128.334 Y104.189 E40.49144
G1 X128.797 Y104.763 E40.57994
G1 X129.286 Y105.408 E40.67707
G1 X130.021 Y106.464 E40.83146
G1 X130.552 Y107.364 E40.95686
G1 X130.898 Y108.028 E41.04671
G1 X131.293 Y109.081 E41.18166
G1 X131.529 Y110.043 E41.30053
G1 X131.629 Y110.784 E41.39025
G1 X131.641 Y111.955 E41.53078
G1 X131.528 Y112.955 E41.65154
G1 X131.365 Y113.685 E41.7413
G1 X131.124 Y114.434 E41.83572
G1 X130.759 Y115.285 E41.94684
G1 X130.352 Y115.999 E42.04546
G1 X129.63 Y117.11 E42.20446
G1 X129.009 Y117.965 E42.33126
G1 X128.455 Y118.675 E42.43933
G1 X127.601 Y119.642 E42.59415
G1 X127.216 Y120.044 E42.66094
G1 X126.369 Y120.861 E42.80216
G1 X125.404 Y121.696 E42.95529
G1 X124.948 Y122.058 E43.02516
G1 X123.993 Y122.748 E43.16654
G1 X123.36 Y123.166 E43.25757
G1 X122.824 Y123.497 E43.33316
G1 X121.888 Y124.032 E43.46254
G1 X120.881 Y124.532 E43.59745
G1 X120.015 Y124.916 E43.71113
G1 X119.246 Y125.225 E43.81058
G1 X118.769 Y125.397 E43.87143
G1 X117.662 Y125.751 E44.0109
G1 X116.759 Y125.986 E44.12287
G1 X115.591 Y126.248 E44.26651
G1 X114.681 Y126.391 E44.37705
G1 X113.631 Y126.52 E44.504
G1 X112.577 Y126.595 E44.6308
G1 X112.077 Y126.613 E44.69084
G1 X110.843 Y126.613 E44.83892
G1 X86.628 Y125.131 E47.75015
G1 X85.885 Y125.045 E47.83991
G1 X84.784 Y124.781 E47.97577
G1 X83.85 Y124.435 E48.0953
G1 X82.812 Y123.896 E48.23565
G1 X81.979 Y123.325 E48.35684
G1 X81.41 Y122.839 E48.44663
G1 X80.884 Y122.279 E48.53883
G1 X80.517 Y121.843 E48.60722
G1 X80.066 Y121.246 E48.697
G1 X79.682 Y120.604 E48.78677
G1 X79.278 Y119.737 E48.90155
G1 X78.956 Y118.804 E49.01999
G1 X78.696 Y117.542 E49.17461
G1 X78.623 Y116.393 E49.31277
G1 X78.624 Y106.431 E50.50821
G1 X78.664 Y105.684 E50.59798
G1 X78.804 Y104.823 E50.70266
G1 X79.077 Y103.863 E50.82242
G1 X79.32 Y103.156 E50.91214
G1 X79.637 Y102.478 E51.00195
G1 X80.138 Y101.646 E51.11849
G1 X80.734 Y100.861 E51.23677
G1 X81.248 Y100.317 E51.32658
G1 X82.003 Y99.691 E51.44427
G0 F3600 X82.236 Y100.017
G1 F1800 X82.788 Y99.622 E51.52572
G1 X83.401 Y99.232 E51.61291
G1 X84.053 Y98.912 E51.70006
G1 X84.834 Y98.631 E51.79966
G1 X85.73 Y98.419 E51.91015
G1 X86.55 Y98.272 E52.01012
G1 X110.384 Y96.816 E54.87553
G1 X111.459 Y96.783 E55.00459
G1 X112.342 Y96.799 E55.11057
G1 X113.385 Y96.851 E55.23589
G1 X114.688 Y97.015 E55.39348
G1 X115.355 Y97.124 E55.47458
G1 X116.357 Y97.326 E55.59724
G1 X117.604 Y97.643 E55.75164
G1 X118.789 Y98.037 E55.90149
G1 X119.635 Y98.35 E56.00974
G1 X120.8 Y98.862 E56.16244
G1 X121.79 Y99.374 E56.29619
G1 X122.261 Y99.636 E56.36087
G1 X123.267 Y100.245 E56.50199
G1 X124.137 Y100.84 E56.62847
G1 X125.012 Y101.503 E56.7602
G1 X125.945 Y102.296 E56.90714
G1 X126.52 Y102.834 E57.00163
G1 X127.215 Y103.535 E57.12009
G1 X128.037 Y104.457 E57.26832
G1 X128.63 Y105.2 E57.38239
G1 X129.125 Y105.869 E57.48226
G1 X129.693 Y106.695 E57.60255
G1 X130.208 Y107.568 E57.72418
G1 X130.542 Y108.212 E57.81124
G1 X130.912 Y109.201 E57.93795
G1 X131.14 Y110.137 E58.05355
G1 X131.233 Y110.858 E58.14079
G1 X131.242 Y111.939 E58.27052
G1 X131.13 Y112.91 E58.38781
G1 X130.968 Y113.618 E58.47496
G1 X130.678 Y114.459 E58.58172
G1 X130.391 Y115.127 E58.66896
G1 X130.017 Y115.782 E58.75947
G1 X129.309 Y116.871 E58.91534
G1 X128.694 Y117.719 E59.04105
G1 X128.154 Y118.412 E59.14647
G1 X127.301 Y119.377 E59.30103
G1 X126.938 Y119.756 E59.364
G1 X126.102 Y120.562 E59.50335
G1 X125.142 Y121.393 E59.65572
G1 X124.712 Y121.735 E59.72165
G1 X123.77 Y122.415 E59.86106
G1 X123.15 Y122.826 E59.95033
G1 X122.614 Y123.157 E60.02592
G1 X121.831 Y123.604 E60.13412
G1 X120.98 Y124.041 E60.24891
G1 X120.12 Y124.437 E60.36253
G1 X118.891 Y124.938 E60.52179
G1 X117.565 Y125.362 E60.68885
G1 X116.671 Y125.596 E60.79974
G1 X115.504 Y125.858 E60.94327
G1 X114.356 Y126.032 E61.0826
G1 X113.72 Y126.106 E61.15944
G1 X112.327 Y126.213 E61.32709
G1 X110.852 Y126.213 E61.50409
G1 X86.653 Y124.732 E64.4134
G1 X85.931 Y124.647 E64.50064
G1 X84.897 Y124.398 E64.62827
G1 X83.99 Y124.06 E64.74442
G1 X83.015 Y123.552 E64.87635
G1 X82.205 Y122.995 E64.99431
G1 X81.656 Y122.52 E65.08143
G1 X81.19 Y122.021 E65.16336
G1 X80.823 Y121.585 E65.23175
G1 X80.386 Y121.005 E65.31889
G1 X80.016 Y120.38 E65.40605
G1 X79.646 Y119.577 E65.51214
G1 X79.334 Y118.674 E65.62679
G1 X79.093 Y117.489 E65.7719
G1 X79.023 Y116.393 E65.90369
G1 X79.024 Y106.431 E67.09913
G1 X79.064 Y105.706 E67.18626
G1 X79.2 Y104.894 E67.28506
G1 X79.462 Y103.973 E67.39996
G1 X79.699 Y103.286 E67.48717
G1 X80.009 Y102.629 E67.57435
G1 X80.478 Y101.858 E67.68264
G1 X81.053 Y101.104 E67.79643
G1 X81.554 Y100.577 E67.88368
G1 X82.236 Y100.017 E67.98958
G0 F3600 X82.469 Y100.342
G1 F1800 X83.021 Y99.947 E68.07103
G1 X83.616 Y99.57 E68.15556
G1 X84.25 Y99.264 E68.24003
G1 X85.201 Y98.956 E68.35999
G1 X85.822 Y98.809 E68.43657
G1 X86.603 Y98.67 E68.53176
G1 X110.613 Y97.206 E71.41831
G1 X111.328 Y97.186 E71.50415
G1 X112.322 Y97.199 E71.62344
G1 X113.358 Y97.251 E71.74791
G1 X114.624 Y97.41 E71.90103
G1 X115.551 Y97.567 E72.01385
G1 X116.405 Y97.751 E72.11868
G1 X117.497 Y98.029 E72.2539
G1 X118.65 Y98.412 E72.3997
G1 X119.486 Y98.722 E72.50669
G1 X120.626 Y99.223 E72.65612
G1 X121.596 Y99.724 E72.78713
G1 X122.067 Y99.986 E72.8518
G1 X123.051 Y100.582 E72.98986
G1 X123.906 Y101.167 E73.11417
G1 X124.769 Y101.82 E73.24404
G1 X125.779 Y102.688 E73.40385
G1 X126.247 Y103.126 E73.48076
G1 X126.935 Y103.821 E73.59812
G1 X127.718 Y104.7 E73.73938
G1 X128.31 Y105.44 E73.8531
G1 X128.646 Y105.888 E73.9203
G1 X129.35 Y106.901 E74.06833
G1 X129.863 Y107.771 E74.18953
G1 X130.186 Y108.396 E74.27395
G1 X130.532 Y109.322 E74.39258
G1 X130.751 Y110.232 E74.50489
G1 X130.837 Y110.93 E74.58929
G1 X130.841 Y111.925 E74.70869
G1 X130.732 Y112.864 E74.82212
G1 X130.572 Y113.549 E74.90654
G1 X130.303 Y114.322 E75.00475
G1 X130.023 Y114.968 E75.08924
G1 X129.681 Y115.564 E75.1717
G1 X129.058 Y116.523 E75.30893
G1 X128.525 Y117.277 E75.41974
G1 X127.846 Y118.157 E75.55312
G1 X126.84 Y119.295 E75.73539
G1 X125.836 Y120.264 E75.90283
G1 X124.88 Y121.091 E76.05451
G1 X124.476 Y121.412 E76.11643
G1 X123.548 Y122.083 E76.25386
G1 X122.94 Y122.485 E76.34132
G1 X122.404 Y122.816 E76.41692
G1 X121.51 Y123.326 E76.54043
G1 X120.552 Y123.803 E76.66885
G1 X119.717 Y124.174 E76.77849
G1 X118.745 Y124.565 E76.90422
G1 X117.444 Y124.981 E77.06812
G1 X116.584 Y125.206 E77.1748
G1 X115.448 Y125.461 E77.31451
G1 X114.556 Y125.601 E77.42286
G1 X113.674 Y125.708 E77.52948
G1 X112.313 Y125.813 E77.69328
G1 X110.876 Y125.813 E77.86572
G1 X86.677 Y124.332 E80.77503
G1 X85.978 Y124.25 E80.85949
G1 X85.006 Y124.013 E80.97955
G1 X84.131 Y123.684 E81.09172
G1 X83.218 Y123.207 E81.21533
G1 X82.433 Y122.665 E81.32981
G1 X81.902 Y122.202 E81.41435
G1 X81.496 Y121.764 E81.48601
G1 X81.129 Y121.328 E81.5544
G1 X80.707 Y120.764 E81.63893
G1 X80.351 Y120.157 E81.72337
G1 X80.011 Y119.413 E81.82153
G1 X79.713 Y118.544 E81.93178
G1 X79.489 Y117.435 E82.06754
G1 X79.423 Y116.393 E82.19283
G1 X79.424 Y106.431 E83.38827
G1 X79.464 Y105.729 E83.47265
G1 X79.66 Y104.736 E83.59411
G1 X79.846 Y104.082 E83.6757
G1 X80.077 Y103.417 E83.76018
G1 X80.382 Y102.782 E83.84471
G1 X80.814 Y102.076 E83.94404
G1 X81.372 Y101.346 E84.0543
G1 X81.86 Y100.839 E84.13874
G1 X82.469 Y100.342 E84.23307
G0 F3600 X82.702 Y100.667
G1 F1800 X83.254 Y100.272 E84.31452
G1 X83.83 Y99.909 E84.39622
G1 X84.444 Y99.616 E84.47786
G1 X85.293 Y99.345 E84.5848
G1 X85.914 Y99.198 E84.66138
G1 X86.896 Y99.053 E84.7805
G1 X110.624 Y97.606 E87.63315
G1 X111.339 Y97.586 E87.71898
G1 X112.302 Y97.598 E87.83455
G1 X113.305 Y97.648 E87.95506
G1 X114.321 Y97.771 E88.07787
G1 X115.226 Y97.914 E88.18782
G1 X116.053 Y98.08 E88.28904
G1 X117.382 Y98.412 E88.45342
G1 X118.511 Y98.787 E88.59618
G1 X119.338 Y99.093 E88.70199
G1 X120.455 Y99.585 E88.84846
G1 X121.401 Y100.073 E88.9762
G1 X121.872 Y100.335 E89.04087
G1 X122.829 Y100.916 E89.17522
G1 X123.559 Y101.414 E89.28126
G1 X124.508 Y102.123 E89.42341
G1 X125.299 Y102.796 E89.54804
G1 X125.973 Y103.418 E89.6581
G1 X126.55 Y104 E89.75644
G1 X127.411 Y104.956 E89.91083
G1 X127.99 Y105.68 E90.02208
G1 X128.466 Y106.322 E90.11798
G1 X129.018 Y107.125 E90.23491
G1 X129.519 Y107.974 E90.35321
G1 X129.83 Y108.58 E90.43495
G1 X130.151 Y109.445 E90.54566
G1 X130.361 Y110.325 E90.65423
G1 X130.441 Y111.002 E90.73603
G1 X130.441 Y111.913 E90.84535
G1 X130.334 Y112.817 E90.95459
G1 X130.025 Y113.958 E91.09644
G1 X129.655 Y114.808 E91.20769
G1 X129.346 Y115.346 E91.28214
G1 X128.646 Y116.423 E91.43628
G1 X128.063 Y117.228 E91.55555
G1 X127.541 Y117.898 E91.65747
G1 X126.55 Y119.019 E91.83702
G1 X125.561 Y119.973 E92.00192
G1 X124.432 Y120.95 E92.18108
G1 X123.514 Y121.619 E92.31739
G1 X122.91 Y122.029 E92.40499
G1 X122.193 Y122.476 E92.50638
G1 X121.438 Y122.907 E92.61071
G1 X120.506 Y123.385 E92.7364
G1 X119.568 Y123.803 E92.85963
G1 X118.612 Y124.187 E92.98326
G1 X117.481 Y124.549 E93.12576
G1 X116.734 Y124.757 E93.21881
G1 X115.37 Y125.068 E93.38669
G1 X114.494 Y125.206 E93.49311
G1 X113.627 Y125.311 E93.59791
G1 X112.295 Y125.413 E93.75821
G1 X110.885 Y125.413 E93.92741
G1 X86.702 Y123.933 E96.8348
G1 X86.026 Y123.852 E96.9165
G1 X85.119 Y123.63 E97.02856
G1 X84.272 Y123.309 E97.13725
G1 X83.42 Y122.862 E97.25271
