;FLAVOR:Marlin
;TIME:17072
;Filament used: 7.75161m
;Layer height: 0.2
;MINX:54.659
;MINY:41.191
;MINZ:0.3
;MAXX:149.129
;MAXY:190.492
;MAXZ:20.1
;Generated with Cura_SteamEngine 5.2.1
M140 S60
M105
M190 S60
M104 S210
M105
M109 S210
M82 ;absolute extrusion mode
G21 ;metric values
G90 ;absolute positioning
M82 ;set extruder to absolute mode
M107 ;start with the fan off
G28 Z0 ;move Z to bottom endstops
G28 X0 Y0 ;move X/Y to endstops
G1 X15 Y0 F4000 ;move X/Y to front of printer
G1 Z15.0 F9000 ;move the platform to 15mm
G92 E0 ;zero the extruded length
G1 F200 E10 ;extrude 10 mm of feed stock
G92 E0 ;zero the extruded length again
G1 Y50 F9000
;Put printing message on LCD screen
M117 Printing...
G92 E0
G92 E0
G1 F1500 E-6.5
;LAYER_COUNT:100
;LAYER:0
M107
G0 F3600 X56.191 Y51.685 Z0.3
;TYPE:SKIRT
G1 F1500 E0
G1 F1800 X56.583 Y51.366 E0.00951
G1 X57.02 Y51.113 E0.01901
G1 X57.492 Y50.931 E0.02852
G1 X58.218 Y50.766 E0.04253
G1 X61.069 Y50.483 E0.09642
G1 X63.755 Y50.141 E0.14735
G1 X66.485 Y49.715 E0.19933
G1 X69.195 Y49.213 E0.25117
G1 X71.819 Y48.651 E0.30165
G1 X74.512 Y47.994 E0.35379
G1 X77.156 Y47.267 E0.40537
G1 X79.788 Y46.464 E0.45713
G1 X82.368 Y45.597 E0.50833
G1 X85.465 Y44.447 E0.57047
G1 X86.071 Y44.275 E0.58232
G1 X87.056 Y44.206 E0.6009
G1 X144.377 Y41.218 E1.6806
G1 X145.086 Y41.191 E1.69395
G1 X145.591 Y41.212 E1.70346
G1 X146.087 Y41.312 E1.71297
G1 X146.561 Y41.489 E1.72249
G1 X147.166 Y41.84 E1.73565
G1 X147.731 Y42.329 E1.7497
G1 X148.243 Y42.869 E1.7637
G1 X148.561 Y43.262 E1.77321
G1 X148.813 Y43.701 E1.78273
G1 X148.993 Y44.173 E1.79223
G1 X149.096 Y44.668 E1.80175
G1 X149.129 Y45.472 E1.81688
G1 X148.601 Y177.011 E4.29122
G1 X148.588 Y177.74 E4.30494
G1 X148.54 Y178.243 E4.31444
G1 X148.412 Y178.732 E4.32395
G1 X148.209 Y179.195 E4.33346
G1 X147.936 Y179.621 E4.34298
G1 X147.599 Y179.998 E4.35249
G1 X147.206 Y180.317 E4.36201
G1 X146.769 Y180.57 E4.37151
G1 X146.073 Y180.809 E4.38535
G1 X145.402 Y180.934 E4.39819
G1 X142.492 Y181.225 E4.4532
G1 X139.818 Y181.572 E4.50393
G1 X137.07 Y182.008 E4.55626
G1 X134.387 Y182.512 E4.60761
G1 X131.722 Y183.09 E4.65891
G1 X129.084 Y183.741 E4.71002
G1 X126.402 Y184.484 E4.76237
G1 X123.809 Y185.282 E4.8134
G1 X121.224 Y186.159 E4.86475
G1 X119.212 Y186.898 E4.90507
G1 X118.387 Y187.212 E4.92168
G1 X117.778 Y187.39 E4.93361
G1 X116.312 Y187.498 E4.96126
G1 X59.417 Y190.464 E6.03294
G1 X58.709 Y190.492 E6.04627
G1 X58.204 Y190.472 E6.05578
G1 X57.709 Y190.372 E6.06528
G1 X57.235 Y190.196 E6.07479
G1 X56.714 Y189.902 E6.08604
G1 X55.979 Y189.283 E6.10412
G1 X55.479 Y188.765 E6.11766
G1 X55.095 Y188.205 E6.13043
G1 X54.878 Y187.749 E6.13993
G1 X54.736 Y187.263 E6.14945
G1 X54.659 Y186.587 E6.16225
G1 X55.188 Y54.667 E8.64376
G1 X55.201 Y53.943 E8.65738
G1 X55.249 Y53.439 E8.66691
G1 X55.377 Y52.95 E8.67641
G1 X55.58 Y52.487 E8.68592
G1 X55.854 Y52.062 E8.69544
G1 X56.191 Y51.685 E8.70495
G1 F1500 E2.20495
G0 F3600 X69.342 Y54.776
;TYPE:SUPPORT
G1 F1500 E8.70495
G1 F1800 X69.342 Y60.409 E8.81091
G1 X67.317 Y61.341 E8.85284
G1 X63.371 Y61.341 E8.92707
G1 X62.142 Y58.674 E8.9823
G1 X72.517 Y58.674 E9.17746
G1 X72.485 Y58.958 E9.18284
G1 X72.009 Y59.178 E9.1927
G1 X72.009 Y55.375 E9.26424
G1 X72.403 Y55.625 E9.27302
G1 X72.644 Y56.007 E9.28151
G1 X66.671 Y56.007 E9.39387
G1 X64.008 Y57.234 E9.44902
G1 X64.008 Y62.721 E9.55224
G1 X64.064 Y62.843 E9.55476
G1 X66.675 Y61.639 E9.60885
G1 X66.675 Y56.005 E9.71482
G1 X70.344 Y54.315 E9.79081
G1 F1500 E3.29081
G0 F3600 X82.063 Y56.007
G1 F1500 E9.79081
G1 F1800 X87.691 Y56.007 E9.89668
G1 X88.011 Y56.704 E9.9111
G1 X88.011 Y58.775 E9.95006
G1 X88.226 Y58.674 E9.95453
G1 X78.344 Y58.674 E10.14041
G1 X78.239 Y60.521 E10.17521
G1 X79.305 Y61.341 E10.20051
G1 X82.447 Y61.341 E10.25961
G1 X80.372 Y62.3 E10.30261
G1 X80.127 Y62.125 E10.30828
G1 X80.01 Y61.956 E10.31214
G1 X80.01 Y56.955 E10.40621
G1 X82.677 Y55.724 E10.46147
G1 X82.677 Y61.237 E10.56517
G1 X85.344 Y60.006 E10.62042
G1 X85.344 Y54.494 E10.72411
G1 X86.704 Y53.867 E10.75228
G1 F1500 E4.25228
G0 F3600 X123.529 Y169.641
G1 F1500 E10.75228
G1 F1800 X122.682 Y170.032 E10.76983
G1 X122.682 Y175.668 E10.87584
G1 X121.911 Y176.022 E10.8918
G1 X116.26 Y176.022 E10.9981
G1 X115.111 Y173.527 E11.04977
G1 X115.483 Y173.355 E11.05748
G1 X125.439 Y173.355 E11.24476
G1 X125.71 Y173.988 E11.25771
G1 X125.672 Y174.288 E11.2634
G1 X125.349 Y174.437 E11.27009
G1 X125.349 Y171.471 E11.32588
G1 X124.416 Y170.688 E11.34879
G1 X121.26 Y170.688 E11.40816
G1 X117.348 Y172.494 E11.48921
G1 X117.348 Y178.128 E11.59519
G1 X120.015 Y176.898 E11.65043
G1 X120.015 Y171.263 E11.75643
G1 F1500 E5.25643
G0 F3600 X136.017 Y170.981
G1 F1500 E11.75643
G1 F1800 X136.017 Y176.496 E11.86017
G1 X133.562 Y177.628 E11.91102
G1 X133.35 Y177.48 E11.91589
G1 X133.35 Y172.21 E12.01502
G1 X136.654 Y170.688 E12.08345
G1 X140.587 Y170.688 E12.15743
G1 X141.351 Y172.348 E12.1918
G1 X141.351 Y174.037 E12.22357
G1 X141.993 Y173.74 E12.23688
G1 X141.816 Y173.355 E12.24485
G1 X131.427 Y173.355 E12.44027
G1 X131.539 Y173.756 E12.4481
G1 X131.379 Y175.842 E12.48746
G1 X131.619 Y176.022 E12.4931
G1 X137.044 Y176.022 E12.59515
G1 X138.684 Y175.266 E12.62912
G1 X138.684 Y169.752 E12.73284
G1 X139.897 Y169.193 E12.75796
G1 F1500 E6.25796
;MESH:Makita_Right.stl
G0 F3600 X106.492 Y173.215
G0 X107.552 Y176.287
G1 F1500 E12.75796
G0 F3600 X106.78 Y176.379
;TYPE:WALL-OUTER
G1 F1800 X106.684 Y176.457 E12.76029
G1 X66.932 Y178.529 E13.50906
G1 X66.773 Y178.465 E13.51229
G1 X66.723 Y178.363 E13.51442
G1 X66.725 Y90.233 E15.1722
G1 X66.809 Y90.103 E15.17511
G1 X66.924 Y90.059 E15.17743
G1 X67.121 Y90.143 E15.18145
G1 X106.813 Y176.213 E16.96434
G1 X106.78 Y176.379 E16.96753
G0 F3600 X106.684 Y176.457
G0 X106.608 Y176.461
G1 F1500 E10.46753
G0 F3600 X106.644 Y177.16
G0 X66.984 Y179.508
G0 X63.293 Y185.856
G0 X58.749 Y186.283
G1 F1500 E16.96753
G0 F3600 X58.059 Y186.547
G1 F1800 X58.181 Y186.704 E16.97127
G1 X58.648 Y187.1 E16.98278
G1 X117.128 Y184.049 E18.08432
G1 X117.371 Y183.825 E18.09054
G1 X117.748 Y183.311 E18.10253
G1 X117.91 Y182.754 E18.11344
G1 X58.59 Y54.124 E20.77794
G1 X58.059 Y186.547 E23.26891
G0 F3600 X58.181 Y186.704
G0 X58.182 Y186.705
G0 X58.459 Y186.411
;TYPE:WALL-INNER
G1 F1800 X58.786 Y186.692 E23.27702
G1 X116.999 Y183.655 E24.37353
G1 X117.384 Y183.131 E24.38576
G1 X117.484 Y182.786 E24.39252
G1 X58.982 Y55.929 E27.02029
G1 X58.459 Y186.411 E29.47475
G1 F1500 E22.97475
G0 F3600 X58.749 Y186.283
G0 X59.088 Y179.195
G0 X65.74 Y178.329
G0 X66.085 Y89.996
G1 F1500 E29.47475
G0 F3600 X66.4 Y89.971
G1 F1800 X66.654 Y89.732 E29.48131
G1 X66.948 Y89.657 E29.48702
G1 X67.146 Y89.687 E29.49079
G1 X67.464 Y89.925 E29.49826
G1 X107.197 Y176.081 E31.28294
G1 X107.189 Y176.448 E31.28985
G1 X106.96 Y176.754 E31.29704
G1 X106.719 Y176.856 E31.30196
G1 X66.953 Y178.929 E32.05099
G1 X66.732 Y178.899 E32.05519
G1 X66.415 Y178.653 E32.06274
G1 X66.321 Y178.403 E32.06776
G1 X66.322 Y90.196 E33.72698
G1 X66.4 Y89.971 E33.73146
G0 F3600 X66.475 Y89.374
G1 F1800 X66.943 Y89.257 E33.74054
G1 X67.273 Y89.308 E33.74682
G1 X67.61 Y89.5 E33.75412
G1 X67.865 Y89.838 E33.76208
G1 X107.589 Y175.974 E35.54635
G1 X107.609 Y176.402 E35.55441
G1 X107.505 Y176.724 E35.56077
G1 X107.319 Y176.975 E35.56665
G1 X106.799 Y177.252 E35.57773
G1 X66.974 Y179.328 E36.32788
G1 X66.606 Y179.279 E36.33486
G1 X66.301 Y179.115 E36.34138
G1 X66.078 Y178.868 E36.34764
G1 X65.921 Y178.477 E36.35556
G1 X65.922 Y90.149 E38.01706
G1 X66.053 Y89.773 E38.02455
G1 X66.248 Y89.529 E38.03043
G1 X66.475 Y89.374 E38.0356
G1 F1500 E31.5356
G0 F3600 X66.47 Y89.369
G0 X65.74 Y178.329
G0 X59.078 Y181.837
G0 X58.86 Y186.231
G1 F1500 E38.0356
G1 F1800 X58.923 Y186.284 E38.03715
G1 X116.789 Y183.265 E39.12712
G1 X117.058 Y182.818 E39.13693
G1 X59.375 Y57.735 E41.72795
G1 X58.86 Y186.231 E44.14505
G0 F3600 X59.242 Y185.887
;TYPE:SKIN
G1 F1800 X116.582 Y182.893 E45.17111
G1 X116.636 Y182.814 E45.17282
G1 X59.748 Y59.448 E47.60048
G1 X59.242 Y185.887 E49.85997
G1 F1500 E43.35997
G0 F3600 X58.962 Y185.886
G0 X59.078 Y181.837
G0 X65.74 Y178.329
G0 X66.062 Y89.583
G1 F1500 E49.85997
G0 F3600 X65.83 Y89.422
G1 F1800 X66.156 Y89.118 E49.86793
G1 X66.733 Y88.892 E49.87901
G1 X67.164 Y88.891 E49.88671
G1 X67.668 Y89.076 E49.8963
G1 X68.106 Y89.461 E49.90672
G1 X107.961 Y175.875 E51.60727
G1 X107.989 Y176.461 E51.61775
G1 X107.825 Y176.928 E51.6266
G1 X107.583 Y177.25 E51.6338
G1 X107.218 Y177.501 E51.64171
G1 X106.875 Y177.626 E51.64824
G1 X66.841 Y179.716 E52.36462
G1 X66.454 Y179.627 E52.37172
G1 X66.065 Y179.414 E52.37964
G1 X65.756 Y179.07 E52.38791
G1 X65.554 Y178.56 E52.39771
G1 X65.543 Y178.521 E52.39843
G1 X65.546 Y90.086 E53.97877
G1 X65.83 Y89.422 E53.99167
G1 F1500 E47.49167
G0 F3600 X66.062 Y89.583
G0 X65.761 Y92.849
G0 X59.471 Y83.748
G0 X59.465 Y60.507
G1 F1500 E53.99167
G0 F3600 X59.944 Y60.509
G1 F1800 X60.082 Y60.647 E53.99516
G0 F3600 X59.941 Y61.072
G1 F1800 X60.565 Y61.697 E54.01094
G0 F3600 X59.939 Y61.636
G1 F1800 X61.05 Y62.747 E54.03902
G1 X61.12 Y62.817
G0 F3600 X61.523 Y62.632
G0 X59.564 Y58.6
G0 X59.456 Y62.761
G0 X59.935 Y62.763
G1 F1800 X62.018 Y64.846 E54.09166
G1 X62.088 Y64.916
G0 F3600 X62.491 Y64.731
G0 X61.968 Y63.598
G0 X61.534 Y63.797
G1 F1800 X59.937 Y62.199 E54.13203
G1 X59.867 Y62.129
G0 F3600 X59.458 Y62.127
G0 X59.454 Y63.325
G0 X59.932 Y63.327
G1 F1800 X62.502 Y65.896 E54.19697
G1 X62.572 Y65.966
G0 F3600 X62.975 Y65.781
G0 X63.42 Y66.747
G0 X62.986 Y66.946
G1 F1800 X59.93 Y63.889 E54.27421
G0 F3600 X59.928 Y64.453
G1 F1800 X63.47 Y67.996 E54.36374
G1 X63.54 Y68.066
G0 F3600 X63.943 Y67.881
G0 X64.389 Y68.847
G0 X63.954 Y69.046
G1 F1800 X59.925 Y65.017 E54.46556
G0 F3600 X59.923 Y65.58
G1 F1800 X64.438 Y70.095 E54.57967
G1 X64.508 Y70.165
G0 F3600 X64.911 Y69.98
G0 X65.357 Y70.946
G0 X64.923 Y71.145
G1 F1800 X59.921 Y66.144 E54.70606
G0 F3600 X59.918 Y66.707
G1 F1800 X65.406 Y72.194 E54.84474
G1 X65.476 Y72.264
G0 F3600 X65.879 Y72.079
G0 X66.325 Y73.045
G0 X65.891 Y73.244
G1 F1800 X59.916 Y67.27 E54.99573
G0 F3600 X59.914 Y67.834
G1 F1800 X66.374 Y74.294 E55.15899
G1 X66.444 Y74.364
G0 F3600 X66.848 Y74.179
G0 X67.293 Y75.145
G0 X66.859 Y75.344
G1 F1800 X59.912 Y68.397 E55.33455
G0 F3600 X59.91 Y68.961
G1 F1800 X67.343 Y76.394 E55.5224
G1 X67.413 Y76.464
G0 F3600 X67.816 Y76.279
G0 X68.261 Y77.244
G0 X67.827 Y77.443
G1 F1800 X59.908 Y69.524 E55.72253
G0 F3600 X59.905 Y70.087
G1 F1800 X68.311 Y78.493 E55.93497
G1 X68.381 Y78.563
G0 F3600 X68.784 Y78.378
G0 X69.23 Y79.344
G0 X68.795 Y79.543
G1 F1800 X59.903 Y70.651 E56.15969
G0 F3600 X59.901 Y71.214
G1 F1800 X69.279 Y80.593 E56.3967
G1 X69.349 Y80.663
G0 F3600 X69.753 Y80.478
G0 X70.198 Y81.444
G0 X69.763 Y81.643
G1 F1800 X59.899 Y71.778 E56.646
G0 F3600 X59.896 Y72.341
G1 F1800 X70.247 Y82.692 E56.90759
G1 X70.317 Y82.762
G0 F3600 X70.72 Y82.577
G0 X71.166 Y83.543
G0 X70.731 Y83.742
G1 F1800 X59.894 Y72.904 E57.18147
G0 F3600 X59.891 Y73.468
G1 F1800 X71.215 Y84.792 E57.46765
G1 X71.285 Y84.862
G0 F3600 X71.689 Y84.677
G0 X72.134 Y85.642
G0 X71.699 Y85.842
G1 F1800 X59.889 Y74.031 E57.76613
G0 F3600 X59.887 Y74.595
G1 F1800 X72.184 Y86.892 E58.0769
G1 X72.254 Y86.962
G0 F3600 X72.659 Y86.778
G0 X73.101 Y87.742
G0 X72.667 Y87.941
G1 F1800 X59.885 Y75.159 E58.39993
G0 F3600 X59.882 Y75.721
G1 F1800 X73.152 Y88.991 E58.73529
G1 X73.222 Y89.061
G0 F3600 X73.624 Y88.877
G0 X74.069 Y89.841
G0 X73.635 Y90.04
G1 F1800 X59.88 Y76.285 E59.0829
G0 F3600 X59.878 Y76.849
G1 F1800 X74.12 Y91.09 E59.44281
G1 X74.19 Y91.16
G0 F3600 X74.592 Y90.976
G0 X75.038 Y91.941
G0 X74.604 Y92.14
G1 F1800 X59.876 Y77.412 E59.81502
G0 F3600 X59.874 Y77.976
G1 F1800 X75.088 Y93.19 E60.19951
G1 X75.158 Y93.26
G0 F3600 X75.561 Y93.076
G0 X76.006 Y94.041
G0 X75.572 Y94.24
G1 F1800 X59.871 Y78.539 E60.59631
G0 F3600 X59.869 Y79.102
G1 F1800 X76.056 Y95.289 E61.00538
G1 X76.126 Y95.359
G0 F3600 X76.529 Y95.175
G0 X76.974 Y96.14
G0 X76.54 Y96.339
G1 F1800 X59.867 Y79.666 E61.42674
G0 F3600 X59.865 Y80.229
G1 F1800 X77.024 Y97.389 E61.8604
G1 X77.094 Y97.459
G0 F3600 X77.497 Y97.274
G0 X77.942 Y98.24
G0 X77.508 Y98.439
G1 F1800 X59.862 Y80.793 E62.30635
G0 F3600 X59.86 Y81.356
G1 F1800 X67.197 Y88.693 E62.49177
G0 F3600 X66.645 Y88.707
G1 F1800 X59.858 Y81.919 E62.66331
G0 F3600 X59.855 Y82.483
G1 F1800 X66.238 Y88.866 E62.82462
G0 F3600 X65.898 Y89.091
G1 F1800 X59.853 Y83.046 E62.97739
G0 F3600 X59.851 Y83.61
G1 F1800 X65.625 Y89.383 E63.12329
G0 F3600 X65.455 Y89.779
G1 F1800 X59.849 Y84.173 E63.26497
G0 F3600 X59.846 Y84.736
G1 F1800 X65.343 Y90.233 E63.40389
G0 F3600 X65.343 Y90.798
G1 F1800 X59.844 Y85.3 E63.54285
G0 F3600 X59.842 Y85.863
G1 F1800 X65.343 Y91.364 E63.68187
G0 F3600 X65.343 Y91.93
G1 F1800 X59.84 Y86.427 E63.82094
G0 F3600 X59.838 Y86.991
G1 F1800 X65.343 Y92.495 E63.96005
G0 F3600 X65.343 Y93.061
G1 F1800 X59.835 Y87.553 E64.09925
G0 F3600 X59.833 Y88.117
G1 F1800 X65.343 Y93.627 E64.2385
G0 F3600 X65.343 Y94.192
G1 F1800 X59.831 Y88.681 E64.37779
G0 F3600 X59.829 Y89.244
G1 F1800 X65.343 Y94.758 E64.51714
G0 F3600 X65.343 Y95.324
G1 F1800 X59.826 Y89.808 E64.65655
G0 F3600 X59.824 Y90.371
G1 F1800 X65.343 Y95.89 E64.79603
G0 F3600 X65.343 Y96.455
G1 F1800 X59.821 Y90.934 E64.93556
G0 F3600 X59.819 Y91.498
G1 F1800 X65.343 Y97.021 E65.07515
G0 F3600 X65.343 Y97.587
G1 F1800 X59.817 Y92.061 E65.21481
G0 F3600 X59.815 Y92.625
G1 F1800 X65.343 Y98.152 E65.3545
G0 F3600 X65.343 Y98.718
G1 F1800 X59.812 Y93.188 E65.49427
G0 F3600 X59.81 Y93.751
G1 F1800 X65.343 Y99.284 E65.6341
G0 F3600 X65.343 Y99.849
G1 F1800 X59.808 Y94.315 E65.77396
G0 F3600 X59.806 Y94.878
G1 F1800 X65.343 Y100.415 E65.9139
G0 F3600 X65.343 Y100.981
G1 F1800 X59.804 Y95.442 E66.05388
G0 F3600 X59.802 Y96.006
G1 F1800 X65.343 Y101.546 E66.1939
G0 F3600 X65.343 Y102.112
G1 F1800 X59.799 Y96.568 E66.33401
G0 F3600 X59.797 Y97.132
G1 F1800 X65.343 Y102.678 E66.47416
G0 F3600 X65.343 Y103.244
G1 F1800 X59.795 Y97.695 E66.61439
G0 F3600 X59.792 Y98.259
G1 F1800 X65.343 Y103.81 E66.75467
G0 F3600 X65.343 Y104.376
G1 F1800 X59.79 Y98.823 E66.89501
G0 F3600 X59.787 Y99.385
G1 F1800 X65.343 Y104.941 E67.03542
G0 F3600 X65.343 Y105.507
G1 F1800 X59.785 Y99.949 E67.17588
G0 F3600 X59.783 Y100.513
G1 F1800 X65.343 Y106.073 E67.31639
G0 F3600 X65.343 Y106.638
G1 F1800 X59.781 Y101.076 E67.45696
G0 F3600 X59.779 Y101.64
G1 F1800 X65.343 Y107.204 E67.59757
G0 F3600 X65.343 Y107.77
G1 F1800 X59.776 Y102.203 E67.73826
G0 F3600 X59.774 Y102.766
G1 F1800 X65.343 Y108.335 E67.879
G0 F3600 X65.343 Y108.901
G1 F1800 X59.772 Y103.33 E68.01979
G0 F3600 X59.77 Y103.893
G1 F1800 X65.343 Y109.467 E68.16064
G0 F3600 X65.343 Y110.032
G1 F1800 X59.768 Y104.457 E68.30153
G0 F3600 X59.765 Y105.02
G1 F1800 X65.343 Y110.598 E68.4425
G0 F3600 X65.343 Y111.164
G1 F1800 X59.763 Y105.583 E68.58353
G0 F3600 X59.761 Y106.147
G1 F1800 X65.343 Y111.729 E68.7246
G0 F3600 X65.343 Y112.295
G1 F1800 X59.759 Y106.71 E68.86573
G0 F3600 X59.756 Y107.274
G1 F1800 X65.343 Y112.861 E69.00693
G0 F3600 X65.343 Y113.426
G1 F1800 X59.754 Y107.837 E69.14817
G0 F3600 X59.751 Y108.4
G1 F1800 X65.343 Y113.992 E69.28949
G0 F3600 X65.343 Y114.558
G1 F1800 X59.749 Y108.964 E69.43087
G0 F3600 X59.747 Y109.528
G1 F1800 X65.343 Y115.124 E69.57229
G0 F3600 X65.344 Y115.69
G1 F1800 X59.745 Y110.091 E69.71379
G0 F3600 X59.743 Y110.655
G1 F1800 X65.344 Y116.256 E69.85534
G0 F3600 X65.344 Y116.821
G1 F1800 X59.74 Y111.217 E69.99696
G0 F3600 X59.738 Y111.781
G1 F1800 X65.344 Y117.387 E70.13863
G0 F3600 X65.344 Y117.953
G1 F1800 X59.736 Y112.345 E70.28036
G0 F3600 X59.734 Y112.908
G1 F1800 X65.344 Y118.518 E70.42214
G0 F3600 X65.344 Y119.084
G1 F1800 X59.732 Y113.472 E70.56396
G0 F3600 X59.729 Y114.035
G1 F1800 X65.344 Y119.65 E70.70587
G0 F3600 X65.344 Y120.215
G1 F1800 X59.727 Y114.598 E70.84782
G0 F3600 X59.725 Y115.162
G1 F1800 X65.344 Y120.781 E70.98982
G0 F3600 X65.344 Y121.347
G1 F1800 X59.722 Y115.725 E71.1319
G0 F3600 X59.72 Y116.289
G1 F1800 X65.344 Y121.912 E71.27402
G0 F3600 X65.344 Y122.478
G1 F1800 X59.717 Y116.852 E71.41621
G0 F3600 X59.715 Y117.415
