;FLAVOR:UltiGCode
;TIME:3426
;MATERIAL:7386
;MATERIAL2:0
;NOZZLE_DIAMETER:0.4
;MINX:86.353
;MINY:86.369
;MINZ:0.3
;MAXX:136.645
;MAXY:136.494
;MAXZ:20.55
;Generated with Cura_SteamEngine 5.2.1
M82 ;absolute extrusion mode
G0 F3000 Y50 ;avoid prime blob
G92 E0
G92 E0
G10
;LAYER_COUNT:136
;LAYER:0
M107
G0 F3600 X93.076 Y94.464 Z0.3
;TYPE:SKIRT
G11
G1 F1800 X93.691 Y93.97 E0.09466
G1 X94.354 Y93.54 E0.18949
G1 X95.066 Y93.179 E0.28528
G1 X95.604 Y92.394 E0.39948
G1 X96.114 Y91.79 E0.49434
G1 X96.682 Y91.242 E0.58906
G1 X97.398 Y90.677 E0.6985
G1 X98.621 Y89.919 E0.87117
G1 X99.479 Y89.428 E0.98979
G1 X100.402 Y88.969 E1.11349
G1 X101.624 Y88.385 E1.27602
G1 X102.353 Y88.081 E1.3708
G1 X103.108 Y87.853 E1.46544
G1 X103.883 Y87.701 E1.56021
G1 X104.67 Y87.629 E1.65505
G1 X105.464 Y87.641 E1.75034
G1 X106.312 Y87.192 E1.86548
G1 X107.043 Y86.895 E1.96017
G1 X107.801 Y86.674 E2.05491
G1 X108.683 Y86.511 E2.16255
G1 X109.968 Y86.41 E2.31722
G1 X111.13 Y86.369 E2.45675
G1 X112.141 Y86.392 E2.5781
G1 X113.493 Y86.442 E2.74045
G1 X114.28 Y86.511 E2.83525
G1 X115.056 Y86.66 E2.93007
G1 X115.812 Y86.886 E3.02476
G1 X116.542 Y87.187 E3.11952
G1 X117.244 Y87.568 E3.21536
G1 X118.193 Y87.563 E3.32924
G1 X118.979 Y87.639 E3.424
G1 X119.753 Y87.795 E3.51875
G1 X120.637 Y88.068 E3.62977
G1 X121.958 Y88.646 E3.8028
G1 X122.838 Y89.069 E3.91997
G1 X123.742 Y89.568 E4.04388
G1 X124.918 Y90.243 E4.20659
G1 X125.582 Y90.67 E4.30133
G1 X126.199 Y91.163 E4.3961
G1 X126.764 Y91.715 E4.49089
G1 X127.27 Y92.321 E4.58562
G1 X127.71 Y92.979 E4.68061
G1 X128.577 Y93.433 E4.79805
G1 X129.236 Y93.868 E4.89281
G1 X129.848 Y94.368 E4.98764
G1 X130.478 Y95 E5.09473
G1 X131.173 Y95.855 E5.22695
G1 X131.964 Y96.905 E5.3847
G1 X132.533 Y97.769 E5.50884
G1 X133.26 Y98.912 E5.6714
G1 X133.649 Y99.599 E5.76613
G1 X133.967 Y100.322 E5.86092
G1 X134.211 Y101.073 E5.95567
G1 X134.377 Y101.845 E6.05043
G1 X134.461 Y102.634 E6.14565
G1 X135.008 Y103.42 E6.26056
G1 X135.391 Y104.111 E6.35536
G1 X135.702 Y104.837 E6.45014
G1 X135.97 Y105.694 E6.55789
G1 X136.224 Y106.942 E6.71072
G1 X136.407 Y108.101 E6.85152
G1 X136.506 Y109.113 E6.97354
G1 X136.619 Y110.462 E7.13599
G1 X136.645 Y111.251 E7.23072
G1 X136.591 Y112.039 E7.3255
G1 X136.458 Y112.817 E7.42022
G1 X136.246 Y113.578 E7.51502
G1 X135.955 Y114.314 E7.60999
G1 X136.075 Y115.28 E7.7268
G1 X136.092 Y116.069 E7.8215
G1 X136.029 Y116.857 E7.91636
G1 X135.867 Y117.743 E8.02445
G1 X135.55 Y118.82 E8.15917
G1 X135.138 Y120.056 E8.31551
G1 X134.751 Y121.01 E8.43905
G1 X134.223 Y122.258 E8.60166
G1 X133.878 Y122.969 E8.6965
G1 X133.464 Y123.641 E8.79121
G1 X132.984 Y124.268 E8.88597
G1 X132.443 Y124.844 E8.9808
G1 X131.845 Y125.359 E9.0755
G1 X131.515 Y126.244 E9.18884
G1 X131.166 Y126.952 E9.28356
G1 X130.746 Y127.621 E9.37835
G1 X130.187 Y128.341 E9.48774
G1 X129.394 Y129.159 E9.62445
G1 X128.466 Y130.052 E9.779
G1 X127.674 Y130.722 E9.90348
G1 X126.628 Y131.582 E10.06598
G1 X125.993 Y132.052 E10.16078
G1 X125.314 Y132.455 E10.25553
G1 X124.598 Y132.788 E10.35029
G1 X123.852 Y133.047 E10.44505
G1 X123.074 Y133.227 E10.54088
G1 X122.356 Y133.866 E10.65622
G1 X121.716 Y134.329 E10.75101
G1 X121.033 Y134.726 E10.84581
G1 X120.194 Y135.103 E10.95619
G1 X118.825 Y135.546 E11.12885
G1 X117.882 Y135.813 E11.24646
G1 X116.888 Y136.036 E11.36871
G1 X115.561 Y136.311 E11.53133
G1 X114.78 Y136.432 E11.62617
G1 X113.992 Y136.473 E11.72086
G1 X113.203 Y136.434 E11.81565
G1 X112.422 Y136.316 E11.91044
G1 X111.652 Y136.115 E12.00593
G1 X110.725 Y136.347 E12.1206
G1 X109.944 Y136.46 E12.2153
G1 X109.155 Y136.494 E12.31007
G1 X108.253 Y136.44 E12.4185
G1 X107.005 Y136.237 E12.57023
G1 X105.855 Y135.995 E12.71125
G1 X104.868 Y135.73 E12.83389
G1 X103.566 Y135.357 E12.99641
G1 X102.819 Y135.102 E13.09113
G1 X102.101 Y134.772 E13.18595
G1 X101.421 Y134.371 E13.28069
G1 X100.784 Y133.904 E13.37547
G1 X100.194 Y133.366 E13.47128
G1 X99.278 Y133.145 E13.58436
G1 X98.533 Y132.883 E13.67912
G1 X97.818 Y132.548 E13.77387
G1 X97.04 Y132.08 E13.88282
G1 X96 Y131.294 E14.03926
G1 X95.118 Y130.564 E14.17665
G1 X94.47 Y129.967 E14.28238
G1 X93.386 Y128.932 E14.46223
G1 X92.843 Y128.358 E14.55705
G1 X92.362 Y127.732 E14.65178
G1 X91.946 Y127.061 E14.74652
G1 X91.6 Y126.351 E14.8413
G1 X91.332 Y125.61 E14.93585
G1 X90.61 Y124.975 E15.05124
G1 X90.073 Y124.396 E15.146
G1 X89.597 Y123.766 E15.24075
G1 X89.119 Y122.977 E15.35145
G1 X88.522 Y121.688 E15.52192
G1 X88.138 Y120.777 E15.64055
G1 X87.794 Y119.803 E15.76451
G1 X87.362 Y118.52 E15.92696
G1 X87.148 Y117.76 E16.02171
G1 X87.012 Y116.982 E16.11648
G1 X86.956 Y116.194 E16.21128
G1 X86.979 Y115.405 E16.306
G1 X87.086 Y114.619 E16.40119
G1 X86.744 Y113.727 E16.51583
G1 X86.538 Y112.965 E16.61055
G1 X86.409 Y112.186 E16.7053
G1 X86.353 Y111.293 E16.81267
G1 X86.407 Y109.989 E16.96929
G1 X86.508 Y108.837 E17.10806
G1 X86.633 Y107.963 E17.21401
G1 X86.865 Y106.502 E17.39152
G1 X87.029 Y105.729 E17.48635
G1 X87.27 Y104.977 E17.58111
G1 X87.585 Y104.253 E17.67586
G1 X87.972 Y103.565 E17.77058
G1 X88.433 Y102.919 E17.86581
G1 X88.545 Y101.961 E17.98156
G1 X88.717 Y101.19 E18.07635
G1 X88.966 Y100.441 E18.17107
G1 X89.341 Y99.605 E18.28102
G1 X90.07 Y98.37 E18.45311
G1 X90.603 Y97.536 E18.57188
G1 X91.125 Y96.813 E18.67889
G1 X92.009 Y95.627 E18.8564
G1 X92.513 Y95.018 E18.95126
G1 X93.076 Y94.464 E19.04604
G0 F3600 X93.371 Y94.737
G1 F1800 X93.974 Y94.259 E19.13838
G1 X94.624 Y93.847 E19.23073
G1 X95.384 Y93.468 E19.33264
G1 X95.595 Y93.102 E19.38334
G1 X96.046 Y92.479 E19.47563
G1 X96.559 Y91.905 E19.56801
G1 X97.128 Y91.388 E19.66027
G1 X97.876 Y90.852 E19.77069
G1 X98.819 Y90.266 E19.90392
G1 X99.663 Y89.783 E20.02061
G1 X100.574 Y89.33 E20.1427
G1 X101.796 Y88.746 E20.30523
G1 X102.506 Y88.451 E20.39749
G1 X103.244 Y88.231 E20.4899
G1 X103.999 Y88.089 E20.58209
G1 X104.766 Y88.026 E20.67444
G1 X105.611 Y88.045 E20.77586
G1 X105.974 Y87.815 E20.82743
G1 X106.663 Y87.472 E20.91979
G1 X107.384 Y87.204 E21.01209
G1 X108.128 Y87.011 E21.10433
G1 X109.028 Y86.885 E21.21338
G1 X109.832 Y86.822 E21.31016
G1 X111.115 Y86.769 E21.46425
G1 X112.126 Y86.792 E21.5856
G1 X113.478 Y86.842 E21.74795
G1 X114.245 Y86.91 E21.84035
G1 X114.999 Y87.058 E21.93256
G1 X115.735 Y87.283 E22.02491
G1 X116.443 Y87.583 E22.11719
G1 X117.186 Y87.994 E22.21908
G1 X117.605 Y87.959 E22.26953
G1 X118.374 Y87.975 E22.36183
G1 X119.137 Y88.071 E22.45412
G1 X119.886 Y88.245 E22.54639
G1 X120.764 Y88.56 E22.65832
G1 X121.506 Y88.88 E22.75529
G1 X122.655 Y89.425 E22.9079
G1 X123.543 Y89.915 E23.0296
G1 X124.719 Y90.59 E23.19232
G1 X125.365 Y91.007 E23.28459
G1 X125.965 Y91.489 E23.37694
G1 X126.511 Y92.03 E23.46918
G1 X126.998 Y92.626 E23.56154
G1 X127.463 Y93.332 E23.66298
G1 X127.873 Y93.507 E23.71648
G1 X128.545 Y93.882 E23.80882
G1 X129.174 Y94.324 E23.90107
G1 X129.754 Y94.829 E23.99336
G1 X130.354 Y95.482 E24.09977
G1 X130.863 Y96.108 E24.19659
G1 X131.63 Y97.126 E24.34955
G1 X132.125 Y97.875 E24.45728
G1 X132.922 Y99.127 E24.63538
G1 X133.301 Y99.796 E24.72765
G1 X133.607 Y100.501 E24.81987
G1 X133.84 Y101.235 E24.91228
G1 X133.994 Y101.988 E25.00451
G1 X134.077 Y102.828 E25.1058
G1 X134.349 Y103.16 E25.15731
G1 X134.772 Y103.803 E25.24967
G1 X135.126 Y104.486 E25.34198
G1 X135.406 Y105.202 E25.43424
G1 X135.638 Y106.068 E25.54182
G1 X135.831 Y107.019 E25.65827
G1 X136.009 Y108.145 E25.79507
G1 X136.097 Y109.033 E25.90215
G1 X136.22 Y110.495 E26.07821
G1 X136.244 Y111.264 E26.17053
G1 X136.189 Y112.031 E26.26281
G1 X136.054 Y112.788 E26.35508
G1 X135.841 Y113.528 E26.44749
G1 X135.525 Y114.311 E26.54881
G1 X135.613 Y114.743 E26.60172
G1 X135.687 Y115.508 E26.69394
G1 X135.682 Y116.278 E26.78635
G1 X135.597 Y117.042 E26.87859
G1 X135.394 Y117.933 E26.98825
G1 X135.074 Y119 E27.12193
G1 X134.763 Y119.915 E27.23789
G1 X134.427 Y120.746 E27.34546
G1 X133.854 Y122.102 E27.52211
G1 X133.518 Y122.794 E27.61442
G1 X133.112 Y123.447 E27.70669
G1 X132.64 Y124.055 E27.79906
G1 X132.108 Y124.61 E27.89131
G1 X131.469 Y125.151 E27.99178
G1 X131.354 Y125.554 E28.04207
G1 X131.066 Y126.268 E28.13446
G1 X130.706 Y126.947 E28.22668
G1 X130.278 Y127.586 E28.31898
G1 X129.669 Y128.3 E28.43159
G1 X129.106 Y128.881 E28.52867
G1 X128.205 Y129.748 E28.67872
G1 X127.42 Y130.413 E28.80218
G1 X126.374 Y131.273 E28.96468
G1 X125.755 Y131.73 E29.05701
G1 X125.092 Y132.12 E29.14931
G1 X124.392 Y132.44 E29.24167
G1 X123.663 Y132.685 E29.33396
G1 X122.831 Y132.871 E29.43626
G1 X122.535 Y133.181 E29.4877
G1 X121.948 Y133.678 E29.58
G1 X121.312 Y134.111 E29.67232
G1 X120.635 Y134.476 E29.76462
G1 X119.786 Y134.816 E29.87436
G1 X119.019 Y135.069 E29.97128
G1 X117.795 Y135.423 E30.12418
G1 X116.807 Y135.644 E30.24567
G1 X115.48 Y135.919 E30.4083
G1 X114.719 Y136.036 E30.50069
G1 X113.951 Y136.073 E30.59296
G1 X113.183 Y136.03 E30.68526
G1 X112.424 Y135.908 E30.77751
G1 X111.604 Y135.687 E30.87942
G1 X111.202 Y135.823 E30.93035
G1 X110.451 Y135.99 E31.02267
G1 X109.687 Y136.079 E31.11497
G1 X108.918 Y136.088 E31.20725
G1 X108.027 Y135.998 E31.31472
G1 X107.065 Y135.841 E31.43168
G1 X105.95 Y135.607 E31.5684
G1 X104.978 Y135.346 E31.68917
G1 X103.676 Y134.973 E31.8517
G1 X102.949 Y134.723 E31.94395
G1 X102.251 Y134.399 E32.03629
G1 X101.591 Y134.004 E32.12859
G1 X100.975 Y133.543 E32.22092
G1 X100.355 Y132.968 E32.32239
G1 X99.943 Y132.902 E32.37246
G1 X99.2 Y132.702 E32.4648
G1 X98.482 Y132.427 E32.55706
G1 X97.796 Y132.078 E32.64942
G1 X97.025 Y131.567 E32.76042
G1 X96.381 Y131.08 E32.85731
G1 X95.383 Y130.265 E33.01193
G1 X94.642 Y129.58 E33.13302
G1 X93.662 Y128.643 E33.29572
G1 X93.135 Y128.083 E33.388
G1 X92.668 Y127.471 E33.48038
G1 X92.267 Y126.815 E33.57264
G1 X91.937 Y126.12 E33.66497
G1 X91.658 Y125.329 E33.76562
G1 X91.312 Y125.07 E33.81748
G1 X90.748 Y124.547 E33.90978
G1 X90.241 Y123.969 E34.00205
G1 X89.797 Y123.34 E34.09444
G1 X89.355 Y122.535 E34.20464
G1 X89.012 Y121.805 E34.30143
G1 X88.514 Y120.641 E34.45335
G1 X88.173 Y119.675 E34.57628
G1 X87.741 Y118.392 E34.73874
G1 X87.534 Y117.652 E34.83095
G1 X87.404 Y116.893 E34.92335
G1 X87.355 Y116.126 E35.01558
G1 X87.385 Y115.357 E35.10793
G1 X87.505 Y114.521 E35.20928
G1 X87.322 Y114.137 E35.26032
G1 X87.065 Y113.412 E35.35263
G1 X86.885 Y112.665 E35.44483
G1 X86.783 Y111.902 E35.53721
G1 X86.765 Y111.003 E35.64511
G1 X86.805 Y110.02 E35.76317
G1 X86.905 Y108.889 E35.89942
G1 X87.029 Y108.019 E36.00487
G1 X87.26 Y106.565 E36.18154
G1 X87.42 Y105.813 E36.2738
G1 X87.658 Y105.081 E36.36617
G1 X87.97 Y104.378 E36.45846
G1 X88.354 Y103.711 E36.55082
G1 X88.849 Y103.025 E36.65233
G1 X88.866 Y102.593 E36.70421
G1 X88.976 Y101.831 E36.7966
G1 X89.164 Y101.086 E36.8888
G1 X89.429 Y100.364 E36.98109
G1 X89.842 Y99.541 E37.09159
G1 X90.249 Y98.843 E37.18855
G1 X90.924 Y97.775 E37.34016
G1 X91.519 Y96.953 E37.46193
G1 X92.33 Y95.866 E37.62468
G1 X92.821 Y95.274 E37.71697
G1 X93.371 Y94.737 E37.80921
G0 F3600 X93.667 Y95.01
G1 F1800 X94.256 Y94.55 E37.89889
G1 X94.892 Y94.155 E37.98873
G1 X95.654 Y93.789 E38.09018
G1 X96.033 Y93.165 E38.17779
G1 X96.488 Y92.572 E38.26748
G1 X97.004 Y92.03 E38.35728
G1 X97.574 Y91.546 E38.44701
G1 X98.088 Y91.19 E38.52204
G1 X98.773 Y90.76 E38.6191
G1 X99.848 Y90.138 E38.76813
G1 X100.747 Y89.691 E38.88861
G1 X101.969 Y89.107 E39.05114
G1 X102.66 Y88.821 E39.14088
G1 X103.378 Y88.611 E39.23065
G1 X104.114 Y88.478 E39.3204
G1 X104.86 Y88.424 E39.41015
G1 X105.7 Y88.454 E39.51102
G1 X106.332 Y88.075 E39.59945
G1 X107.011 Y87.761 E39.68922
G1 X107.72 Y87.521 E39.77904
G1 X108.45 Y87.358 E39.8688
G1 X109.059 Y87.283 E39.94243
G1 X109.863 Y87.22 E40.03921
G1 X111.106 Y87.169 E40.18849
G1 X112.112 Y87.192 E40.30924
G1 X113.464 Y87.242 E40.4716
G1 X114.209 Y87.309 E40.56136
G1 X114.942 Y87.456 E40.65107
G1 X115.656 Y87.68 E40.74087
G1 X116.342 Y87.979 E40.83066
G1 X117.074 Y88.397 E40.93182
G1 X117.802 Y88.355 E41.01932
G1 X118.549 Y88.392 E41.10907
G1 X119.288 Y88.508 E41.19884
G1 X120.011 Y88.702 E41.28867
G1 X120.606 Y88.927 E41.365
G1 X121.348 Y89.247 E41.46197
G1 X122.453 Y89.771 E41.60872
G1 X123.344 Y90.262 E41.7308
G1 X124.52 Y90.937 E41.89352
G1 X125.148 Y91.344 E41.98332
G1 X125.729 Y91.815 E42.07307
G1 X126.256 Y92.345 E42.16276
G1 X126.724 Y92.929 E42.25257
G1 X127.178 Y93.639 E42.3537
G1 X127.861 Y93.95 E42.44375
G1 X128.504 Y94.332 E42.5335
G1 X129.103 Y94.78 E42.62326
G1 X129.65 Y95.29 E42.71301
G1 X130.043 Y95.734 E42.78416
G1 X130.552 Y96.36 E42.88098
G1 X131.304 Y97.358 E43.03093
G1 X131.857 Y98.198 E43.15161
G1 X132.584 Y99.341 E43.31417
G1 X132.952 Y99.993 E43.40401
G1 X133.247 Y100.68 E43.49373
G1 X133.468 Y101.395 E43.58353
G1 X133.611 Y102.129 E43.67327
G1 X133.682 Y102.966 E43.77407
G1 X134.134 Y103.547 E43.8624
G1 X134.528 Y104.184 E43.95228
G1 X134.851 Y104.858 E44.04197
G1 X135.101 Y105.563 E44.13173
G1 X135.246 Y106.148 E44.20406
G1 X135.462 Y107.244 E44.33811
G1 X135.612 Y108.197 E44.45388
G1 X135.709 Y109.18 E44.57241
G1 X135.822 Y110.529 E44.73486
G1 X135.844 Y111.276 E44.82453
G1 X135.787 Y112.022 E44.91432
G1 X135.65 Y112.758 E45.00415
G1 X135.436 Y113.474 E45.09383
G1 X135.11 Y114.25 E45.19483
G1 X135.242 Y114.985 E45.28444
G1 X135.294 Y115.732 E45.3743
G1 X135.266 Y116.479 E45.464
G1 X135.159 Y117.219 E45.55373
G1 X135.01 Y117.82 E45.62803
G1 X134.695 Y118.871 E45.75969
G1 X134.386 Y119.781 E45.87502
G1 X134.014 Y120.698 E45.99377
G1 X133.486 Y121.946 E46.15638
G1 X133.158 Y122.619 E46.24622
G1 X132.76 Y123.252 E46.33595
G1 X132.297 Y123.84 E46.42575
G1 X131.774 Y124.375 E46.51553
G1 X131.131 Y124.905 E46.61553
G1 X130.913 Y125.598 E46.70271
G1 X130.614 Y126.284 E46.7925
G1 X130.244 Y126.934 E46.88226
G1 X129.807 Y127.541 E46.97201
G1 X129.382 Y128.021 E47.04894
G1 X128.617 Y128.803 E47.18022
G1 X127.92 Y129.466 E47.29565
G1 X127.166 Y130.104 E47.41418
G1 X126.12 Y130.964 E47.57668
G1 X125.517 Y131.408 E47.66654
G1 X124.871 Y131.784 E47.75623
G1 X124.188 Y132.09 E47.84604
G1 X123.477 Y132.321 E47.93575
G1 X122.647 Y132.496 E48.03754
G1 X122.125 Y133.014 E48.12579
G1 X121.541 Y133.481 E48.21552
G1 X120.91 Y133.883 E48.3053
G1 X120.24 Y134.216 E48.39508
G1 X119.661 Y134.436 E48.46941
G1 X118.894 Y134.689 E48.56633
G1 X117.694 Y135.035 E48.71619
G1 X116.844 Y135.227 E48.82076
G1 X115.398 Y135.527 E48.99798
G1 X114.659 Y135.64 E49.08769
G1 X113.912 Y135.673 E49.17742
G1 X113.165 Y135.626 E49.26723
G1 X112.428 Y135.499 E49.35698
G1 X111.616 Y135.269 E49.45825
G1 X110.916 Y135.485 E49.54616
G1 X110.182 Y135.627 E49.63587
G1 X109.436 Y135.691 E49.72572
G1 X108.688 Y135.674 E49.8155
G1 X108.091 Y135.603 E49.88765
G1 X107.293 Y135.473 E49.98467
G1 X106.045 Y135.219 E50.1375
G1 X105.208 Y134.995 E50.24148
G1 X103.786 Y134.588 E50.41897
G1 X103.079 Y134.344 E50.50872
G1 X102.402 Y134.026 E50.59847
G1 X101.763 Y133.637 E50.68825
G1 X101.169 Y133.183 E50.77796
G1 X100.559 Y132.602 E50.87905
G1 X99.846 Y132.47 E50.96606
G1 X99.13 Y132.256 E51.05574
G1 X98.44 Y131.966 E51.14556
G1 X97.785 Y131.605 E51.2353
G1 X97.266 Y131.248 E51.3109
G1 X96.622 Y130.761 E51.40778
G1 X95.646 Y129.963 E51.55907
G1 X94.918 Y129.291 E51.67796
G1 X93.938 Y128.354 E51.84066
G1 X93.426 Y127.808 E51.93048
G1 X92.975 Y127.212 E52.02017
G1 X92.59 Y126.57 E52.11
G1 X92.276 Y125.891 E52.19977
G1 X92.008 Y125.1 E52.29999
G1 X91.428 Y124.643 E52.3886
G1 X90.894 Y124.119 E52.47838
G1 X90.418 Y123.541 E52.56823
G1 X90.007 Y122.916 E52.658
G1 X89.718 Y122.365 E52.73266
G1 X89.26 Y121.377 E52.86334
G1 X88.879 Y120.473 E52.98106
G1 X88.552 Y119.548 E53.09879
G1 X88.12 Y118.265 E53.26124
G1 X87.919 Y117.544 E53.35106
G1 X87.797 Y116.806 E53.44083
G1 X87.754 Y116.059 E53.53061
G1 X87.791 Y115.312 E53.62036
G1 X87.921 Y114.481 E53.7213
G1 X87.623 Y113.813 E53.80907
G1 X87.393 Y113.101 E53.89886
G1 X87.24 Y112.369 E53.9886
G1 X87.166 Y111.624 E54.07844
G1 X87.165 Y111.02 E54.15092
G1 X87.205 Y110.049 E54.26754
G1 X87.304 Y108.924 E54.40306
G1 X87.442 Y107.965 E54.51932
G1 X87.655 Y106.628 E54.68179
G1 X87.812 Y105.896 E54.77162
G1 X88.046 Y105.186 E54.86133
G1 X88.355 Y104.504 E54.95118
G1 X88.735 Y103.86 E55.04091
G1 X89.236 Y103.185 E55.14178
G1 X89.284 Y102.446 E55.23065
