;FLAVOR:Marlin
;TIME:2311
;Filament used: 1.13242m
;Layer height: 0.2
;MINX:89.404
;MINY:89.545
;MINZ:0.3
;MAXX:133.612
;MAXY:133.61
;MAXZ:20.5
;Generated with Cura_SteamEngine 5.2.1
M140 S60
M105
M190 S60
M104 S225
M105
M109 S225
M82 ;absolute extrusion mode
G21 ;metric values
G90 ;absolute positioning
M82 ;set extruder to absolute mode
M107 ;start with the fan off
G28 Z0 ;move Z to bottom endstops
G28 X0 Y0 ;move X/Y to endstops
G1 X15 Y0 F4000 ;move X/Y to front of printer
G1 Z15.0 F9000 ;move the platform to 15mm
G92 E0 ;zero the extruded length
G1 F200 E10 ;extrude 10 mm of feed stock
G92 E0 ;zero the extruded length again
G1 Y50 F9000
;Put printing message on LCD screen
M117 Printing...
G92 E0
G92 E0
G1 F1500 E-6.5
;LAYER_COUNT:102
;LAYER:0
M107
G0 F3600 X95.735 Y95.981 Z0.3
;TYPE:SKIRT
G1 F1500 E0
G1 F1800 X96.584 Y95.175 E0.02202
G1 X97.175 Y94.655 E0.03683
G1 X98.03 Y93.978 E0.05734
G1 X98.698 Y93.486 E0.07295
G1 X99.372 Y93.074 E0.08781
G1 X99.891 Y92.813 E0.09874
G1 X103.433 Y90.939 E0.17411
G1 X104.258 Y90.597 E0.19091
G1 X105.262 Y90.286 E0.21068
G1 X106.463 Y89.961 E0.23409
G1 X107.685 Y89.73 E0.25748
G1 X108.523 Y89.601 E0.27343
G1 X109.319 Y89.548 E0.28844
G1 X109.913 Y89.558 E0.29961
G1 X113.902 Y89.545 E0.37465
G1 X114.788 Y89.625 E0.39138
G1 X116.203 Y89.887 E0.41845
G1 X117.137 Y90.112 E0.43652
G1 X118.363 Y90.489 E0.46065
G1 X119.008 Y90.71 E0.47347
G1 X119.749 Y91.036 E0.4887
G1 X120.394 Y91.387 E0.50252
G1 X123.883 Y93.202 E0.5765
G1 X124.603 Y93.663 E0.59258
G1 X125.02 Y93.988 E0.60252
G1 X125.888 Y94.705 E0.6237
G1 X126.396 Y95.146 E0.63635
G1 X127.347 Y96.092 E0.66159
G1 X127.804 Y96.573 E0.67407
G1 X128.321 Y97.221 E0.68966
G1 X128.75 Y97.865 E0.70422
G1 X130.936 Y101.01 E0.77626
G1 X131.375 Y101.786 E0.79303
G1 X131.81 Y102.756 E0.81303
G1 X132.273 Y103.898 E0.83621
G1 X132.65 Y105.082 E0.85958
G1 X132.874 Y105.868 E0.87496
G1 X133.028 Y106.667 E0.89026
G1 X133.112 Y107.468 E0.90541
G1 X133.584 Y111.23 E0.97673
G1 X133.612 Y112.118 E0.99345
G1 X133.538 Y113.299 E1.0157
G1 X133.444 Y114.319 E1.03497
G1 X133.177 Y115.803 E1.06334
G1 X133.043 Y116.437 E1.07552
G1 X132.806 Y117.222 E1.09095
G1 X132.568 Y117.818 E1.10302
G1 X131.173 Y121.536 E1.17772
G1 X130.783 Y122.338 E1.19449
G1 X130.167 Y123.347 E1.21673
G1 X129.549 Y124.284 E1.23785
G1 X128.67 Y125.411 E1.26473
G1 X128.264 Y125.898 E1.27666
G1 X127.699 Y126.47 E1.29178
G1 X127.292 Y126.818 E1.30185
G1 X124.211 Y129.567 E1.37953
G1 X123.517 Y130.082 E1.39578
G1 X123.085 Y130.343 E1.40528
G1 X122.038 Y130.938 E1.42793
G1 X121.386 Y131.275 E1.44173
G1 X120.228 Y131.801 E1.46566
G1 X119.655 Y132.039 E1.47733
G1 X118.891 Y132.284 E1.49242
G1 X118.255 Y132.43 E1.5047
G1 X114.415 Y133.389 E1.57915
G1 X113.543 Y133.523 E1.59574
G1 X112.368 Y133.592 E1.61788
G1 X111.709 Y133.61 E1.63028
G1 X111.056 Y133.605 E1.64257
G1 X110.017 Y133.548 E1.66214
G1 X109.179 Y133.476 E1.67796
G1 X108.372 Y133.334 E1.69338
G1 X107.75 Y133.169 E1.70548
G1 X103.907 Y132.235 E1.77987
G1 X103.066 Y131.946 E1.7966
G1 X102.127 Y131.522 E1.81598
G1 X101.407 Y131.172 E1.83104
G1 X100.848 Y130.872 E1.84298
G1 X99.92 Y130.319 E1.8633
G1 X99.231 Y129.878 E1.87868
G1 X98.595 Y129.389 E1.89377
G1 X98.128 Y128.962 E1.90568
G1 X95.1 Y126.298 E1.98154
G1 X94.503 Y125.668 E1.99787
G1 X94.179 Y125.254 E2.00776
G1 X93.517 Y124.361 E2.02867
G1 X93.134 Y123.818 E2.04117
G1 X92.497 Y122.777 E2.06412
G1 X92.101 Y122.086 E2.0791
G1 X91.755 Y121.336 E2.09464
G1 X91.508 Y120.649 E2.10837
G1 X90.103 Y116.987 E2.18215
G1 X89.871 Y116.171 E2.19811
G1 X89.774 Y115.65 E2.20808
G1 X89.573 Y114.346 E2.2329
G1 X89.499 Y113.691 E2.2453
G1 X89.433 Y112.678 E2.26439
G1 X89.404 Y111.847 E2.28004
G1 X89.446 Y111.032 E2.29539
G1 X89.54 Y110.352 E2.3083
G1 X89.999 Y106.459 E2.38204
G1 X90.185 Y105.587 E2.39881
G1 X90.488 Y104.619 E2.41789
G1 X90.918 Y103.395 E2.44229
G1 X91.42 Y102.27 E2.46546
G1 X91.774 Y101.534 E2.48083
G1 X92.189 Y100.834 E2.49613
G1 X92.579 Y100.288 E2.50876
G1 X94.827 Y97.005 E2.5836
G1 X95.374 Y96.343 E2.59975
G1 X95.735 Y95.981 E2.60937
G0 F3600 X95.718 Y96.551
G1 F1800 X96.955 Y95.377 E2.64145
G1 X97.424 Y94.968 E2.65316
G1 X98.414 Y94.188 E2.67686
G1 X98.934 Y93.808 E2.68898
G1 X99.552 Y93.431 E2.7026
G1 X100.119 Y93.146 E2.71453
G1 X103.621 Y91.293 E2.78906
G1 X104.376 Y90.979 E2.80444
G1 X105.546 Y90.62 E2.82746
G1 X106.555 Y90.351 E2.84711
G1 X107.759 Y90.123 E2.87016
G1 X108.583 Y89.996 E2.88584
G1 X109.312 Y89.948 E2.89958
G1 X109.908 Y89.958 E2.9108
G1 X113.904 Y89.945 E2.98596
G1 X114.716 Y90.018 E3.0013
G1 X115.886 Y90.235 E3.02368
G1 X116.474 Y90.362 E3.035
G1 X117.147 Y90.533 E3.04806
G1 X118.091 Y90.821 E3.06663
G1 X118.878 Y91.089 E3.08226
G1 X119.558 Y91.388 E3.09624
G1 X120.198 Y91.737 E3.10995
G1 X123.698 Y93.557 E3.18416
G1 X124.359 Y93.98 E3.19892
G1 X124.765 Y94.297 E3.20861
G1 X125.724 Y95.091 E3.23203
G1 X126.219 Y95.534 E3.24452
G1 X126.964 Y96.272 E3.26425
G1 X127.514 Y96.848 E3.27923
G1 X127.988 Y97.442 E3.29352
G1 X128.414 Y98.082 E3.30799
G1 X130.608 Y101.238 E3.38029
G1 X131.01 Y101.95 E3.39567
G1 X131.445 Y102.92 E3.41566
G1 X131.897 Y104.034 E3.43828
G1 X132.269 Y105.203 E3.46136
G1 X132.489 Y105.976 E3.47647
G1 X132.63 Y106.709 E3.49051
G1 X132.714 Y107.51 E3.50566
G1 X133.187 Y111.28 E3.57714
G1 X133.213 Y112.094 E3.59246
G1 X133.14 Y113.263 E3.61449
G1 X133.09 Y113.811 E3.62484
G1 X132.997 Y114.55 E3.63885
G1 X132.813 Y115.582 E3.65857
G1 X132.652 Y116.354 E3.6734
G1 X132.434 Y117.074 E3.68755
G1 X132.182 Y117.706 E3.70035
G1 X130.798 Y121.395 E3.77447
G1 X130.441 Y122.131 E3.78985
G1 X129.834 Y123.126 E3.81178
G1 X129.228 Y124.045 E3.83249
G1 X128.458 Y125.036 E3.85609
G1 X127.957 Y125.641 E3.87087
G1 X127.439 Y126.166 E3.88474
G1 X127.022 Y126.523 E3.89507
G1 X123.945 Y129.268 E3.97263
G1 X123.221 Y129.806 E3.9896
G1 X121.957 Y130.526 E4.01696
G1 X121.358 Y130.848 E4.02975
G1 X120.215 Y131.37 E4.05339
G1 X119.502 Y131.669 E4.06793
G1 X118.801 Y131.894 E4.08178
G1 X118.191 Y132.034 E4.09356
G1 X114.319 Y133.001 E4.16863
G1 X113.518 Y133.124 E4.18387
G1 X112.356 Y133.192 E4.20577
G1 X111.707 Y133.21 E4.21798
G1 X111.078 Y133.205 E4.22981
G1 X109.892 Y133.138 E4.25216
G1 X109.215 Y133.078 E4.26494
G1 X108.475 Y132.948 E4.27907
G1 X107.851 Y132.782 E4.29122
G1 X104.002 Y131.847 E4.36573
G1 X103.23 Y131.581 E4.38109
G1 X102.177 Y131.104 E4.40283
G1 X101.694 Y130.869 E4.41294
G1 X101.053 Y130.529 E4.42659
G1 X99.991 Y129.893 E4.44987
G1 X99.447 Y129.542 E4.46205
G1 X98.865 Y129.093 E4.47588
G1 X98.406 Y128.674 E4.48757
G1 X95.364 Y125.997 E4.56379
G1 X94.817 Y125.42 E4.57875
G1 X94.5 Y125.015 E4.58842
G1 X93.838 Y124.122 E4.60933
G1 X93.46 Y123.586 E4.62167
G1 X92.768 Y122.45 E4.64669
G1 X92.448 Y121.888 E4.65885
G1 X92.132 Y121.201 E4.67308
G1 X91.884 Y120.512 E4.68685
G1 X90.477 Y116.844 E4.76075
G1 X90.264 Y116.096 E4.77538
G1 X90.169 Y115.588 E4.7851
G1 X89.987 Y114.416 E4.80741
G1 X89.898 Y113.665 E4.82164
G1 X89.832 Y112.652 E4.84073
G1 X89.803 Y111.834 E4.85613
G1 X89.843 Y111.087 E4.8702
G1 X89.931 Y110.453 E4.88224
G1 X90.396 Y106.506 E4.957
G1 X90.567 Y105.707 E4.97237
G1 X90.87 Y104.739 E4.99145
G1 X91.292 Y103.539 E5.01538
G1 X91.785 Y102.433 E5.03816
G1 X92.134 Y101.709 E5.05328
G1 X92.515 Y101.067 E5.06732
G1 X92.886 Y100.548 E5.07932
G1 X95.157 Y97.231 E5.15494
G1 X95.718 Y96.551 E5.17152
G0 F3600 X96.013 Y96.82
G1 F1800 X97.135 Y95.755 E5.20062
G1 X97.672 Y95.282 E5.21408
G1 X98.65 Y94.511 E5.2375
G1 X99.17 Y94.131 E5.24962
G1 X99.732 Y93.788 E5.262
G1 X100.288 Y93.508 E5.27371
G1 X103.808 Y91.646 E5.34862
G1 X104.494 Y91.361 E5.36259
G1 X105.498 Y91.05 E5.38237
G1 X106.641 Y90.742 E5.40463
G1 X107.979 Y90.492 E5.43024
G1 X108.642 Y90.392 E5.44285
G1 X109.306 Y90.348 E5.45537
G1 X109.903 Y90.358 E5.4666
G1 X113.905 Y90.345 E5.54188
G1 X114.643 Y90.411 E5.55582
G1 X115.695 Y90.605 E5.57594
G1 X116.379 Y90.751 E5.58909
G1 X117.03 Y90.916 E5.60173
G1 X118.104 Y91.246 E5.62286
G1 X118.749 Y91.467 E5.63569
G1 X119.366 Y91.739 E5.64837
G1 X119.997 Y92.083 E5.66189
G1 X123.514 Y93.912 E5.73646
G1 X124.114 Y94.296 E5.74986
G1 X124.51 Y94.605 E5.75931
G1 X125.461 Y95.392 E5.78253
G1 X125.937 Y95.818 E5.79454
G1 X126.682 Y96.556 E5.81427
G1 X127.224 Y97.124 E5.82904
G1 X127.654 Y97.664 E5.84202
G1 X128.077 Y98.299 E5.85637
G1 X130.279 Y101.467 E5.92895
G1 X130.645 Y102.113 E5.94291
G1 X131.08 Y103.083 E5.96291
G1 X131.521 Y104.172 E5.98501
G1 X131.888 Y105.324 E6.00775
G1 X132.104 Y106.085 E6.02263
G1 X132.232 Y106.751 E6.03539
G1 X132.316 Y107.546 E6.05043
G1 X132.79 Y111.329 E6.12214
G1 X132.814 Y112.07 E6.13609
G1 X132.751 Y113.106 E6.15561
G1 X132.681 Y113.876 E6.17016
G1 X132.603 Y114.48 E6.18161
G1 X132.395 Y115.637 E6.20373
G1 X132.261 Y116.271 E6.21592
G1 X132.063 Y116.926 E6.22879
G1 X131.811 Y117.558 E6.24159
G1 X130.424 Y121.254 E6.31584
G1 X130.099 Y121.923 E6.32984
G1 X129.5 Y122.906 E6.35149
G1 X128.906 Y123.806 E6.37177
G1 X128.142 Y124.79 E6.39521
G1 X127.649 Y125.385 E6.40974
G1 X127.178 Y125.862 E6.42235
G1 X126.802 Y126.184 E6.43166
G1 X123.679 Y128.97 E6.51039
G1 X123.014 Y129.463 E6.52596
G1 X121.759 Y130.178 E6.55313
G1 X121.172 Y130.494 E6.56567
G1 X119.921 Y131.062 E6.59151
G1 X119.348 Y131.3 E6.60318
G1 X118.712 Y131.504 E6.61575
G1 X118.102 Y131.644 E6.62752
G1 X114.222 Y132.613 E6.70275
G1 X113.494 Y132.725 E6.7166
G1 X112.468 Y132.787 E6.73594
G1 X111.705 Y132.81 E6.7503
G1 X111.1 Y132.806 E6.76168
G1 X110.061 Y132.749 E6.78125
G1 X109.25 Y132.679 E6.79656
G1 X108.577 Y132.561 E6.80941
G1 X107.95 Y132.395 E6.82162
G1 X104.096 Y131.458 E6.89622
G1 X103.395 Y131.217 E6.91017
G1 X102.456 Y130.793 E6.92955
G1 X101.869 Y130.509 E6.94181
G1 X101.257 Y130.185 E6.95484
G1 X100.208 Y129.557 E6.97784
G1 X99.664 Y129.206 E6.99002
G1 X99.135 Y128.798 E7.00258
G1 X98.659 Y128.363 E7.01471
G1 X95.629 Y125.697 E7.09063
G1 X95.066 Y125.103 E7.10602
G1 X94.1 Y123.801 E7.13652
G1 X93.731 Y123.262 E7.14881
G1 X93.179 Y122.359 E7.16872
G1 X92.796 Y121.69 E7.18322
G1 X92.508 Y121.065 E7.19616
G1 X92.265 Y120.389 E7.20967
G1 X90.85 Y116.701 E7.28398
G1 X90.656 Y116.021 E7.29728
G1 X90.564 Y115.527 E7.30673
G1 X90.382 Y114.355 E7.32904
G1 X90.297 Y113.639 E7.3426
G1 X90.231 Y112.626 E7.3617
G1 X90.203 Y111.821 E7.37685
G1 X90.239 Y111.142 E7.38964
G1 X90.327 Y110.505 E7.40174
G1 X90.793 Y106.553 E7.47659
G1 X90.949 Y105.826 E7.49058
G1 X91.299 Y104.717 E7.51245
G1 X91.662 Y103.693 E7.53289
G1 X92.151 Y102.596 E7.55548
G1 X92.494 Y101.883 E7.57037
G1 X92.84 Y101.299 E7.58313
G1 X93.232 Y100.75 E7.59582
G1 X95.487 Y97.457 E7.6709
G1 X96.013 Y96.82 E7.68644
G0 F3600 X96.3 Y97.099
G1 F1800 X97.41 Y96.045 E7.71523
G1 X97.92 Y95.596 E7.72801
G1 X98.886 Y94.834 E7.75116
G1 X99.406 Y94.454 E7.76327
G1 X99.911 Y94.145 E7.77441
G1 X100.509 Y93.844 E7.787
G1 X103.995 Y92 E7.86118
G1 X104.613 Y91.743 E7.87377
G1 X105.617 Y91.432 E7.89355
G1 X106.721 Y91.134 E7.91506
G1 X108.039 Y90.887 E7.94028
G1 X108.702 Y90.787 E7.95289
G1 X109.299 Y90.747 E7.96415
G1 X109.947 Y90.758 E7.97634
G1 X113.906 Y90.745 E8.05081
G1 X114.571 Y90.805 E8.06337
G1 X115.72 Y91.018 E8.08535
G1 X116.285 Y91.14 E8.09622
G1 X116.914 Y91.299 E8.10843
G1 X117.974 Y91.624 E8.12928
G1 X118.619 Y91.845 E8.14211
G1 X119.175 Y92.09 E8.15354
G1 X119.844 Y92.455 E8.16787
G1 X123.329 Y94.267 E8.24176
G1 X123.975 Y94.681 E8.25619
G1 X125.124 Y95.63 E8.28422
G1 X125.656 Y96.102 E8.2976
G1 X126.401 Y96.84 E8.31733
G1 X126.934 Y97.399 E8.33186
G1 X127.321 Y97.885 E8.34354
G1 X127.731 Y98.502 E8.35748
G1 X129.951 Y101.695 E8.43063
G1 X130.28 Y102.277 E8.44321
G1 X130.715 Y103.247 E8.4632
G1 X131.145 Y104.31 E8.48477
G1 X131.507 Y105.446 E8.5072
G1 X131.719 Y106.193 E8.52181
G1 X131.834 Y106.792 E8.53328
G1 X131.918 Y107.593 E8.54843
G1 X132.393 Y111.379 E8.62021
G1 X132.414 Y112.046 E8.63276
G1 X132.343 Y113.19 E8.65432
G1 X132.284 Y113.83 E8.66641
G1 X132.209 Y114.41 E8.67741
G1 X132.025 Y115.442 E8.69713
G1 X131.869 Y116.188 E8.71146
G1 X131.691 Y116.777 E8.72304
G1 X131.439 Y117.409 E8.73584
G1 X130.049 Y121.114 E8.81027
G1 X129.757 Y121.716 E8.82286
G1 X129.166 Y122.686 E8.84423
G1 X128.578 Y123.577 E8.86431
G1 X127.748 Y124.642 E8.8897
G1 X127.342 Y125.129 E8.90163
G1 X126.918 Y125.559 E8.91299
G1 X126.507 Y125.911 E8.92317
G1 X123.413 Y128.671 E9.00116
G1 X122.82 Y129.112 E9.01506
G1 X121.473 Y129.879 E9.04422
G1 X120.888 Y130.184 E9.05663
G1 X119.883 Y130.643 E9.07741
G1 X119.195 Y130.931 E9.09144
G1 X118.622 Y131.114 E9.10276
G1 X118.025 Y131.251 E9.11428
G1 X114.125 Y132.225 E9.18989
G1 X113.47 Y132.325 E9.20236
G1 X112.333 Y132.392 E9.22378
G1 X111.703 Y132.41 E9.23564
G1 X111.122 Y132.407 E9.24657
G1 X110.083 Y132.35 E9.26614
G1 X109.285 Y132.281 E9.28121
G1 X108.68 Y132.175 E9.29276
G1 X108.006 Y131.996 E9.30588
G1 X104.191 Y131.069 E9.37973
G1 X103.559 Y130.852 E9.3923
G1 X102.62 Y130.428 E9.41168
G1 X101.96 Y130.107 E9.42548
G1 X101.462 Y129.842 E9.4361
G1 X100.534 Y129.289 E9.45642
G1 X99.881 Y128.87 E9.47101
G1 X99.405 Y128.503 E9.48232
G1 X98.937 Y128.075 E9.49425
G1 X95.893 Y125.397 E9.57051
G1 X95.369 Y124.843 E9.58485
G1 X94.481 Y123.646 E9.61289
G1 X94.072 Y123.054 E9.62643
G1 X93.52 Y122.151 E9.64633
G1 X93.144 Y121.492 E9.66061
G1 X92.885 Y120.93 E9.67225
G1 X92.635 Y120.235 E9.68614
G1 X91.224 Y116.557 E9.76024
G1 X91.021 Y115.847 E9.77413
G1 X90.764 Y114.195 E9.80558
G1 X90.697 Y113.613 E9.8166
G1 X90.625 Y112.483 E9.8379
G1 X90.603 Y111.808 E9.8506
G1 X90.635 Y111.197 E9.86211
G1 X90.733 Y110.49 E9.87554
G1 X91.191 Y106.6 E9.94922
G1 X91.33 Y105.946 E9.96179
G1 X91.633 Y104.978 E9.98087
G1 X92.035 Y103.837 E10.00363
G1 X92.564 Y102.656 E10.02797
G1 X92.854 Y102.057 E10.04049
G1 X93.166 Y101.532 E10.05198
G1 X93.542 Y101.006 E10.06414
G1 X95.817 Y97.683 E10.13989
G1 X96.3 Y97.099 E10.15415
G0 F3600 X96.584 Y97.381
G1 F1800 X97.755 Y96.271 E10.1845
G1 X98.169 Y95.909 E10.19484
G1 X99.122 Y95.157 E10.21768
G1 X99.642 Y94.777 E10.22979
G1 X100.091 Y94.503 E10.23969
G1 X100.644 Y94.225 E10.25133
G1 X104.182 Y92.353 E10.32663
G1 X104.731 Y92.125 E10.33781
G1 X105.856 Y91.779 E10.35995
G1 X106.809 Y91.524 E10.3785
G1 X108.099 Y91.283 E10.40319
G1 X108.762 Y91.183 E10.4158
G1 X109.292 Y91.147 E10.4258
G1 X109.942 Y91.158 E10.43802
G1 X113.908 Y91.145 E10.51263
G1 X114.498 Y91.198 E10.52377
G1 X115.636 Y91.409 E10.54554
G1 X116.191 Y91.528 E10.55622
G1 X116.797 Y91.681 E10.56798
G1 X117.741 Y91.969 E10.58654
G1 X118.489 Y92.224 E10.60141
G1 X118.983 Y92.441 E10.61156
G1 X119.666 Y92.813 E10.62618
G1 X123.144 Y94.622 E10.69993
G1 X123.706 Y94.981 E10.71247
G1 X124.869 Y95.939 E10.74082
G1 X125.374 Y96.387 E10.75351
G1 X126.187 Y97.194 E10.77506
G1 X126.644 Y97.675 E10.78754
G1 X126.988 Y98.107 E10.79793
G1 X127.402 Y98.73 E10.812
G1 X129.622 Y101.923 E10.88515
G1 X129.915 Y102.441 E10.89635
G1 X130.399 Y103.526 E10.9187
G1 X130.767 Y104.44 E10.93723
G1 X131.156 Y105.669 E10.96148
G1 X131.334 Y106.301 E10.97383
G1 X131.436 Y106.834 E10.98404
G1 X131.518 Y107.617 E10.99885
G1 X131.996 Y111.429 E11.07111
G1 X132.015 Y112.021 E11.08226
G1 X131.945 Y113.154 E11.10361
G1 X131.895 Y113.702 E11.11396
G1 X131.815 Y114.34 E11.12605
G1 X131.612 Y115.472 E11.14769
G1 X131.478 Y116.106 E11.15988
G1 X131.319 Y116.629 E11.17016
G1 X131.091 Y117.2 E11.18173
G1 X129.675 Y120.973 E11.25753
G1 X129.415 Y121.509 E11.26874
G1 X128.897 Y122.363 E11.28753
G1 X128.25 Y123.347 E11.30968
G1 X127.441 Y124.386 E11.33445
G1 X127.035 Y124.873 E11.34637
G1 X126.658 Y125.255 E11.35647
G1 X126.24 Y125.613 E11.36682
G1 X123.146 Y128.373 E11.44481
G1 X122.599 Y128.779 E11.45763
G1 X121.285 Y129.526 E11.48606
G1 X120.721 Y129.82 E11.49802
G1 X119.716 Y130.279 E11.51881
G1 X119.041 Y130.561 E11.53257
G1 X118.532 Y130.724 E11.54262
G1 X117.942 Y130.86 E11.55401
G1 X114.028 Y131.837 E11.62989
G1 X113.446 Y131.926 E11.64097
G1 X112.321 Y131.993 E11.66217
G1 X111.777 Y132.009 E11.67241
G1 X111.144 Y132.007 E11.68431
G1 X109.998 Y131.943 E11.7059
G1 X109.321 Y131.883 E11.71869
G1 X108.782 Y131.788 E11.72898
G1 X108.105 Y131.608 E11.74216
G1 X104.285 Y130.68 E11.81611
G1 X103.724 Y130.487 E11.82727
