;FLAVOR:UltiGCode
;TIME:2331
;MATERIAL:2664
;MATERIAL2:0
;NOZZLE_DIAMETER:0.4
;MINX:89.614
;MINY:80.577
;MINZ:0.3
;MAXX:133.387
;MAXY:142.423
;MAXZ:8.3
;Generated with Cura_SteamEngine 5.2.1
M82 ;absolute extrusion mode
G0 F3000 Y50 ;avoid prime blob
G92 E0
G92 E0
G10
;LAYER_COUNT:81
;LAYER:0
M107
G0 F3600 X92.858 Y84.906 Z0.3
;TYPE:SKIRT
G11
G1 F1800 X93.389 Y84.322 E0.09472
G1 X93.935 Y83.829 E0.18299
G1 X94.698 Y83.202 E0.3015
G1 X95.333 Y82.732 E0.3963
G1 X95.967 Y82.352 E0.485
G1 X96.822 Y81.894 E0.6014
G1 X97.536 Y81.557 E0.69614
G1 X98.233 Y81.308 E0.78496
G1 X99.215 Y81.009 E0.90814
G1 X99.981 Y80.818 E1.00287
G1 X100.738 Y80.707 E1.09469
G1 X101.713 Y80.613 E1.21223
G1 X102.502 Y80.577 E1.30701
G1 X103.241 Y80.616 E1.39581
G1 X104.217 Y80.714 E1.51352
G1 X104.998 Y80.833 E1.60832
G1 X105.706 Y81.012 E1.69595
G1 X106.647 Y81.298 E1.81397
G1 X107.39 Y81.566 E1.90876
G1 X108.048 Y81.878 E1.99614
G1 X108.913 Y82.339 E2.11376
G1 X109.59 Y82.745 E2.20849
G1 X110.186 Y83.188 E2.29761
G1 X110.954 Y83.817 E2.41673
G1 X111.539 Y84.347 E2.51146
G1 X112.053 Y84.916 E2.60347
G1 X112.691 Y85.697 E2.72449
G1 X113.159 Y86.333 E2.81924
G1 X113.54 Y86.977 E2.90903
G1 X114.001 Y87.846 E3.02708
G1 X114.336 Y88.561 E3.12183
G1 X114.576 Y89.24 E3.20825
G1 X114.858 Y90.171 E3.32498
G1 X115.048 Y90.937 E3.41969
G1 X115.155 Y91.664 E3.50787
G1 X115.252 Y92.645 E3.62616
G1 X115.29 Y93.434 E3.72095
G1 X115.253 Y94.167 E3.80902
G1 X115.158 Y95.145 E3.92694
G1 X115.042 Y95.926 E4.02168
G1 X114.864 Y96.639 E4.10987
G1 X114.582 Y97.576 E4.22729
G1 X114.317 Y98.32 E4.32207
G1 X114.005 Y98.98 E4.40967
G1 X113.545 Y99.848 E4.52755
G1 X113.14 Y100.527 E4.62243
G1 X112.683 Y101.144 E4.71456
G1 X112.093 Y101.863 E4.82617
G1 X112.8 Y101.283 E4.93591
G1 X113.435 Y100.813 E5.03071
G1 X114.058 Y100.441 E5.11779
G1 X114.913 Y99.982 E5.23424
G1 X115.626 Y99.644 E5.32892
G1 X116.337 Y99.39 E5.41952
G1 X117.319 Y99.092 E5.54267
G1 X118.085 Y98.901 E5.6374
G1 X118.836 Y98.792 E5.72847
G1 X119.812 Y98.698 E5.84613
G1 X120.601 Y98.662 E5.94091
G1 X121.34 Y98.701 E6.02971
G1 X122.315 Y98.799 E6.1473
G1 X123.096 Y98.918 E6.2421
G1 X123.796 Y99.095 E6.32875
G1 X124.737 Y99.38 E6.44673
G1 X125.48 Y99.647 E6.54147
G1 X126.151 Y99.965 E6.63058
G1 X127.016 Y100.427 E6.74826
G1 X127.693 Y100.834 E6.84305
G1 X128.272 Y101.263 E6.92952
G1 X129.027 Y101.879 E7.04645
G1 X129.613 Y102.409 E7.14127
G1 X130.125 Y102.974 E7.23276
G1 X130.776 Y103.767 E7.35588
G1 X131.245 Y104.402 E7.45061
G1 X131.637 Y105.061 E7.54263
G1 X132.098 Y105.93 E7.66067
G1 X132.433 Y106.645 E7.75542
G1 X132.673 Y107.324 E7.84184
G1 X132.955 Y108.255 E7.95857
G1 X133.145 Y109.021 E8.05328
G1 X133.252 Y109.748 E8.14146
G1 X133.349 Y110.729 E8.25975
G1 X133.387 Y111.518 E8.35454
G1 X133.35 Y112.251 E8.44261
G1 X133.255 Y113.229 E8.56053
G1 X133.139 Y114.01 E8.65528
G1 X132.961 Y114.723 E8.74346
G1 X132.679 Y115.66 E8.86088
G1 X132.414 Y116.404 E8.95566
G1 X132.104 Y117.061 E9.04283
G1 X131.644 Y117.93 E9.16082
G1 X131.239 Y118.608 E9.25559
G1 X130.78 Y119.229 E9.34826
G1 X130.131 Y120.02 E9.47104
G1 X129.6 Y120.604 E9.56576
G1 X129.035 Y121.113 E9.65701
G1 X128.276 Y121.733 E9.77462
G1 X127.64 Y122.201 E9.86937
G1 X127.019 Y122.571 E9.95612
G1 X126.151 Y123.035 E10.07423
G1 X125.437 Y123.371 E10.16892
G1 X124.731 Y123.622 E10.25883
G1 X123.788 Y123.907 E10.37705
G1 X123.021 Y124.097 E10.47187
G1 X122.298 Y124.203 E10.55956
G1 X121.316 Y124.3 E10.67797
G1 X120.527 Y124.338 E10.77276
G1 X119.8 Y124.302 E10.86011
G1 X118.836 Y124.209 E10.97633
G1 X118.055 Y124.093 E11.07107
G1 X117.32 Y123.909 E11.162
G1 X116.338 Y123.611 E11.28514
G1 X115.595 Y123.344 E11.37988
G1 X114.901 Y123.012 E11.4722
G1 X114.035 Y122.545 E11.59027
G1 X113.36 Y122.136 E11.68498
G1 X112.78 Y121.703 E11.77184
G1 X112.102 Y121.145 E11.87721
G1 X112.691 Y121.866 E11.98893
G1 X113.159 Y122.502 E12.08368
G1 X113.539 Y123.142 E12.173
G1 X114 Y124.01 E12.29094
G1 X114.334 Y124.726 E12.38575
G1 X114.576 Y125.408 E12.47259
G1 X114.858 Y126.339 E12.58932
G1 X115.048 Y127.105 E12.68403
G1 X115.155 Y127.832 E12.77221
G1 X115.252 Y128.813 E12.8905
G1 X115.29 Y129.602 E12.98529
G1 X115.253 Y130.335 E13.07336
G1 X115.158 Y131.313 E13.19127
G1 X115.042 Y132.094 E13.28602
G1 X114.864 Y132.807 E13.37421
G1 X114.582 Y133.744 E13.49163
G1 X114.317 Y134.488 E13.5864
G1 X114.007 Y135.145 E13.67358
G1 X113.547 Y136.014 E13.79157
G1 X113.142 Y136.692 E13.88634
G1 X112.683 Y137.313 E13.979
G1 X112.034 Y138.104 E14.10179
G1 X111.503 Y138.688 E14.1965
G1 X110.943 Y139.193 E14.28699
G1 X110.184 Y139.814 E14.40467
G1 X109.549 Y140.282 E14.49933
G1 X108.916 Y140.659 E14.58774
G1 X108.048 Y141.122 E14.7058
G1 X107.333 Y141.458 E14.8006
G1 X106.641 Y141.704 E14.88873
G1 X105.698 Y141.99 E15.00698
G1 X104.931 Y142.181 E15.10183
G1 X104.2 Y142.288 E15.19048
G1 X103.217 Y142.385 E15.30902
G1 X102.428 Y142.423 E15.40381
G1 X101.701 Y142.387 E15.49115
G1 X100.738 Y142.294 E15.60725
G1 X99.957 Y142.178 E15.702
G1 X99.216 Y141.992 E15.79368
G1 X98.234 Y141.693 E15.91686
G1 X97.491 Y141.425 E16.01164
G1 X96.81 Y141.1 E16.10219
G1 X95.944 Y140.634 E16.2202
G1 X95.268 Y140.225 E16.31501
G1 X94.679 Y139.784 E16.40331
G1 X93.922 Y139.16 E16.52103
G1 X93.339 Y138.627 E16.61582
G1 X92.853 Y138.088 E16.70291
G1 X92.232 Y137.331 E16.82041
G1 X91.762 Y136.696 E16.91521
G1 X91.379 Y136.054 E17.00492
G1 X90.913 Y135.18 E17.12377
G1 X90.577 Y134.465 E17.21858
G1 X90.334 Y133.78 E17.3058
G1 X90.052 Y132.853 E17.42207
G1 X89.86 Y132.087 E17.51683
G1 X89.751 Y131.346 E17.60671
G1 X89.651 Y130.328 E17.72946
G1 X89.614 Y129.539 E17.82424
G1 X89.653 Y128.781 E17.91532
G1 X89.752 Y127.801 E18.03352
G1 X89.872 Y127.02 E18.12834
G1 X90.055 Y126.301 E18.21737
G1 X90.341 Y125.367 E18.33459
G1 X90.61 Y124.625 E18.4293
G1 X90.923 Y123.968 E18.51663
G1 X91.388 Y123.1 E18.63479
G1 X91.796 Y122.423 E18.72965
G1 X92.235 Y121.834 E18.8178
G1 X92.858 Y121.075 E18.93563
G1 X93.34 Y120.545 E19.0216
G1 X92.853 Y120.004 E19.10895
G1 X92.232 Y119.247 E19.22644
G1 X91.762 Y118.612 E19.32124
G1 X91.379 Y117.97 E19.41095
G1 X90.913 Y117.096 E19.52981
G1 X90.577 Y116.381 E19.62461
G1 X90.334 Y115.696 E19.71183
G1 X90.052 Y114.769 E19.8281
G1 X89.86 Y114.003 E19.92287
G1 X89.751 Y113.262 E20.01274
G1 X89.651 Y112.244 E20.13549
G1 X89.614 Y111.455 E20.23028
G1 X89.653 Y110.697 E20.32136
G1 X89.752 Y109.717 E20.43955
G1 X89.872 Y108.936 E20.53437
G1 X90.055 Y108.217 E20.6234
G1 X90.341 Y107.283 E20.74062
G1 X90.61 Y106.541 E20.83533
G1 X90.922 Y105.887 E20.92229
G1 X91.387 Y105.018 E21.04056
G1 X91.794 Y104.341 E21.13535
G1 X92.235 Y103.749 E21.22393
G1 X92.858 Y102.99 E21.34176
G1 X93.34 Y102.459 E21.42782
G1 X92.852 Y101.918 E21.51525
G1 X92.232 Y101.162 E21.63258
G1 X91.763 Y100.527 E21.72731
G1 X91.383 Y99.892 E21.81611
G1 X90.916 Y99.018 E21.93502
G1 X90.58 Y98.303 E22.02982
G1 X90.334 Y97.612 E22.11784
G1 X90.052 Y96.685 E22.23411
G1 X89.86 Y95.919 E22.32888
G1 X89.751 Y95.178 E22.41876
G1 X89.651 Y94.16 E22.5415
G1 X89.614 Y93.371 E22.63629
G1 X89.653 Y92.613 E22.72737
G1 X89.752 Y91.633 E22.84557
G1 X89.872 Y90.852 E22.94039
G1 X90.054 Y90.135 E23.02915
G1 X90.34 Y89.2 E23.14649
G1 X90.609 Y88.458 E23.2412
G1 X90.923 Y87.799 E23.3288
G1 X91.388 Y86.931 E23.44696
G1 X91.796 Y86.254 E23.54181
G1 X92.235 Y85.665 E23.62996
G1 X92.858 Y84.906 E23.7478
G0 F3600 X93.167 Y85.16
G1 F1800 X93.685 Y84.592 E23.84005
G1 X94.189 Y84.138 E23.92145
G1 X94.952 Y83.511 E24.03995
G1 X95.571 Y83.054 E24.13228
G1 X96.156 Y82.705 E24.21403
G1 X97.011 Y82.247 E24.33042
G1 X97.707 Y81.919 E24.42275
G1 X98.35 Y81.691 E24.50462
G1 X99.332 Y81.392 E24.6278
G1 X100.078 Y81.206 E24.72006
G1 X100.777 Y81.105 E24.80481
G1 X101.752 Y81.011 E24.92235
G1 X102.52 Y80.977 E25.0146
G1 X103.201 Y81.014 E25.09644
G1 X104.177 Y81.112 E25.21415
G1 X104.938 Y81.229 E25.30655
G1 X105.59 Y81.395 E25.38728
G1 X106.531 Y81.681 E25.5053
G1 X107.254 Y81.942 E25.59754
G1 X107.859 Y82.231 E25.678
G1 X108.724 Y82.692 E25.79562
G1 X109.383 Y83.088 E25.88788
G1 X109.933 Y83.497 E25.97013
G1 X110.701 Y84.126 E26.08925
G1 X111.27 Y84.644 E26.18159
G1 X111.743 Y85.169 E26.26639
G1 X112.381 Y85.95 E26.3874
G1 X112.836 Y86.571 E26.47979
G1 X113.187 Y87.164 E26.56248
G1 X113.648 Y88.033 E26.68052
G1 X113.973 Y88.73 E26.77281
G1 X114.193 Y89.356 E26.85243
G1 X114.475 Y90.287 E26.96917
G1 X114.66 Y91.034 E27.06151
G1 X114.757 Y91.704 E27.14275
G1 X114.854 Y92.685 E27.26105
G1 X114.89 Y93.453 E27.35331
G1 X114.855 Y94.128 E27.43442
G1 X114.76 Y95.106 E27.55233
G1 X114.646 Y95.867 E27.64467
G1 X114.481 Y96.524 E27.72596
G1 X114.199 Y97.461 E27.84338
G1 X113.939 Y98.185 E27.93569
G1 X113.652 Y98.793 E28.01637
G1 X113.192 Y99.661 E28.13425
G1 X112.797 Y100.321 E28.22655
G1 X112.374 Y100.89 E28.31163
G1 X111.725 Y101.681 E28.43441
G1 X110.996 Y102.48 E28.56421
G1 X111.5 Y102.986 E28.64991
G1 X111.782 Y102.676 E28.7002
G1 X112.29 Y102.218 E28.78227
G1 X113.053 Y101.592 E28.90071
G1 X113.672 Y101.136 E28.99297
G1 X114.247 Y100.793 E29.07331
G1 X115.102 Y100.334 E29.18976
G1 X115.798 Y100.006 E29.28209
G1 X116.453 Y99.773 E29.36551
G1 X117.435 Y99.475 E29.48866
G1 X118.182 Y99.29 E29.58101
G1 X118.875 Y99.19 E29.66503
G1 X119.851 Y99.096 E29.78269
G1 X120.619 Y99.062 E29.87494
G1 X121.3 Y99.099 E29.95678
G1 X122.275 Y99.197 E30.07437
G1 X123.035 Y99.314 E30.16665
G1 X123.68 Y99.478 E30.24651
G1 X124.621 Y99.763 E30.36449
G1 X125.345 Y100.024 E30.45685
G1 X125.962 Y100.318 E30.53886
G1 X126.827 Y100.78 E30.65654
G1 X127.486 Y101.177 E30.74886
G1 X128.019 Y101.573 E30.82854
G1 X128.774 Y102.189 E30.94547
G1 X129.344 Y102.706 E31.03782
G1 X129.816 Y103.228 E31.12227
G1 X130.467 Y104.021 E31.24539
G1 X130.923 Y104.64 E31.33765
G1 X131.284 Y105.248 E31.4225
G1 X131.745 Y106.117 E31.54054
G1 X132.07 Y106.814 E31.63283
G1 X132.29 Y107.44 E31.71245
G1 X132.572 Y108.371 E31.82918
G1 X132.757 Y109.118 E31.92153
G1 X132.854 Y109.788 E32.00277
G1 X132.951 Y110.769 E32.12106
G1 X132.987 Y111.537 E32.21333
G1 X132.952 Y112.212 E32.29443
G1 X132.857 Y113.19 E32.41235
G1 X132.743 Y113.951 E32.50469
G1 X132.578 Y114.608 E32.58597
G1 X132.296 Y115.545 E32.7034
G1 X132.036 Y116.269 E32.79571
G1 X131.75 Y116.874 E32.87601
G1 X131.29 Y117.743 E32.994
G1 X130.896 Y118.403 E33.08624
G1 X130.471 Y118.975 E33.17175
G1 X129.822 Y119.766 E33.29453
G1 X129.304 Y120.334 E33.38678
G1 X128.782 Y120.803 E33.47099
G1 X128.023 Y121.423 E33.5886
G1 X127.403 Y121.878 E33.68088
G1 X126.831 Y122.218 E33.76073
G1 X125.963 Y122.682 E33.87884
G1 X125.266 Y123.009 E33.97123
G1 X124.615 Y123.24 E34.05412
G1 X123.672 Y123.525 E34.17233
G1 X122.925 Y123.709 E34.26465
G1 X122.258 Y123.805 E34.34552
G1 X121.276 Y123.902 E34.46393
G1 X120.508 Y123.938 E34.55619
G1 X119.838 Y123.904 E34.6367
G1 X118.874 Y123.811 E34.75291
G1 X118.114 Y123.697 E34.84513
G1 X117.436 Y123.526 E34.92904
G1 X116.454 Y123.228 E35.05219
G1 X115.731 Y122.967 E35.14443
G1 X115.091 Y122.66 E35.22961
G1 X114.225 Y122.193 E35.34767
G1 X113.568 Y121.794 E35.43991
G1 X113.035 Y121.394 E35.51988
G1 X112.278 Y120.771 E35.63753
G1 X111.475 Y120.037 E35.76808
G1 X111.002 Y120.515 E35.84878
G1 X111.743 Y121.338 E35.98167
G1 X112.381 Y122.119 E36.10268
G1 X112.836 Y122.74 E36.19507
G1 X113.185 Y123.33 E36.27733
G1 X113.646 Y124.198 E36.39526
G1 X113.971 Y124.895 E36.48755
G1 X114.193 Y125.524 E36.56759
G1 X114.475 Y126.455 E36.68433
G1 X114.66 Y127.202 E36.77667
G1 X114.757 Y127.872 E36.85791
G1 X114.854 Y128.853 E36.97621
G1 X114.89 Y129.621 E37.06847
G1 X114.855 Y130.296 E37.14958
G1 X114.76 Y131.274 E37.26749
G1 X114.646 Y132.035 E37.35983
G1 X114.481 Y132.692 E37.44112
G1 X114.199 Y133.629 E37.55854
G1 X113.939 Y134.353 E37.65085
G1 X113.653 Y134.958 E37.73115
G1 X113.193 Y135.827 E37.84914
G1 X112.799 Y136.487 E37.94138
G1 X112.374 Y137.059 E38.02689
G1 X111.725 Y137.85 E38.14967
G1 X111.207 Y138.418 E38.24192
G1 X110.69 Y138.883 E38.32536
G1 X109.931 Y139.504 E38.44305
G1 X109.311 Y139.96 E38.5354
G1 X108.728 Y140.306 E38.61675
G1 X107.86 Y140.769 E38.73481
G1 X107.163 Y141.095 E38.82714
G1 X106.525 Y141.321 E38.90836
G1 X105.582 Y141.607 E39.02661
G1 X104.835 Y141.792 E39.11896
G1 X104.161 Y141.89 E39.20069
G1 X103.178 Y141.987 E39.31923
G1 X102.409 Y142.023 E39.41161
G1 X101.74 Y141.989 E39.49199
G1 X100.777 Y141.896 E39.60809
G1 X100.016 Y141.782 E39.70043
G1 X99.333 Y141.609 E39.78498
G1 X98.351 Y141.31 E39.90816
G1 X97.627 Y141.048 E40.00055
G1 X96.999 Y140.747 E40.08412
G1 X96.133 Y140.281 E40.20213
G1 X95.476 Y139.882 E40.29437
G1 X94.933 Y139.475 E40.3758
G1 X94.176 Y138.851 E40.49353
G1 X93.609 Y138.332 E40.58577
G1 X93.162 Y137.834 E40.66607
G1 X92.541 Y137.077 E40.78356
G1 X92.085 Y136.458 E40.87582
G1 X91.732 Y135.866 E40.95853
G1 X91.266 Y134.992 E41.07739
G1 X90.94 Y134.295 E41.16973
G1 X90.716 Y133.664 E41.25008
G1 X90.434 Y132.737 E41.36635
G1 X90.249 Y131.99 E41.4587
G1 X90.149 Y131.306 E41.54165
G1 X90.049 Y130.288 E41.6644
G1 X90.014 Y129.52 E41.75665
G1 X90.051 Y128.821 E41.84065
G1 X90.15 Y127.841 E41.95885
G1 X90.267 Y127.081 E42.05112
G1 X90.437 Y126.418 E42.13326
G1 X90.723 Y125.484 E42.25047
G1 X90.986 Y124.762 E42.34268
G1 X91.276 Y124.157 E42.42319
G1 X91.741 Y123.289 E42.54136
G1 X92.139 Y122.63 E42.63374
G1 X92.544 Y122.088 E42.71493
G1 X93.167 Y121.329 E42.83277
G1 X93.879 Y120.548 E42.95959
G1 X93.162 Y119.75 E43.08832
G1 X92.541 Y118.993 E43.20582
G1 X92.085 Y118.374 E43.29808
G1 X91.732 Y117.782 E43.38079
G1 X91.266 Y116.908 E43.49964
G1 X90.94 Y116.211 E43.59198
G1 X90.716 Y115.58 E43.67233
G1 X90.434 Y114.653 E43.7886
G1 X90.249 Y113.906 E43.88095
G1 X90.149 Y113.222 E43.9639
G1 X90.049 Y112.204 E44.08665
G1 X90.014 Y111.436 E44.17891
G1 X90.051 Y110.737 E44.26291
G1 X90.15 Y109.757 E44.3811
G1 X90.267 Y108.997 E44.47338
G1 X90.437 Y108.334 E44.55551
G1 X90.723 Y107.4 E44.67273
G1 X90.986 Y106.678 E44.76494
G1 X91.274 Y106.076 E44.84502
G1 X91.739 Y105.207 E44.96329
G1 X92.137 Y104.548 E45.05567
G1 X92.544 Y104.003 E45.1373
G1 X93.167 Y103.244 E45.25513
G1 X93.879 Y102.463 E45.38195
G1 X93.161 Y101.665 E45.51077
G1 X92.541 Y100.909 E45.62809
G1 X92.085 Y100.289 E45.72045
G1 X91.736 Y99.703 E45.8023
G1 X91.269 Y98.829 E45.92121
G1 X90.943 Y98.133 E46.01344
G1 X90.716 Y97.496 E46.09459
G1 X90.434 Y96.569 E46.21086
G1 X90.249 Y95.822 E46.30321
G1 X90.149 Y95.138 E46.38616
G1 X90.049 Y94.12 E46.50891
G1 X90.014 Y93.352 E46.60116
G1 X90.051 Y92.653 E46.68516
G1 X90.15 Y91.673 E46.80336
G1 X90.267 Y90.913 E46.89563
G1 X90.437 Y90.252 E46.97753
G1 X90.723 Y89.317 E47.09487
G1 X90.986 Y88.595 E47.18708
G1 X91.276 Y87.988 E47.2678
G1 X91.741 Y87.12 E47.38597
G1 X92.139 Y86.461 E47.47835
G1 X92.544 Y85.919 E47.55954
G1 X93.167 Y85.16 E47.67737
G0 F3600 X93.476 Y85.414
G1 F1800 X93.981 Y84.862 E47.76715
G1 X94.443 Y84.447 E47.84168
G1 X95.206 Y83.82 E47.96018
G1 X95.808 Y83.376 E48.04995
G1 X96.345 Y83.058 E48.12484
G1 X97.2 Y82.6 E48.24123
G1 X97.877 Y82.282 E48.33099
G1 X98.466 Y82.074 E48.40594
G1 X99.448 Y81.775 E48.52913
G1 X100.174 Y81.595 E48.61888
G1 X100.815 Y81.503 E48.69659
G1 X101.79 Y81.409 E48.81413
G1 X102.538 Y81.377 E48.90398
G1 X103.161 Y81.412 E48.97885
G1 X104.137 Y81.51 E49.09656
G1 X104.877 Y81.624 E49.18641
G1 X105.474 Y81.778 E49.2604
G1 X106.415 Y82.064 E49.37842
G1 X107.118 Y82.319 E49.46816
G1 X107.671 Y82.584 E49.54174
G1 X108.536 Y83.045 E49.65936
G1 X109.177 Y83.431 E49.74915
G1 X109.679 Y83.806 E49.82434
G1 X110.447 Y84.435 E49.94347
G1 X111 Y84.94 E50.03334
G1 X111.433 Y85.422 E50.11109
G1 X112.071 Y86.203 E50.2321
G1 X112.513 Y86.807 E50.32192
G1 X112.834 Y87.352 E50.39782
G1 X113.295 Y88.221 E50.51586
G1 X113.61 Y88.899 E50.60558
G1 X113.81 Y89.472 E50.6784
G1 X114.092 Y90.403 E50.79514
G1 X114.271 Y91.129 E50.88487
G1 X114.359 Y91.743 E50.9593
G1 X114.456 Y92.724 E51.07759
G1 X114.49 Y93.472 E51.16744
G1 X114.457 Y94.09 E51.24171
G1 X114.362 Y95.068 E51.35962
G1 X114.25 Y95.807 E51.44932
G1 X114.098 Y96.408 E51.52371
G1 X113.816 Y97.345 E51.64113
G1 X113.562 Y98.049 E51.73094
G1 X113.298 Y98.606 E51.80491
G1 X112.838 Y99.474 E51.92279
