;FLAVOR:UltiGCode
;TIME:3415
;MATERIAL:7377
;MATERIAL2:0
;NOZZLE_DIAMETER:0.4
;MINX:86.394
;MINY:86.532
;MINZ:0.3
;MAXX:136.634
;MAXY:136.626
;MAXZ:20.55
;Generated with Cura_SteamEngine 5.2.1
M82 ;absolute extrusion mode
G0 F3000 Y50 ;avoid prime blob
G92 E0
G92 E0
G10
;LAYER_COUNT:136
;LAYER:0
M107
G0 F3600 X93.383 Y94.072 Z0.3
;TYPE:SKIRT
G11
G1 F1800 X94.463 Y93.039 E0.17934
G1 X94.959 Y92.581 E0.26035
G1 X95.525 Y92.107 E0.34894
G1 X96.783 Y91.149 E0.53869
G1 X97.435 Y90.702 E0.63355
G1 X98.128 Y90.325 E0.72822
G1 X98.857 Y90.019 E0.8231
G1 X99.612 Y89.788 E0.91784
G1 X100.159 Y89.68 E0.98475
G1 X100.591 Y89.263 E1.0568
G1 X101.211 Y88.775 E1.15148
G1 X101.878 Y88.352 E1.24626
G1 X102.585 Y87.999 E1.34109
G1 X103.558 Y87.647 E1.46526
G1 X104.857 Y87.273 E1.62747
G1 X105.645 Y87.061 E1.72539
G1 X106.375 Y86.902 E1.81504
G1 X107.935 Y86.64 E2.00487
G1 X108.719 Y86.549 E2.09958
G1 X109.509 Y86.537 E2.19439
G1 X110.296 Y86.606 E2.28919
G1 X111.072 Y86.753 E2.38397
G1 X111.594 Y86.909 E2.44934
G1 X112.165 Y86.741 E2.52077
G1 X112.941 Y86.597 E2.61548
G1 X113.728 Y86.532 E2.71024
G1 X114.518 Y86.547 E2.80506
G1 X115.549 Y86.688 E2.92993
G1 X116.876 Y86.961 E3.0925
G1 X117.69 Y87.144 E3.19262
G1 X118.381 Y87.334 E3.27862
G1 X119.88 Y87.822 E3.46779
G1 X120.617 Y88.104 E3.56248
G1 X121.322 Y88.46 E3.65726
G1 X121.988 Y88.884 E3.752
G1 X122.607 Y89.374 E3.84674
G1 X123.015 Y89.769 E3.91488
G1 X123.576 Y89.881 E3.98353
G1 X124.331 Y90.112 E4.07828
G1 X125.059 Y90.419 E4.17309
G1 X125.752 Y90.797 E4.26781
G1 X126.616 Y91.412 E4.39508
G1 X127.663 Y92.27 E4.55751
G1 X128.275 Y92.787 E4.65365
G1 X128.829 Y93.304 E4.74458
G1 X129.93 Y94.436 E4.93408
G1 X130.452 Y95.029 E5.02888
G1 X130.91 Y95.672 E5.12361
G1 X131.301 Y96.358 E5.21837
G1 X131.621 Y97.08 E5.31313
G1 X131.795 Y97.61 E5.38007
G1 X132.245 Y97.975 E5.4496
G1 X132.806 Y98.531 E5.54439
G1 X133.307 Y99.141 E5.63911
G1 X133.744 Y99.799 E5.7339
G1 X134.22 Y100.739 E5.86033
G1 X134.795 Y102.098 E6.03741
G1 X135.05 Y102.727 E6.11886
G1 X135.297 Y103.432 E6.2085
G1 X135.747 Y104.944 E6.39781
G1 X135.934 Y105.711 E6.49254
G1 X136.042 Y106.494 E6.58739
G1 X136.07 Y107.283 E6.68213
G1 X136.019 Y108.071 E6.77689
G1 X135.925 Y108.631 E6.84503
G1 X136.154 Y109.162 E6.91442
G1 X136.392 Y109.915 E7.00919
G1 X136.553 Y110.688 E7.10394
G1 X136.634 Y111.474 E7.19876
G1 X136.619 Y112.526 E7.32501
G1 X136.508 Y113.875 E7.48744
G1 X136.426 Y114.692 E7.58597
G1 X136.317 Y115.426 E7.67502
G1 X136.009 Y116.977 E7.86477
G1 X135.816 Y117.743 E7.95956
G1 X135.547 Y118.485 E8.05427
G1 X135.204 Y119.197 E8.14911
G1 X134.79 Y119.87 E8.24393
G1 X134.458 Y120.305 E8.30959
G1 X134.414 Y120.886 E8.37951
G1 X134.275 Y121.663 E8.47423
G1 X134.058 Y122.422 E8.56896
G1 X133.765 Y123.155 E8.66369
G1 X133.265 Y124.075 E8.78934
G1 X132.458 Y125.347 E8.97011
G1 X132.085 Y125.911 E9.05125
G1 X131.646 Y126.51 E9.14037
G1 X130.653 Y127.739 E9.32997
G1 X130.126 Y128.327 E9.42472
G1 X129.543 Y128.859 E9.51943
G1 X128.908 Y129.33 E9.61431
G1 X128.23 Y129.734 E9.70902
G1 X127.738 Y129.963 E9.77414
G1 X127.444 Y130.436 E9.84097
G1 X126.962 Y131.061 E9.93568
G1 X126.419 Y131.634 E10.03041
G1 X125.82 Y132.149 E10.12521
G1 X124.925 Y132.751 E10.25464
G1 X123.75 Y133.427 E10.41731
G1 X123.039 Y133.821 E10.51486
G1 X122.366 Y134.151 E10.6048
G1 X120.915 Y134.779 E10.79453
G1 X120.175 Y135.056 E10.88935
G1 X119.412 Y135.256 E10.984
G1 X118.631 Y135.378 E11.07886
G1 X117.843 Y135.421 E11.17356
G1 X117.294 Y135.395 E11.23951
G1 X116.792 Y135.688 E11.30926
G1 X116.073 Y136.015 E11.40405
G1 X115.325 Y136.268 E11.4988
G1 X114.555 Y136.443 E11.59356
G1 X113.511 Y136.555 E11.71956
G1 X112.158 Y136.608 E11.88204
G1 X111.34 Y136.626 E11.98022
G1 X110.6 Y136.607 E12.06905
G1 X109.025 Y136.49 E12.25857
G1 X108.242 Y136.391 E12.35328
G1 X107.472 Y136.214 E12.44809
G1 X106.724 Y135.96 E12.54289
G1 X106.006 Y135.632 E12.63761
G1 X105.522 Y135.348 E12.70495
G1 X104.925 Y135.374 E12.77666
G1 X104.137 Y135.327 E12.87139
G1 X103.357 Y135.202 E12.96618
G1 X102.594 Y134.998 E13.06096
G1 X101.641 Y134.619 E13.18403
G1 X100.295 Y133.979 E13.36288
G1 X99.687 Y133.677 E13.44434
G1 X99.022 Y133.305 E13.53578
G1 X97.685 Y132.469 E13.725
G1 X97.037 Y132.017 E13.81981
G1 X96.439 Y131.501 E13.91459
G1 X95.895 Y130.928 E14.00941
G1 X95.413 Y130.303 E14.10412
G1 X95.125 Y129.84 E14.16955
G1 X94.597 Y129.592 E14.23955
G1 X93.92 Y129.187 E14.33422
G1 X93.287 Y128.714 E14.42904
G1 X92.705 Y128.181 E14.52374
G1 X92.016 Y127.38 E14.65053
G1 X91.205 Y126.296 E14.81299
G1 X90.73 Y125.639 E14.91027
G1 X90.325 Y125.018 E14.99924
G1 X89.528 Y123.659 E15.1883
G1 X89.163 Y122.958 E15.28314
G1 X88.871 Y122.225 E15.37782
G1 X88.655 Y121.465 E15.47263
G1 X88.517 Y120.688 E15.56733
G1 X88.475 Y120.125 E15.63508
G1 X88.141 Y119.689 E15.70099
G1 X87.727 Y119.016 E15.7958
G1 X87.384 Y118.305 E15.89053
G1 X87.114 Y117.563 E15.98528
G1 X86.87 Y116.516 E16.11429
G1 X86.654 Y115.179 E16.27681
G1 X86.536 Y114.352 E16.37706
G1 X86.467 Y113.623 E16.46493
G1 X86.394 Y112.048 E16.65413
G1 X86.398 Y111.258 E16.74893
G1 X86.481 Y110.473 E16.84366
G1 X86.643 Y109.7 E16.93843
G1 X86.883 Y108.948 E17.03316
G1 X87.103 Y108.44 E17.09959
G1 X87.007 Y107.869 E17.16907
G1 X86.956 Y107.081 E17.26383
G1 X86.985 Y106.292 E17.35857
G1 X87.093 Y105.51 E17.4533
G1 X87.359 Y104.491 E17.57968
G1 X87.836 Y103.072 E17.75932
G1 X88.063 Y102.434 E17.84058
G1 X88.345 Y101.748 E17.92959
G1 X89.013 Y100.318 E18.11899
G1 X89.383 Y99.62 E18.21379
G1 X89.822 Y98.964 E18.30851
G1 X90.324 Y98.355 E18.40322
G1 X90.886 Y97.8 E18.498
G1 X91.317 Y97.452 E18.56447
G1 X91.493 Y96.914 E18.6324
G1 X91.813 Y96.192 E18.72717
G1 X92.204 Y95.506 E18.82192
G1 X92.662 Y94.863 E18.91665
G1 X93.383 Y94.072 E19.04509
G0 F3600 X93.659 Y94.361
G1 F1800 X94.638 Y93.424 E19.20771
G1 X95.231 Y92.875 E19.30468
G1 X95.768 Y92.425 E19.38875
G1 X97.026 Y91.467 E19.5785
G1 X97.661 Y91.033 E19.6708
G1 X98.338 Y90.668 E19.7631
G1 X99.049 Y90.375 E19.85538
G1 X99.787 Y90.157 E19.94772
G1 X100.323 Y90.058 E20.01313
G1 X101.037 Y89.41 E20.12883
G1 X101.657 Y88.955 E20.22112
G1 X102.321 Y88.567 E20.3134
G1 X103.022 Y88.251 E20.40567
G1 X103.669 Y88.032 E20.48764
G1 X105.097 Y87.622 E20.66593
G1 X105.749 Y87.447 E20.74693
G1 X106.441 Y87.296 E20.83193
G1 X108.001 Y87.034 E21.02175
G1 X108.765 Y86.946 E21.11404
G1 X109.535 Y86.938 E21.20644
G1 X110.3 Y87.01 E21.29865
G1 X111.055 Y87.161 E21.39104
G1 X111.564 Y87.32 E21.45503
G1 X112.492 Y87.079 E21.57009
G1 X113.252 Y86.964 E21.66232
G1 X114.021 Y86.928 E21.75471
G1 X114.789 Y86.973 E21.84702
G1 X115.468 Y87.08 E21.92951
G1 X116.939 Y87.384 E22.10976
G1 X117.601 Y87.534 E22.19121
G1 X118.257 Y87.714 E22.27284
G1 X119.756 Y88.202 E22.46201
G1 X120.474 Y88.478 E22.55432
G1 X121.159 Y88.827 E22.64657
G1 X121.805 Y89.245 E22.73891
G1 X122.404 Y89.728 E22.83124
G1 X122.798 Y90.12 E22.89794
G1 X123.71 Y90.331 E23.01027
G1 X124.437 Y90.581 E23.10252
G1 X125.135 Y90.905 E23.19487
G1 X125.795 Y91.3 E23.28717
G1 X126.362 Y91.721 E23.37191
G1 X127.498 Y92.653 E23.54824
G1 X128.017 Y93.092 E23.62981
G1 X128.543 Y93.583 E23.71616
G1 X129.644 Y94.715 E23.90565
G1 X130.151 Y95.293 E23.99792
G1 X130.595 Y95.921 E24.09021
G1 X130.971 Y96.592 E24.18251
G1 X131.276 Y97.298 E24.2748
G1 X131.439 Y97.819 E24.3403
G1 X132.154 Y98.436 E24.45363
G1 X132.682 Y98.996 E24.54599
G1 X133.148 Y99.607 E24.6382
G1 X133.548 Y100.264 E24.73051
G1 X133.851 Y100.895 E24.8145
G1 X134.424 Y102.248 E24.99082
G1 X134.679 Y102.877 E25.07227
G1 X134.914 Y103.546 E25.15736
G1 X135.364 Y105.058 E25.34667
G1 X135.544 Y105.806 E25.43899
G1 X135.647 Y106.568 E25.53126
G1 X135.669 Y107.337 E25.62358
G1 X135.612 Y108.104 E25.71587
G1 X135.513 Y108.651 E25.78258
G1 X135.859 Y109.528 E25.89571
G1 X136.066 Y110.269 E25.98804
G1 X136.195 Y111.027 E26.0803
G1 X136.244 Y111.795 E26.17265
G1 X136.22 Y112.493 E26.25646
G1 X136.109 Y113.842 E26.41889
G1 X136.028 Y114.652 E26.51657
G1 X135.924 Y115.348 E26.60102
G1 X135.616 Y116.899 E26.79077
G1 X135.427 Y117.645 E26.88312
G1 X135.162 Y118.367 E26.97541
G1 X134.824 Y119.058 E27.06772
G1 X134.415 Y119.709 E27.15998
G1 X134.085 Y120.131 E27.22427
G1 X133.984 Y121.072 E27.33783
G1 X133.822 Y121.825 E27.43026
G1 X133.584 Y122.556 E27.52251
G1 X133.271 Y123.258 E27.61475
G1 X132.928 Y123.861 E27.698
G1 X132.203 Y125.005 E27.86052
G1 X131.751 Y125.69 E27.959
G1 X131.335 Y126.259 E28.04359
G1 X130.342 Y127.488 E28.23319
G1 X129.828 Y128.06 E28.32547
G1 X129.258 Y128.576 E28.41774
G1 X128.637 Y129.03 E28.51005
G1 X127.972 Y129.417 E28.60238
G1 X127.484 Y129.636 E28.66656
G1 X126.976 Y130.402 E28.77686
G1 X126.485 Y130.995 E28.86925
G1 X125.936 Y131.534 E28.96157
G1 X125.335 Y132.013 E29.05379
G1 X124.725 Y132.404 E29.14074
G1 X123.438 Y133.144 E29.31889
G1 X122.846 Y133.471 E29.40005
G1 X122.207 Y133.784 E29.48543
G1 X120.756 Y134.412 E29.67516
G1 X120.035 Y134.681 E29.76751
G1 X119.291 Y134.873 E29.85971
G1 X118.53 Y134.987 E29.95205
G1 X117.762 Y135.021 E30.0443
G1 X117.224 Y134.989 E30.10897
G1 X116.393 Y135.439 E30.22238
G1 X115.683 Y135.734 E30.31464
G1 X114.946 Y135.954 E30.40693
G1 X114.19 Y136.095 E30.49922
G1 X113.496 Y136.155 E30.58281
G1 X112.143 Y136.208 E30.74529
G1 X111.331 Y136.226 E30.84276
G1 X110.63 Y136.208 E30.92691
G1 X109.055 Y136.091 E31.11643
G1 X108.292 Y135.994 E31.20872
G1 X107.543 Y135.818 E31.30105
G1 X106.816 Y135.566 E31.39338
G1 X106.12 Y135.24 E31.48561
G1 X105.65 Y134.957 E31.55145
G1 X104.688 Y134.968 E31.66689
G1 X103.923 Y134.897 E31.75909
G1 X103.168 Y134.747 E31.85146
G1 X102.434 Y134.519 E31.94369
G1 X101.813 Y134.258 E32.02452
G1 X100.59 Y133.677 E32.187
G1 X99.865 Y133.318 E32.28409
G1 X99.234 Y132.965 E32.37085
G1 X97.897 Y132.129 E32.56007
G1 X97.267 Y131.688 E32.65235
G1 X96.686 Y131.184 E32.74465
G1 X96.16 Y130.622 E32.83702
G1 X95.696 Y130.009 E32.92928
G1 X95.419 Y129.551 E32.99351
G1 X94.575 Y129.123 E33.10707
G1 X93.929 Y128.706 E33.19933
G1 X93.33 Y128.224 E33.29159
G1 X92.784 Y127.682 E33.38392
G1 X92.337 Y127.14 E33.46822
G1 X91.452 Y125.956 E33.64561
G1 X91.054 Y125.405 E33.72717
G1 X90.67 Y124.816 E33.81154
G1 X89.873 Y123.457 E34.0006
G1 X89.519 Y122.774 E34.09291
G1 X89.237 Y122.058 E34.18526
G1 X89.032 Y121.317 E34.27752
G1 X88.904 Y120.558 E34.36989
G1 X88.87 Y120.005 E34.43637
G1 X88.338 Y119.262 E34.54603
G1 X87.958 Y118.594 E34.63825
G1 X87.648 Y117.89 E34.73056
G1 X87.414 Y117.157 E34.82289
G1 X87.265 Y116.452 E34.90936
G1 X87.027 Y114.969 E35.0896
G1 X86.932 Y114.296 E35.17116
G1 X86.867 Y113.605 E35.25445
G1 X86.794 Y112.03 E35.44365
G1 X86.798 Y111.26 E35.53605
G1 X86.882 Y110.496 E35.62828
G1 X87.046 Y109.744 E35.72064
G1 X87.286 Y109.014 E35.81286
G1 X87.507 Y108.521 E35.87769
G1 X87.381 Y107.584 E35.99114
G1 X87.357 Y106.816 E36.08335
G1 X87.413 Y106.049 E36.17563
G1 X87.548 Y105.291 E36.26802
G1 X87.739 Y104.618 E36.35197
G1 X88.213 Y103.206 E36.5307
G1 X88.44 Y102.568 E36.61196
G1 X88.707 Y101.917 E36.6964
G1 X89.375 Y100.487 E36.8858
G1 X89.737 Y99.808 E36.97814
G1 X90.167 Y99.17 E37.07046
G1 X90.66 Y98.58 E37.16272
G1 X91.213 Y98.045 E37.25506
G1 X91.641 Y97.709 E37.32035
G1 X91.956 Y96.835 E37.43184
G1 X92.291 Y96.142 E37.5242
G1 X92.696 Y95.488 E37.61651
G1 X93.167 Y94.88 E37.7088
G1 X93.659 Y94.361 E37.79462
G0 F3600 X93.936 Y94.65
G1 F1800 X95.006 Y93.627 E37.97226
G1 X95.502 Y93.169 E38.05328
G1 X96.01 Y92.743 E38.13283
G1 X97.268 Y91.785 E38.32258
G1 X97.887 Y91.364 E38.41242
G1 X98.546 Y91.012 E38.50207
G1 X99.24 Y90.732 E38.59187
G1 X99.96 Y90.528 E38.68167
G1 X100.556 Y90.425 E38.75425
G1 X100.912 Y90.051 E38.81621
G1 X101.483 Y89.568 E38.90596
G1 X102.102 Y89.148 E38.99573
G1 X102.763 Y88.796 E39.08559
G1 X103.779 Y88.416 E39.21576
G1 X105.2 Y88.008 E39.39317
G1 X105.852 Y87.833 E39.47418
G1 X106.508 Y87.691 E39.55472
G1 X108.068 Y87.429 E39.74454
G1 X108.811 Y87.344 E39.83429
G1 X109.559 Y87.34 E39.92405
G1 X110.303 Y87.415 E40.01378
G1 X111.035 Y87.57 E40.10357
G1 X111.599 Y87.753 E40.17472
G1 X112.084 Y87.589 E40.23616
G1 X112.814 Y87.425 E40.32594
G1 X113.557 Y87.341 E40.41567
G1 X114.306 Y87.336 E40.50555
G1 X115.388 Y87.472 E40.63641
G1 X116.851 Y87.774 E40.81567
G1 X117.513 Y87.924 E40.89713
G1 X118.133 Y88.095 E40.97431
G1 X119.632 Y88.583 E41.16348
G1 X120.33 Y88.852 E41.25324
G1 X120.995 Y89.194 E41.34298
G1 X121.62 Y89.605 E41.43274
G1 X122.197 Y90.081 E41.5225
G1 X122.626 Y90.519 E41.59607
G1 X123.112 Y90.595 E41.6551
G1 X123.835 Y90.788 E41.7449
G1 X124.533 Y91.056 E41.83462
G1 X125.199 Y91.398 E41.92446
G1 X126.109 Y92.031 E42.05748
G1 X127.24 Y92.959 E42.23304
G1 X127.759 Y93.398 E42.31461
G1 X128.256 Y93.861 E42.39612
G1 X129.357 Y94.993 E42.58562
G1 X129.849 Y95.557 E42.67543
G1 X130.278 Y96.169 E42.76512
G1 X130.64 Y96.824 E42.85492
G1 X130.929 Y97.514 E42.94469
G1 X131.102 Y98.093 E43.01721
G1 X131.503 Y98.391 E43.07716
G1 X132.053 Y98.898 E43.16692
G1 X132.545 Y99.461 E43.25665
G1 X132.975 Y100.073 E43.3464
G1 X133.483 Y101.051 E43.47865
G1 X134.053 Y102.398 E43.65417
G1 X134.308 Y103.027 E43.73561
G1 X134.53 Y103.66 E43.81611
G1 X134.98 Y105.172 E44.00541
G1 X135.155 Y105.9 E44.09526
G1 X135.251 Y106.641 E44.18492
G1 X135.268 Y107.389 E44.27471
G1 X135.204 Y108.135 E44.36456
G1 X135.087 Y108.737 E44.43815
G1 X135.303 Y109.186 E44.49794
G1 X135.554 Y109.89 E44.58763
G1 X135.729 Y110.618 E44.67748
G1 X135.825 Y111.36 E44.76726
G1 X135.821 Y112.46 E44.89926
G1 X135.698 Y113.94 E45.07747
G1 X135.63 Y114.612 E45.15852
G1 X135.532 Y115.27 E45.23835
G1 X135.224 Y116.821 E45.42811
G1 X135.039 Y117.546 E45.5179
G1 X134.778 Y118.247 E45.60766
G1 X134.444 Y118.917 E45.69749
G1 X134.04 Y119.546 E45.7872
G1 X133.667 Y120.009 E45.85855
G1 X133.65 Y120.511 E45.91882
G1 X133.545 Y121.251 E46.00851
G1 X133.362 Y121.977 E46.09836
G1 X133.102 Y122.678 E46.18808
G1 X132.59 Y123.647 E46.31959
G1 X131.865 Y124.791 E46.48212
G1 X131.418 Y125.469 E46.57957
G1 X131.024 Y126.007 E46.65959
G1 X130.031 Y127.236 E46.84919
G1 X129.53 Y127.792 E46.939
G1 X128.973 Y128.292 E47.02882
G1 X128.366 Y128.729 E47.11858
G1 X127.716 Y129.098 E47.20827
G1 X127.174 Y129.334 E47.27921
G1 X126.939 Y129.75 E47.33654
G1 X126.504 Y130.359 E47.42635
G1 X126.007 Y130.918 E47.51611
G1 X125.453 Y131.42 E47.60582
G1 X124.764 Y131.921 E47.70805
G1 X123.351 Y132.734 E47.90367
G1 X122.653 Y133.12 E47.99939
G1 X122.048 Y133.417 E48.08026
G1 X120.597 Y134.045 E48.26999
G1 X119.896 Y134.305 E48.35971
G1 X119.171 Y134.489 E48.44947
G1 X118.43 Y134.594 E48.53928
G1 X117.683 Y134.62 E48.62897
G1 X117.087 Y134.576 E48.70069
G1 X116.666 Y134.846 E48.7607
G1 X115.997 Y135.181 E48.85049
G1 X115.296 Y135.442 E48.94025
G1 X114.571 Y135.627 E49.03004
G1 X113.48 Y135.756 E49.16187
G1 X112.127 Y135.809 E49.32435
G1 X111.323 Y135.826 E49.42085
G1 X110.659 Y135.809 E49.50056
G1 X109.084 Y135.692 E49.69008
G1 X108.342 Y135.597 E49.77985
G1 X107.615 Y135.423 E49.86955
G1 X106.91 Y135.172 E49.95935
G1 X106.236 Y134.848 E50.04909
G1 X105.718 Y134.527 E50.12222
G1 X105.207 Y134.571 E50.18377
G1 X104.459 Y134.554 E50.27355
G1 X103.717 Y134.458 E50.36333
G1 X102.99 Y134.283 E50.45307
G1 X101.984 Y133.897 E50.58237
G1 X100.761 Y133.316 E50.74485
G1 X100.043 Y132.96 E50.84102
G1 X99.446 Y132.626 E50.9231
G1 X98.109 Y131.79 E51.11233
G1 X97.497 Y131.36 E51.20208
G1 X96.934 Y130.868 E51.2918
G1 X96.427 Y130.317 E51.38166
G1 X95.981 Y129.716 E51.47147
G1 X95.681 Y129.205 E51.54257
G1 X95.219 Y129.011 E51.6027
G1 X94.563 Y128.65 E51.69255
G1 X93.95 Y128.221 E51.78234
G1 X93.386 Y127.73 E51.87207
G1 X92.657 Y126.9 E52.00464
G1 X91.777 Y125.722 E52.18108
G1 X91.379 Y125.171 E52.26265
G1 X91.015 Y124.613 E52.3426
G1 X90.218 Y123.254 E52.53165
G1 X89.874 Y122.59 E52.62139
G1 X89.604 Y121.892 E52.7112
G1 X89.409 Y121.17 E52.80094
G1 X89.293 Y120.431 E52.89071
G1 X89.263 Y119.822 E52.96388
G1 X88.961 Y119.46 E53.02045
G1 X88.546 Y118.837 E53.11028
G1 X88.2 Y118.174 E53.20002
G1 X87.927 Y117.478 E53.28973
G1 X87.66 Y116.388 E53.4244
G1 X87.423 Y114.913 E53.60367
G1 X87.328 Y114.24 E53.68523
G1 X87.267 Y113.586 E53.76405
G1 X87.194 Y112.011 E53.95326
