;FLAVOR:UltiGCode
;TIME:1707
;MATERIAL:2561
;MATERIAL2:0
;NOZZLE_DIAMETER:0.4
;MINX:89.619
;MINY:80.582
;MINZ:0.3
;MAXX:133.382
;MAXY:142.418
;MAXZ:8.25
;Generated with Cura_SteamEngine 5.2.1
M82 ;absolute extrusion mode
G0 F3000 Y50 ;avoid prime blob
G92 E0
G92 E0
G10
;LAYER_COUNT:54
;LAYER:0
M107
G0 F3600 X92.862 Y84.91 Z0.3
;TYPE:SKIRT
G11
G1 F1800 X93.393 Y84.326 E0.09472
G1 X93.938 Y83.833 E0.18291
G1 X94.702 Y83.205 E0.30158
G1 X95.337 Y82.735 E0.39638
G1 X95.969 Y82.357 E0.48475
G1 X96.823 Y81.899 E0.60104
G1 X97.536 Y81.562 E0.69568
G1 X98.238 Y81.311 E0.78514
G1 X99.214 Y81.014 E0.90756
G1 X99.98 Y80.822 E1.00233
G1 X100.738 Y80.712 E1.09424
G1 X101.715 Y80.618 E1.21202
G1 X102.504 Y80.582 E1.3068
G1 X103.24 Y80.621 E1.39524
G1 X104.218 Y80.719 E1.51319
G1 X104.998 Y80.837 E1.60786
G1 X105.707 Y81.017 E1.69564
G1 X106.642 Y81.301 E1.8129
G1 X107.385 Y81.568 E1.90764
G1 X108.047 Y81.882 E1.99556
G1 X108.911 Y82.343 E2.11308
G1 X109.588 Y82.75 E2.20787
G1 X110.184 Y83.193 E2.29698
G1 X110.955 Y83.825 E2.41661
G1 X111.539 Y84.356 E2.51133
G1 X112.048 Y84.919 E2.60241
G1 X112.685 Y85.698 E2.72316
G1 X113.154 Y86.334 E2.81799
G1 X113.537 Y86.981 E2.90821
G1 X113.998 Y87.85 E3.02626
G1 X114.333 Y88.565 E3.12101
G1 X114.573 Y89.245 E3.20754
G1 X114.853 Y90.17 E3.32352
G1 X115.044 Y90.937 E3.41837
G1 X115.15 Y91.664 E3.50653
G1 X115.247 Y92.647 E3.62506
G1 X115.285 Y93.436 E3.71985
G1 X115.249 Y94.166 E3.80756
G1 X115.154 Y95.146 E3.92571
G1 X115.038 Y95.927 E4.02046
G1 X114.859 Y96.642 E4.1089
G1 X114.578 Y97.575 E4.22583
G1 X114.312 Y98.319 E4.32065
G1 X113.998 Y98.985 E4.409
G1 X113.538 Y99.851 E4.52668
G1 X113.132 Y100.529 E4.62151
G1 X112.678 Y101.141 E4.71295
G1 X112.05 Y101.905 E4.83163
G1 X112.804 Y101.287 E4.94861
G1 X113.439 Y100.817 E5.04342
G1 X114.059 Y100.445 E5.13018
G1 X114.913 Y99.986 E5.24652
G1 X115.627 Y99.648 E5.34132
G1 X116.342 Y99.393 E5.43241
G1 X117.318 Y99.097 E5.5548
G1 X118.085 Y98.906 E5.64965
G1 X118.836 Y98.797 E5.74072
G1 X119.814 Y98.703 E5.85862
G1 X120.603 Y98.667 E5.9534
G1 X121.338 Y98.706 E6.04172
G1 X122.315 Y98.804 E6.15955
G1 X123.096 Y98.922 E6.25433
G1 X123.797 Y99.099 E6.34109
G1 X124.732 Y99.382 E6.45832
G1 X125.475 Y99.649 E6.55306
G1 X126.147 Y99.968 E6.64233
G1 X127.012 Y100.43 E6.76
G1 X127.689 Y100.837 E6.85479
G1 X128.273 Y101.27 E6.94204
G1 X129.028 Y101.887 E7.05904
G1 X129.613 Y102.417 E7.15377
G1 X130.12 Y102.977 E7.24442
G1 X130.772 Y103.771 E7.3677
G1 X131.242 Y104.406 E7.46251
G1 X131.633 Y105.062 E7.55415
G1 X132.094 Y105.93 E7.67209
G1 X132.428 Y106.646 E7.7669
G1 X132.67 Y107.329 E7.85385
G1 X132.95 Y108.254 E7.96982
G1 X133.141 Y109.021 E8.06467
G1 X133.247 Y109.748 E8.15284
G1 X133.344 Y110.731 E8.27137
G1 X133.382 Y111.52 E8.36616
G1 X133.346 Y112.25 E8.45386
G1 X133.251 Y113.23 E8.57202
G1 X133.135 Y114.011 E8.66676
G1 X132.956 Y114.726 E8.75521
G1 X132.675 Y115.659 E8.87214
G1 X132.409 Y116.403 E8.96695
G1 X132.096 Y117.066 E9.05493
G1 X131.636 Y117.933 E9.17271
G1 X131.231 Y118.611 E9.26748
G1 X130.775 Y119.226 E9.35935
G1 X130.124 Y120.019 E9.48247
G1 X129.592 Y120.603 E9.57727
G1 X129.033 Y121.108 E9.66767
G1 X128.276 Y121.727 E9.78501
G1 X127.64 Y122.196 E9.87984
G1 X127.015 Y122.568 E9.96712
G1 X126.147 Y123.032 E10.08523
G1 X125.433 Y123.368 E10.17992
G1 X124.725 Y123.62 E10.2701
G1 X123.788 Y123.903 E10.38756
G1 X123.022 Y124.093 E10.48227
G1 X122.298 Y124.198 E10.57005
G1 X121.314 Y124.295 E10.68871
G1 X120.525 Y124.333 E10.7835
G1 X119.802 Y124.297 E10.87036
G1 X118.836 Y124.204 E10.98682
G1 X118.054 Y124.089 E11.08167
G1 X117.317 Y123.904 E11.17285
G1 X116.342 Y123.608 E11.29513
G1 X115.599 Y123.34 E11.38991
G1 X114.902 Y123.008 E11.48255
G1 X114.037 Y122.541 E11.60051
G1 X113.362 Y122.131 E11.69529
G1 X112.789 Y121.702 E11.78118
G1 X112.06 Y121.103 E11.89441
G1 X112.685 Y121.867 E12.01285
G1 X113.154 Y122.503 E12.10768
G1 X113.536 Y123.146 E12.19743
G1 X113.997 Y124.014 E12.31537
G1 X114.331 Y124.73 E12.41018
G1 X114.573 Y125.413 E12.49713
G1 X114.853 Y126.338 E12.61311
G1 X115.044 Y127.105 E12.70796
G1 X115.15 Y127.832 E12.79612
G1 X115.247 Y128.815 E12.91465
G1 X115.285 Y129.604 E13.00944
G1 X115.249 Y130.334 E13.09715
G1 X115.154 Y131.314 E13.2153
G1 X115.038 Y132.095 E13.31005
G1 X114.859 Y132.81 E13.39849
G1 X114.578 Y133.743 E13.51542
G1 X114.312 Y134.487 E13.61024
G1 X113.999 Y135.15 E13.69822
G1 X113.539 Y136.017 E13.81599
G1 X113.134 Y136.695 E13.91076
G1 X112.678 Y137.31 E14.00264
G1 X112.027 Y138.103 E14.12576
G1 X111.495 Y138.687 E14.22055
G1 X110.94 Y139.188 E14.31028
G1 X110.183 Y139.808 E14.4277
G1 X109.548 Y140.277 E14.52243
G1 X108.912 Y140.656 E14.61127
G1 X108.044 Y141.119 E14.72932
G1 X107.329 Y141.455 E14.82412
G1 X106.635 Y141.702 E14.91252
G1 X105.698 Y141.986 E15.03001
G1 X104.932 Y142.176 E15.12472
G1 X104.2 Y142.283 E15.21349
G1 X103.215 Y142.38 E15.33226
G1 X102.427 Y142.418 E15.42693
G1 X101.703 Y142.382 E15.51392
G1 X100.738 Y142.289 E15.63026
G1 X99.957 Y142.174 E15.72499
G1 X99.215 Y141.987 E15.81681
G1 X98.239 Y141.69 E15.93923
G1 X97.496 Y141.422 E16.03402
G1 X96.811 Y141.095 E16.1251
G1 X95.946 Y140.629 E16.24301
G1 X95.27 Y140.22 E16.33782
G1 X94.683 Y139.78 E16.42585
G1 X93.925 Y139.155 E16.54374
G1 X93.342 Y138.623 E16.63845
G1 X92.857 Y138.084 E16.72546
G1 X92.236 Y137.327 E16.84296
G1 X91.766 Y136.692 E16.93776
G1 X91.387 Y136.056 E17.0266
G1 X90.921 Y135.184 E17.14525
G1 X90.584 Y134.47 E17.23999
G1 X90.338 Y133.78 E17.3279
G1 X90.057 Y132.857 E17.44368
G1 X89.866 Y132.091 E17.53841
G1 X89.756 Y131.347 E17.62866
G1 X89.656 Y130.328 E17.75153
G1 X89.619 Y129.539 E17.84631
G1 X89.658 Y128.784 E17.93703
G1 X89.757 Y127.802 E18.05547
G1 X89.876 Y127.021 E18.15027
G1 X90.06 Y126.301 E18.23945
G1 X90.345 Y125.37 E18.35629
G1 X90.614 Y124.627 E18.45111
G1 X90.931 Y123.963 E18.53941
G1 X91.396 Y123.097 E18.65736
G1 X91.804 Y122.421 E18.75211
G1 X92.239 Y121.838 E18.8394
G1 X92.862 Y121.079 E18.95723
G1 X93.348 Y120.544 E19.04396
G1 X92.857 Y120 E19.1319
G1 X92.236 Y119.243 E19.2494
G1 X91.766 Y118.608 E19.3442
G1 X91.387 Y117.972 E19.43304
G1 X90.921 Y117.1 E19.55169
G1 X90.584 Y116.386 E19.64643
G1 X90.338 Y115.696 E19.73434
G1 X90.057 Y114.773 E19.85012
G1 X89.866 Y114.007 E19.94485
G1 X89.756 Y113.263 E20.0351
G1 X89.656 Y112.244 E20.15797
G1 X89.619 Y111.455 E20.25275
G1 X89.658 Y110.7 E20.34347
G1 X89.757 Y109.718 E20.46191
G1 X89.876 Y108.937 E20.55671
G1 X90.06 Y108.217 E20.64589
G1 X90.345 Y107.286 E20.76273
G1 X90.614 Y106.543 E20.85755
G1 X90.929 Y105.882 E20.94542
G1 X91.394 Y105.015 E21.06348
G1 X91.802 Y104.339 E21.15823
G1 X92.239 Y103.753 E21.24595
G1 X92.862 Y102.994 E21.36378
G1 X93.348 Y102.46 E21.45042
G1 X92.856 Y101.914 E21.53862
G1 X92.236 Y101.158 E21.65595
G1 X91.767 Y100.523 E21.75068
G1 X91.391 Y99.894 E21.83862
G1 X90.924 Y99.022 E21.95732
G1 X90.587 Y98.308 E22.05206
G1 X90.338 Y97.612 E22.14076
G1 X90.057 Y96.689 E22.25654
G1 X89.866 Y95.923 E22.35128
G1 X89.756 Y95.179 E22.44153
G1 X89.656 Y94.16 E22.5644
G1 X89.619 Y93.371 E22.65918
G1 X89.658 Y92.616 E22.7499
G1 X89.757 Y91.634 E22.86834
G1 X89.876 Y90.853 E22.96314
G1 X90.059 Y90.135 E23.05205
G1 X90.344 Y89.203 E23.16901
G1 X90.613 Y88.461 E23.26372
G1 X90.931 Y87.794 E23.35239
G1 X91.396 Y86.928 E23.47034
G1 X91.804 Y86.252 E23.56509
G1 X92.239 Y85.669 E23.65238
G1 X92.862 Y84.91 E23.77021
G0 F3600 X93.171 Y85.164
G1 F1800 X93.689 Y84.596 E23.86246
G1 X94.192 Y84.142 E23.94377
G1 X94.956 Y83.514 E24.06245
G1 X95.575 Y83.058 E24.15471
G1 X96.158 Y82.71 E24.23618
G1 X97.012 Y82.252 E24.35247
G1 X97.707 Y81.924 E24.44469
G1 X98.355 Y81.694 E24.52721
G1 X99.331 Y81.397 E24.64963
G1 X100.077 Y81.211 E24.74189
G1 X100.776 Y81.11 E24.82664
G1 X101.753 Y81.016 E24.94442
G1 X102.522 Y80.982 E25.03679
G1 X103.2 Y81.019 E25.11827
G1 X104.178 Y81.117 E25.23622
G1 X104.938 Y81.233 E25.32848
G1 X105.591 Y81.399 E25.40933
G1 X106.526 Y81.683 E25.52659
G1 X107.249 Y81.945 E25.61887
G1 X107.859 Y82.235 E25.69992
G1 X108.723 Y82.696 E25.81744
G1 X109.381 Y83.093 E25.90966
G1 X109.93 Y83.502 E25.99181
G1 X110.701 Y84.134 E26.11144
G1 X111.27 Y84.652 E26.20378
G1 X111.739 Y85.173 E26.2879
G1 X112.376 Y85.952 E26.40865
G1 X112.831 Y86.572 E26.50094
G1 X113.184 Y87.168 E26.58406
G1 X113.645 Y88.037 E26.7021
G1 X113.97 Y88.734 E26.79439
G1 X114.191 Y89.361 E26.87417
G1 X114.471 Y90.286 E26.99014
G1 X114.655 Y91.033 E27.08246
G1 X114.752 Y91.703 E27.1637
G1 X114.849 Y92.686 E27.28223
G1 X114.885 Y93.455 E27.37461
G1 X114.85 Y94.127 E27.45536
G1 X114.755 Y95.107 E27.57351
G1 X114.642 Y95.868 E27.66583
G1 X114.476 Y96.527 E27.74738
G1 X114.195 Y97.46 E27.86431
G1 X113.935 Y98.184 E27.95662
G1 X113.644 Y98.797 E28.03805
G1 X113.184 Y99.663 E28.15572
G1 X112.789 Y100.323 E28.24802
G1 X112.369 Y100.887 E28.33241
G1 X111.718 Y101.68 E28.45553
G1 X110.988 Y102.481 E28.58558
G1 X111.5 Y102.994 E28.67255
G1 X111.786 Y102.68 E28.72352
G1 X112.293 Y102.223 E28.80543
G1 X113.057 Y101.596 E28.92403
G1 X113.677 Y101.139 E29.01645
G1 X114.249 Y100.798 E29.09637
G1 X115.103 Y100.339 E29.21271
G1 X115.798 Y100.01 E29.30498
G1 X116.458 Y99.776 E29.38901
G1 X117.434 Y99.48 E29.5114
G1 X118.181 Y99.295 E29.60375
G1 X118.874 Y99.195 E29.68777
G1 X119.852 Y99.101 E29.80567
G1 X120.62 Y99.067 E29.89792
G1 X121.299 Y99.104 E29.97952
G1 X122.276 Y99.202 E30.09735
G1 X123.036 Y99.318 E30.18961
G1 X123.681 Y99.482 E30.26947
G1 X124.616 Y99.765 E30.3867
G1 X125.339 Y100.026 E30.47894
G1 X125.958 Y100.321 E30.56122
G1 X126.823 Y100.783 E30.6789
G1 X127.482 Y101.18 E30.77122
G1 X128.02 Y101.58 E30.85167
G1 X128.775 Y102.197 E30.96867
G1 X129.344 Y102.714 E31.06093
G1 X129.811 Y103.231 E31.14453
G1 X130.463 Y104.025 E31.26782
G1 X130.919 Y104.644 E31.36008
G1 X131.279 Y105.25 E31.44466
G1 X131.74 Y106.118 E31.5626
G1 X132.065 Y106.815 E31.65489
G1 X132.288 Y107.445 E31.73508
G1 X132.568 Y108.37 E31.85106
G1 X132.752 Y109.117 E31.94338
G1 X132.849 Y109.787 E32.02462
G1 X132.946 Y110.77 E32.14315
G1 X132.982 Y111.539 E32.23553
G1 X132.947 Y112.211 E32.31628
G1 X132.852 Y113.191 E32.43443
G1 X132.739 Y113.952 E32.52675
G1 X132.573 Y114.611 E32.6083
G1 X132.292 Y115.544 E32.72523
G1 X132.032 Y116.268 E32.81754
G1 X131.743 Y116.878 E32.89854
G1 X131.283 Y117.745 E33.01632
G1 X130.888 Y118.405 E33.10862
G1 X130.466 Y118.972 E33.19344
G1 X129.815 Y119.765 E33.31655
G1 X129.296 Y120.334 E33.40897
G1 X128.779 Y120.799 E33.49241
G1 X128.022 Y121.418 E33.60976
G1 X127.402 Y121.873 E33.70204
G1 X126.827 Y122.215 E33.78232
G1 X125.959 Y122.679 E33.90043
G1 X125.262 Y123.006 E33.99282
G1 X124.61 Y123.237 E34.07582
G1 X123.673 Y123.52 E34.19328
G1 X122.926 Y123.704 E34.2856
G1 X122.259 Y123.8 E34.36647
G1 X121.275 Y123.897 E34.48512
G1 X120.507 Y123.933 E34.57738
G1 X119.84 Y123.899 E34.65752
G1 X118.874 Y123.806 E34.77398
G1 X118.113 Y123.693 E34.8663
G1 X117.433 Y123.521 E34.95047
G1 X116.458 Y123.225 E35.07274
G1 X115.735 Y122.963 E35.16502
G1 X115.092 Y122.656 E35.25053
G1 X114.227 Y122.189 E35.36849
G1 X113.571 Y121.789 E35.46069
G1 X113.044 Y121.393 E35.53979
G1 X112.285 Y120.769 E35.6577
G1 X111.474 Y120.03 E35.78937
G1 X110.966 Y120.544 E35.87609
G1 X111.27 Y120.821 E35.92544
G1 X111.739 Y121.342 E36.00956
G1 X112.376 Y122.121 E36.13031
G1 X112.831 Y122.741 E36.2226
G1 X113.182 Y123.334 E36.30529
G1 X113.643 Y124.202 E36.42323
G1 X113.968 Y124.899 E36.51551
G1 X114.191 Y125.529 E36.59571
G1 X114.471 Y126.454 E36.71169
G1 X114.655 Y127.201 E36.804
G1 X114.752 Y127.871 E36.88524
G1 X114.849 Y128.854 E37.00378
G1 X114.885 Y129.623 E37.09616
G1 X114.85 Y130.295 E37.17691
G1 X114.755 Y131.275 E37.29506
G1 X114.642 Y132.036 E37.38738
G1 X114.476 Y132.695 E37.46893
G1 X114.195 Y133.628 E37.58586
G1 X113.935 Y134.352 E37.67817
G1 X113.646 Y134.962 E37.75917
G1 X113.186 Y135.829 E37.87695
G1 X112.791 Y136.489 E37.96925
G1 X112.369 Y137.056 E38.05406
G1 X111.718 Y137.849 E38.17718
G1 X111.199 Y138.418 E38.2696
G1 X110.687 Y138.879 E38.35227
G1 X109.93 Y139.499 E38.46969
G1 X109.31 Y139.955 E38.56205
G1 X108.724 Y140.303 E38.64383
G1 X107.856 Y140.766 E38.76189
G1 X107.159 Y141.092 E38.85422
G1 X106.519 Y141.319 E38.93571
G1 X105.582 Y141.603 E39.0532
G1 X104.836 Y141.787 E39.1454
G1 X104.161 Y141.885 E39.22725
G1 X103.176 Y141.982 E39.34602
G1 X102.408 Y142.018 E39.43829
G1 X101.741 Y141.984 E39.51843
G1 X100.776 Y141.891 E39.63477
G1 X100.015 Y141.777 E39.72711
G1 X99.332 Y141.604 E39.81165
G1 X98.356 Y141.307 E39.93408
G1 X97.632 Y141.046 E40.02643
G1 X97 Y140.743 E40.11053
G1 X96.135 Y140.277 E40.22844
G1 X95.478 Y139.877 E40.32074
G1 X94.937 Y139.471 E40.40191
G1 X94.179 Y138.846 E40.5198
G1 X93.612 Y138.327 E40.61204
G1 X93.166 Y137.83 E40.69218
G1 X92.545 Y137.073 E40.80967
G1 X92.089 Y136.454 E40.90193
G1 X91.739 Y135.868 E40.98384
G1 X91.273 Y134.996 E41.10248
G1 X90.947 Y134.3 E41.19471
G1 X90.721 Y133.663 E41.27582
G1 X90.44 Y132.74 E41.3916
G1 X90.254 Y131.994 E41.48386
G1 X90.154 Y131.308 E41.56705
G1 X90.054 Y130.289 E41.68992
G1 X90.019 Y129.52 E41.78229
G1 X90.056 Y128.824 E41.86593
G1 X90.155 Y127.842 E41.98437
G1 X90.272 Y127.082 E42.07664
G1 X90.442 Y126.418 E42.15889
G1 X90.727 Y125.487 E42.27573
G1 X90.99 Y124.764 E42.36805
G1 X91.283 Y124.152 E42.44947
G1 X91.748 Y123.286 E42.56743
G1 X92.147 Y122.628 E42.65977
G1 X92.548 Y122.092 E42.7401
G1 X93.171 Y121.333 E42.85793
G1 X93.887 Y120.548 E42.98543
G1 X93.166 Y119.746 E43.11484
G1 X92.545 Y118.989 E43.23234
G1 X92.089 Y118.37 E43.3246
G1 X91.739 Y117.784 E43.40651
G1 X91.273 Y116.912 E43.52515
G1 X90.947 Y116.216 E43.61738
G1 X90.721 Y115.579 E43.69849
G1 X90.44 Y114.656 E43.81427
G1 X90.254 Y113.91 E43.90653
G1 X90.154 Y113.224 E43.98972
G1 X90.054 Y112.205 E44.11258
G1 X90.019 Y111.436 E44.20496
G1 X90.056 Y110.74 E44.2886
G1 X90.155 Y109.758 E44.40703
G1 X90.272 Y108.998 E44.49931
G1 X90.442 Y108.334 E44.58156
G1 X90.727 Y107.403 E44.6984
G1 X90.99 Y106.68 E44.79072
G1 X91.282 Y106.071 E44.87176
G1 X91.747 Y105.204 E44.98982
G1 X92.145 Y104.546 E45.0821
G1 X92.548 Y104.007 E45.16286
G1 X93.171 Y103.248 E45.2807
G1 X93.887 Y102.463 E45.4082
G1 X93.165 Y101.661 E45.53769
G1 X92.545 Y100.905 E45.65502
G1 X92.089 Y100.285 E45.74737
G1 X91.744 Y99.706 E45.82825
G1 X91.277 Y98.834 E45.94695
G1 X90.949 Y98.138 E46.03928
G1 X90.721 Y97.495 E46.12115
G1 X90.44 Y96.572 E46.23693
G1 X90.254 Y95.826 E46.32919
G1 X90.154 Y95.14 E46.41238
G1 X90.054 Y94.121 E46.53525
G1 X90.019 Y93.352 E46.62762
G1 X90.056 Y92.656 E46.71126
G1 X90.155 Y91.674 E46.8297
G1 X90.272 Y90.914 E46.92197
G1 X90.441 Y90.252 E47.00396
G1 X90.726 Y89.32 E47.12091
G1 X90.989 Y88.597 E47.21323
G1 X91.283 Y87.983 E47.29492
G1 X91.748 Y87.117 E47.41288
G1 X92.147 Y86.459 E47.50522
G1 X92.548 Y85.923 E47.58555
G1 X93.171 Y85.164 E47.70338
G0 F3600 X93.48 Y85.418
G1 F1800 X93.985 Y84.866 E47.79316
G1 X94.446 Y84.451 E47.86759
G1 X95.21 Y83.823 E47.98627
G1 X95.812 Y83.38 E48.07596
G1 X96.347 Y83.062 E48.15065
G1 X97.201 Y82.604 E48.26693
G1 X97.878 Y82.286 E48.35669
G1 X98.471 Y82.076 E48.43218
G1 X99.447 Y81.779 E48.5546
G1 X100.173 Y81.6 E48.64433
G1 X100.815 Y81.508 E48.72216
G1 X101.792 Y81.414 E48.83994
G1 X102.539 Y81.382 E48.92966
G1 X103.16 Y81.417 E49.0043
G1 X104.138 Y81.515 E49.12225
G1 X104.877 Y81.629 E49.21198
G1 X105.474 Y81.782 E49.28593
G1 X106.409 Y82.066 E49.4032
G1 X107.113 Y82.322 E49.49309
G1 X107.67 Y82.588 E49.56716
G1 X108.534 Y83.049 E49.68467
G1 X109.174 Y83.436 E49.77442
G1 X109.677 Y83.811 E49.84971
G1 X110.448 Y84.443 E49.96934
G1 X111 Y84.948 E50.05912
G1 X111.429 Y85.426 E50.13619
G1 X112.066 Y86.205 E50.25695
G1 X112.508 Y86.808 E50.34667
G1 X112.831 Y87.356 E50.423
G1 X113.292 Y88.225 E50.54104
G1 X113.607 Y88.903 E50.63076
G1 X113.808 Y89.477 E50.70374
G1 X114.088 Y90.402 E50.81971
G1 X114.266 Y91.128 E50.90941
G1 X114.354 Y91.743 E50.98396
G1 X114.451 Y92.726 E51.1025
G1 X114.485 Y93.473 E51.19223
G1 X114.452 Y94.088 E51.26613
G1 X114.357 Y95.068 E51.38429
G1 X114.245 Y95.808 E51.4741
G1 X114.093 Y96.412 E51.54884
G1 X113.812 Y97.345 E51.66576
G1 X113.558 Y98.048 E51.75546
G1 X113.291 Y98.61 E51.83013
