;FLAVOR:UltiGCode
;TIME:2212
;MATERIAL:2247
;MATERIAL2:0
;NOZZLE_DIAMETER:0.4
;MINX:93.836
;MINY:84.799
;MINZ:0.3
;MAXX:129.166
;MAXY:138.202
;MAXZ:8.3
;Generated with Cura_SteamEngine 5.2.1
M82 ;absolute extrusion mode
G0 F3000 Y50 ;avoid prime blob
G92 E0
G92 E0
G10
;LAYER_COUNT:81
;LAYER:0
M107
G0 F3600 X96.159 Y87.523 Z0.3
;TYPE:SKIRT
G11
G1 F1800 X96.586 Y87.098 E0.07229
G1 X97.019 Y86.735 E0.1401
G1 X97.41 Y86.423 E0.20013
G1 X97.903 Y86.092 E0.27138
G1 X98.422 Y85.805 E0.34255
G1 X98.868 Y85.576 E0.40271
G1 X99.4 Y85.355 E0.47184
G1 X99.945 Y85.18 E0.54053
G1 X100.482 Y85.025 E0.6076
G1 X101.08 Y84.906 E0.68077
G1 X102.061 Y84.799 E0.79919
G1 X102.768 Y84.8 E0.88403
G1 X103.309 Y84.847 E0.94919
G1 X103.837 Y84.907 E1.01296
G1 X104.425 Y85.024 E1.0849
G1 X105.343 Y85.289 E1.19956
G1 X106.104 Y85.601 E1.29826
G1 X106.972 Y86.076 E1.41699
G1 X107.58 Y86.479 E1.50453
G1 X108.32 Y87.102 E1.62061
G1 X108.745 Y87.527 E1.69273
G1 X109.194 Y88.062 E1.77654
G1 X109.577 Y88.546 E1.85061
G1 X111.327 Y90.691 E2.18281
G1 X113.122 Y92.769 E2.51232
G1 X114.96 Y94.778 E2.83907
G1 X116.84 Y96.721 E3.1635
G1 X118.816 Y98.65 E3.49488
G1 X120.808 Y100.488 E3.82013
G1 X122.855 Y102.271 E4.14589
G1 X125.208 Y104.203 E4.51123
G1 X125.992 Y104.828 E4.63155
G1 X126.391 Y105.162 E4.69399
G1 X126.831 Y105.6 E4.76849
G1 X127.487 Y106.381 E4.89088
G1 X127.888 Y106.981 E4.97748
G1 X128.144 Y107.446 E5.04118
G1 X128.403 Y107.951 E5.10929
G1 X128.615 Y108.459 E5.17534
G1 X128.772 Y108.944 E5.23651
G1 X128.938 Y109.52 E5.30845
G1 X129.054 Y110.097 E5.37907
G1 X129.123 Y110.696 E5.45143
G1 X129.165 Y111.201 E5.51224
G1 X129.166 Y111.901 E5.59624
G1 X129.062 Y112.86 E5.71199
G1 X128.927 Y113.553 E5.79672
G1 X128.632 Y114.494 E5.91505
G1 X128.366 Y115.146 E5.99955
G1 X127.904 Y115.995 E6.11554
G1 X127.567 Y116.503 E6.1887
G1 X127.166 Y117.006 E6.26589
G1 X126.843 Y117.388 E6.32592
G1 X126.41 Y117.82 E6.39932
G1 X126.015 Y118.152 E6.46124
G1 X125.362 Y118.671 E6.56133
G1 X123.201 Y120.433 E6.89593
G1 X121.154 Y122.199 E7.22035
G1 X119.123 Y124.055 E7.55051
G1 X117.185 Y125.931 E7.87418
G1 X115.27 Y127.892 E8.20309
G1 X113.419 Y129.896 E8.53046
G1 X111.617 Y131.964 E8.85961
G1 X109.7 Y134.298 E9.22205
G1 X109.112 Y135.038 E9.33547
G1 X108.736 Y135.482 E9.40529
G1 X108.32 Y135.896 E9.47572
G1 X107.577 Y136.522 E9.5923
G1 X106.987 Y136.916 E9.67744
G1 X106.513 Y137.177 E9.74237
G1 X106.014 Y137.433 E9.80967
G1 X105.485 Y137.653 E9.87842
G1 X104.938 Y137.829 E9.94738
G1 X104.416 Y137.978 E10.01252
G1 X103.711 Y138.118 E10.09877
G1 X102.75 Y138.2 E10.21451
G1 X102.051 Y138.202 E10.29839
G1 X101.099 Y138.099 E10.4133
G1 X100.496 Y137.98 E10.48705
G1 X99.994 Y137.835 E10.54976
G1 X99.411 Y137.649 E10.62319
G1 X98.747 Y137.373 E10.70948
G1 X97.902 Y136.905 E10.82539
G1 X97.425 Y136.587 E10.89419
G1 X96.964 Y136.221 E10.96482
G1 X96.545 Y135.864 E11.03088
G1 X96.052 Y135.369 E11.11471
G1 X95.439 Y134.598 E11.23291
G1 X95.107 Y134.097 E11.30503
G1 X94.839 Y133.608 E11.37195
G1 X94.609 Y133.162 E11.43217
G1 X94.339 Y132.515 E11.51629
G1 X94.066 Y131.581 E11.63306
G1 X93.948 Y130.986 E11.70586
G1 X93.836 Y129.978 E11.82756
G1 X93.838 Y129.244 E11.91564
G1 X94.068 Y126.139 E12.28926
G1 X94.188 Y123.414 E12.61658
G1 X94.231 Y120.684 E12.94422
G1 X94.196 Y117.951 E13.2722
G1 X94.086 Y115.227 E13.59935
G1 X93.897 Y112.511 E13.92606
G1 X93.836 Y111.771 E14.01516
G1 X93.838 Y111.162 E14.08824
G1 X94.068 Y108.055 E14.4621
G1 X94.188 Y105.33 E14.78942
G1 X94.231 Y102.6 E15.11706
G1 X94.196 Y99.867 E15.44505
G1 X94.086 Y97.143 E15.77219
G1 X93.894 Y94.38 E16.10455
G1 X93.837 Y93.704 E16.18596
G1 X93.837 Y93.093 E16.25928
G1 X93.881 Y92.584 E16.32059
G1 X93.945 Y92.013 E16.38954
G1 X94.067 Y91.409 E16.46348
G1 X94.218 Y90.897 E16.52754
G1 X94.381 Y90.387 E16.59179
G1 X94.648 Y89.74 E16.67578
G1 X95.118 Y88.885 E16.79286
G1 X95.511 Y88.292 E16.87823
G1 X96.159 Y87.523 E16.9989
G0 F3600 X96.464 Y87.782
G1 F1800 X96.918 Y87.329 E17.07586
G1 X97.659 Y86.736 E17.18975
G1 X98.097 Y86.442 E17.25305
G1 X98.604 Y86.161 E17.32261
G1 X99.05 Y85.932 E17.38277
G1 X99.641 Y85.687 E17.45955
G1 X100.593 Y85.41 E17.57852
G1 X101.125 Y85.304 E17.64362
G1 X102.091 Y85.198 E17.76024
G1 X102.734 Y85.198 E17.8374
G1 X103.264 Y85.244 E17.90123
G1 X103.792 Y85.304 E17.965
G1 X104.428 Y85.431 E18.04283
G1 X105.331 Y85.716 E18.15646
G1 X105.813 Y85.913 E18.21894
G1 X106.29 Y86.157 E18.28324
G1 X106.779 Y86.426 E18.35021
G1 X107.22 Y86.719 E18.41374
G1 X107.966 Y87.311 E18.52803
G1 X108.44 Y87.785 E18.60847
G1 X108.881 Y88.31 E18.69075
G1 X109.267 Y88.798 E18.76541
G1 X111.045 Y90.977 E19.10289
G1 X112.808 Y93.018 E19.42653
G1 X114.66 Y95.043 E19.75583
G1 X116.556 Y97.003 E20.08307
G1 X118.565 Y98.964 E20.41996
G1 X120.519 Y100.766 E20.73893
G1 X122.604 Y102.582 E21.07073
G1 X124.954 Y104.512 E21.43564
G1 X125.735 Y105.134 E21.55545
G1 X126.134 Y105.468 E21.61789
G1 X126.525 Y105.858 E21.68416
G1 X127.173 Y106.628 E21.80493
G1 X127.537 Y107.174 E21.88367
G1 X127.998 Y108.014 E21.99866
G1 X128.291 Y108.719 E22.09027
G1 X128.554 Y109.631 E22.20417
G1 X128.657 Y110.144 E22.26696
G1 X128.724 Y110.729 E22.33762
G1 X128.766 Y111.234 E22.39843
G1 X128.767 Y111.752 E22.46059
G1 X128.723 Y112.291 E22.52548
G1 X128.665 Y112.816 E22.58887
G1 X128.563 Y113.337 E22.65257
G1 X128.417 Y113.848 E22.71635
G1 X128.251 Y114.374 E22.78254
G1 X128.052 Y114.86 E22.84556
G1 X127.808 Y115.337 E22.90985
G1 X127.553 Y115.803 E22.9736
G1 X127.254 Y116.255 E23.03863
G1 X126.925 Y116.67 E23.10218
G1 X126.538 Y117.13 E23.17432
G1 X126.153 Y117.514 E23.23957
G1 X125.687 Y117.904 E23.31249
G1 X125.075 Y118.389 E23.40619
G1 X122.95 Y120.122 E23.73524
G1 X120.887 Y121.902 E24.06221
G1 X118.86 Y123.754 E24.39169
G1 X116.903 Y125.647 E24.71842
G1 X114.956 Y127.642 E25.05294
G1 X113.124 Y129.625 E25.3769
G1 X111.305 Y131.714 E25.7093
G1 X109.386 Y134.049 E26.07198
G1 X108.798 Y134.789 E26.1854
G1 X108.431 Y135.222 E26.25352
G1 X108.062 Y135.591 E26.31614
G1 X107.329 Y136.209 E26.43119
G1 X106.793 Y136.566 E26.50847
G1 X106.331 Y136.821 E26.57179
G1 X105.832 Y137.077 E26.63909
G1 X105.24 Y137.324 E26.71607
G1 X104.306 Y137.593 E26.83271
G1 X103.793 Y137.695 E26.89547
G1 X102.845 Y137.802 E27.00995
G1 X102.196 Y137.803 E27.08783
G1 X101.658 Y137.759 E27.15261
G1 X101.143 Y137.702 E27.21479
G1 X100.607 Y137.595 E27.28037
G1 X100.017 Y137.424 E27.35409
G1 X99.533 Y137.269 E27.41507
G1 X99.036 Y137.062 E27.47968
G1 X98.545 Y136.806 E27.54613
G1 X98.096 Y136.556 E27.6078
G1 X97.672 Y136.273 E27.66897
G1 X97.224 Y135.917 E27.73764
G1 X96.805 Y135.56 E27.80369
G1 X96.434 Y135.187 E27.86682
G1 X96.102 Y134.791 E27.92883
G1 X95.753 Y134.35 E27.99632
G1 X95.399 Y133.817 E28.0731
G1 X94.965 Y132.979 E28.18635
G1 X94.767 Y132.506 E28.24788
G1 X94.598 Y131.983 E28.31384
G1 X94.45 Y131.47 E28.37791
G1 X94.345 Y130.942 E28.44251
G1 X94.285 Y130.41 E28.50675
G1 X94.235 Y129.823 E28.57745
G1 X94.236 Y129.279 E28.64273
G1 X94.469 Y126.15 E29.01925
G1 X94.588 Y123.439 E29.34488
G1 X94.631 Y120.685 E29.6754
G1 X94.596 Y117.93 E30.00603
G1 X94.486 Y115.217 E30.33185
G1 X94.293 Y112.436 E30.66638
G1 X94.235 Y111.738 E30.75043
G1 X94.236 Y111.196 E30.81547
G1 X94.267 Y110.847 E30.85751
G1 X94.469 Y108.066 E31.19211
G1 X94.588 Y105.355 E31.51774
G1 X94.631 Y102.601 E31.84826
G1 X94.596 Y99.846 E32.17889
G1 X94.486 Y97.133 E32.50472
G1 X94.296 Y94.398 E32.83371
G1 X94.235 Y93.67 E32.92137
G1 X94.236 Y93.127 E32.98653
G1 X94.28 Y92.618 E33.04784
G1 X94.343 Y92.058 E33.11547
G1 X94.451 Y91.521 E33.1812
G1 X94.599 Y91.019 E33.244
G1 X94.762 Y90.509 E33.30825
G1 X94.963 Y90.021 E33.37158
G1 X95.2 Y89.563 E33.43346
G1 X95.468 Y89.078 E33.49996
G1 X95.753 Y88.649 E33.56176
G1 X96.1 Y88.211 E33.62882
G1 X96.464 Y87.782 E33.69633
G10
;MESH:Rims.stl
G0 F3600 X97.777 Y90.162
G0 X98.615 Y90.849
G0 X99.236 Y96.086
G11
G0 X99.871 Y96.442
;TYPE:WALL-OUTER
G1 F1800 X99.872 Y90.389 E34.42269
G1 X101.6 Y88.662 E34.71586
G1 X101.524 Y88.67 E34.72503
G1 X100.585 Y88.956 E34.84282
G1 X99.765 Y89.395 E34.95444
G1 X99.032 Y89.997 E35.06826
G1 X98.429 Y90.731 E35.18225
G1 X97.985 Y91.562 E35.29531
G1 X97.712 Y92.455 E35.40737
G1 X97.616 Y93.4 E35.52135
G1 X97.713 Y94.375 E35.63893
G1 X97.982 Y95.263 E35.75027
G1 X98.429 Y96.1 E35.86414
G1 X99.028 Y96.83 E35.97745
G1 X99.756 Y97.43 E36.09066
G1 X100.586 Y97.877 E36.20378
G1 X101.617 Y98.188 E36.33301
G1 X99.871 Y96.442 E36.62932
G0 F3600 X99.871 Y96.242
G10
G0 X99.236 Y96.086
G0 X100.899 Y97.759
G0 X101.655 Y97.003
G0 X103.244 Y97.007
G0 X104 Y97.762
G0 X105.667 Y96.082
G11
G0 X105.03 Y96.444
G1 F1800 X103.282 Y98.192 E36.92596
G1 X104.298 Y97.885 E37.05333
G1 X105.13 Y97.441 E37.16649
G1 X105.859 Y96.844 E37.27956
G1 X106.487 Y96.08 E37.39824
G1 X106.927 Y95.249 E37.51108
G1 X107.196 Y94.354 E37.62322
G1 X107.277 Y93.521 E37.72365
G1 X107.288 Y93.412 E37.7368
G1 X107.194 Y92.471 E37.85028
G1 X106.925 Y91.58 E37.96197
G1 X106.481 Y90.743 E38.07567
G1 X105.869 Y89.995 E38.19164
G1 X105.129 Y89.389 E38.30642
G1 X104.3 Y88.948 E38.4191
G1 X103.281 Y88.639 E38.54688
G1 X105.031 Y90.387 E38.84369
G1 X105.03 Y96.444 E39.57053
G0 F3600 X104.889 Y96.585
G0 X105.269 Y96.791
;TYPE:WALL-INNER
G1 F1765.9 X104.912 Y97.115 E39.6294
G10
G0 F3600 X104 Y97.762
G0 X103.244 Y97.007
G0 X101.655 Y97.003
G0 X99.976 Y97.102
G11
G1 F1761.2 X99.634 Y96.791 E39.68598
G0 F3600 X99.236 Y96.086
G0 X98.318 Y93.395
G0 X98.018 Y93.4
G1 F1800 X98.107 Y94.296 E39.79403
G1 X98.353 Y95.109 E39.89596
G1 X98.763 Y95.876 E40.00032
G1 X99.312 Y96.546 E40.10426
G1 F1728.4 X99.634 Y96.791 E40.15464
G1 X99.469 Y96.444 E40.20247
G1 F1800 X99.469 Y90.387 E40.92931
G1 F1728.4 X99.634 Y90.04 E40.97715
G1 X99.316 Y90.281 E41.02683
G1 F1800 X98.763 Y90.955 E41.13145
G1 X98.356 Y91.716 E41.23501
G1 X98.106 Y92.535 E41.33776
G1 X98.018 Y93.4 E41.4421
G0 F3600 X98.318 Y93.395
G0 X99.236 Y90.745
G0 X99.634 Y90.04
G1 F1765.9 X99.984 Y89.722 E41.49984
G10
G0 F3600 X100.897 Y89.075
G0 X101.653 Y89.831
G0 X103.245 Y89.826
G0 X104.911 Y89.716
G11
G1 F1765.9 X105.303 Y90.069 E41.56425
G1 F1719.3 X105.434 Y90.38 E41.60647
G1 F1795.1 X105.434 Y96.452 E42.33693
G1 F1723.8 X105.269 Y96.791 E42.38398
G1 X105.575 Y96.559 E42.4319
G1 F1800 X106.152 Y95.857 E42.54095
G1 X106.555 Y95.096 E42.64428
G1 X106.802 Y94.276 E42.74705
G1 X106.879 Y93.482 E42.84278
G1 X106.886 Y93.412 E42.85122
G1 X106.8 Y92.549 E42.95529
G1 X106.553 Y91.733 E43.0576
G1 X106.146 Y90.965 E43.1619
G1 F1790.1 X105.584 Y90.28 E43.26876
G1 F1714.7 X105.303 Y90.069 E43.31282
G0 F3600 X105.667 Y90.747
G0 X105.878 Y91.405
G1 F1439.6 X105.878 Y92.684 E43.50045
G1 F1385.2 X105.897 Y93.412 E43.611
G1 X105.878 Y94.142 E43.72185
G1 F1439.6 X105.878 Y95.426 E43.91021
G1 X106.142 Y94.927 E43.99303
G1 X106.364 Y94.189 E44.10609
G1 F1385.2 X106.419 Y93.437 E44.22055
G1 X106.363 Y92.636 E44.34243
G1 F1439.6 X106.141 Y91.903 E44.45479
G1 X105.878 Y91.405 E44.53741
G10
G0 F3600 X105.254 Y92.623
G0 X104.169 Y92.623
G0 X100.734 Y92.623
G0 X99.649 Y92.623
G0 X98.542 Y92.623
G11
G1 F1388.3 X98.482 Y93.4 E44.65547
G1 X98.544 Y94.209 E44.7784
G1 F1449.6 X98.764 Y94.939 E44.88956
G1 X99.026 Y95.43 E44.9707
G1 X99.026 Y94.162 E45.15558
G1 F1388.3 X99.007 Y93.4 E45.27105
G1 X99.026 Y92.671 E45.38154
G1 F1446.3 X99.026 Y91.401 E45.56708
G1 X98.766 Y91.886 E45.64748
G1 X98.542 Y92.623 E45.76002
G0 F3600 X98.693 Y92.669
G10
G0 X99.702 Y96.609
G0 X100.899 Y97.759
G0 X100.589 Y98.782
G0 X104.31 Y106.13
G0 X104 Y107.154
G0 X105.667 Y108.834
G11
G0 X105.029 Y108.469
;TYPE:WALL-OUTER
G1 F1805 X105.029 Y114.529 E46.4854
G1 X103.282 Y116.276 E46.78114
G1 F1800 X104.298 Y115.969 E46.9085
G1 X105.13 Y115.525 E47.02167
G1 F1805 X105.86 Y114.93 E47.1344
G1 X106.487 Y114.165 E47.25279
G1 F1800 X106.926 Y113.333 E47.36568
G1 X107.196 Y112.438 E47.47786
G1 X107.277 Y111.605 E47.57829
G1 X107.288 Y111.496 E47.59144
G1 X107.194 Y110.555 E47.70492
G1 X106.925 Y109.664 E47.81661
G1 X106.481 Y108.827 E47.9303
G1 F1805 X105.857 Y108.067 E48.04801
G1 X105.129 Y107.474 E48.1604
G1 F1800 X104.3 Y107.032 E48.27314
G1 X103.285 Y106.726 E48.40036
G1 F1805 X105.029 Y108.469 E48.6955
G0 F3600 X105.029 Y108.669
G10
G0 X105.667 Y108.834
G0 X105.254 Y114.171
G0 X104.169 Y114.171
G0 X100.734 Y114.171
G0 X99.649 Y114.171
G11
G0 X99.871 Y114.526
G1 F1800 X99.872 Y108.476 E49.4215
G1 X101.6 Y106.747 E49.71483
G1 X101.524 Y106.755 E49.724
G1 X100.585 Y107.04 E49.84176
G1 X99.765 Y107.48 E49.95343
G1 X99.032 Y108.082 E50.06725
G1 X98.429 Y108.815 E50.18115
G1 X97.985 Y109.647 E50.29432
G1 X97.712 Y110.539 E50.40626
G1 X97.616 Y111.484 E50.52024
G1 X97.713 Y112.459 E50.63782
G1 X97.982 Y113.347 E50.74916
G1 X98.428 Y114.184 E50.86297
G1 X99.028 Y114.914 E50.97636
G1 X99.755 Y115.514 E51.08948
G1 X100.586 Y115.961 E51.20271
G1 X101.617 Y116.272 E51.33194
G1 X99.871 Y114.526 E51.62824
G0 F3600 X99.871 Y114.326
G0 X99.633 Y114.875
;TYPE:WALL-INNER
G1 F1761.2 X99.975 Y115.186 E51.68482
G0 F3600 X98.318 Y111.479
G0 X98.018 Y111.484
G1 F1800 X98.107 Y112.38 E51.79287
G1 X98.353 Y113.193 E51.8948
G1 X98.762 Y113.961 E51.99921
G1 X99.312 Y114.63 E52.10314
G1 F1728.4 X99.633 Y114.875 E52.15342
G1 X99.469 Y114.528 E52.2012
G1 F1800 X99.469 Y108.472 E52.92792
G1 F1728.4 X99.633 Y108.125 E52.9757
G1 X99.316 Y108.366 E53.02528
G1 F1800 X98.763 Y109.039 E53.12981
G1 X98.356 Y109.801 E53.23347
G1 X98.106 Y110.619 E53.33612
G1 X98.018 Y111.484 E53.44045
G0 F3600 X98.318 Y111.479
G0 X99.236 Y108.829
G0 X99.633 Y108.125
G1 F1765.9 X99.984 Y107.807 E53.49828
G10
G0 F3600 X100.898 Y107.158
G0 X101.655 Y107.913
G0 X103.245 Y107.91
G0 X104.912 Y107.801
G11
G1 F1765.9 X105.303 Y108.153 E53.56252
G1 F1719.3 X105.434 Y108.46 E53.60427
G1 F1795.1 X105.434 Y114.537 E54.33534
G1 F1728.4 X105.27 Y114.875 E54.38211
G1 X105.575 Y114.644 E54.42975
G1 F1800 X106.152 Y113.942 E54.53879
G1 X106.554 Y113.181 E54.64207
G1 X106.802 Y112.36 E54.74498
G1 X106.879 Y111.566 E54.84071
G1 X106.886 Y111.496 E54.84915
G1 X106.8 Y110.633 E54.95323
G1 X106.553 Y109.817 E55.05553
G1 X106.147 Y109.05 E55.15967
G1 F1790.1 X105.571 Y108.354 E55.26863
G1 F1714.7 X105.303 Y108.153 E55.31064
G0 F3600 X105.667 Y108.834
G0 X105.878 Y110.768
G1 F1385.2 X105.897 Y111.496 E55.42118
G1 X105.878 Y112.226 E55.53204
G1 F1439.6 X105.879 Y113.51 E55.7204
G1 X106.141 Y113.011 E55.80308
G1 X106.364 Y112.273 E55.91618
G1 F1385.2 X106.419 Y111.521 E56.03064
G1 X106.363 Y110.72 E56.15252
G1 F1439.6 X106.141 Y109.987 E56.26488
G1 X105.877 Y109.488 E56.3477
G1 X105.878 Y110.768 E56.53547
G0 F3600 X105.667 Y114.167
G0 X105.27 Y114.875
G1 F1765.9 X104.912 Y115.198 E56.59435
G10
G0 F3600 X105.254 Y110.707
G0 X104.169 Y110.707
G0 X100.734 Y110.707
G0 X99.649 Y110.707
G0 X98.542 Y110.707
G11
G1 F1388.3 X98.482 Y111.484 E56.71241
G1 X98.544 Y112.293 E56.83533
G1 F1449.6 X98.764 Y113.024 E56.94664
G1 X99.026 Y113.515 E57.02778
G1 X99.026 Y112.246 E57.2128
G1 F1388.3 X99.007 Y111.484 E57.32828
G1 X99.026 Y110.755 E57.43876
G1 F1446.3 X99.026 Y109.485 E57.62431
G1 X98.766 Y109.971 E57.70483
G1 X98.542 Y110.707 E57.81723
G0 F3600 X98.693 Y110.753
G10
G0 X99.877 Y115.331
G0 X99.364 Y116.286
G0 X100.587 Y124.22
G0 X100.898 Y125.242
G0 X99.702 Y126.391
G0 X99.236 Y132.255
G11
G0 X99.871 Y132.611
;TYPE:WALL-OUTER
G1 F1800 X99.872 Y126.56 E58.54335
G1 X101.6 Y124.831 E58.83669
G1 X101.524 Y124.839 E58.84586
G1 X100.585 Y125.124 E58.96361
G1 X99.765 Y125.564 E59.07529
G1 X99.032 Y126.166 E59.18911
G1 X98.429 Y126.9 E59.3031
G1 X97.985 Y127.731 E59.41616
G1 X97.712 Y128.623 E59.5281
G1 X97.616 Y129.568 E59.64209
G1 X97.713 Y130.543 E59.75966
G1 X97.982 Y131.431 E59.87101
G1 X98.428 Y132.268 E59.98481
G1 X99.028 Y132.999 E60.0983
G1 X99.756 Y133.599 E60.21151
G1 X100.586 Y134.045 E60.32457
G1 X101.618 Y134.358 E60.45399
G1 X99.871 Y132.611 E60.75046
G0 F3600 X99.871 Y132.411
G10
G0 X99.236 Y132.255
G0 X100.898 Y133.926
G0 X101.654 Y133.17
G0 X103.244 Y133.175
G0 X104 Y133.931
G0 X105.667 Y132.251
G11
G0 X105.03 Y132.613
G1 F1800 X103.281 Y134.361 E61.04719
G1 X104.298 Y134.053 E61.17471
G1 X105.13 Y133.61 E61.28782
G1 X105.859 Y133.013 E61.40089
