;FLAVOR:Marlin
;TIME:2318
;Filament used: 1.13202m
;Layer height: 0.2
;MINX:89.383
;MINY:89.388
;MINZ:0.3
;MAXX:133.621
;MAXY:133.479
;MAXZ:20.5
;Generated with Cura_SteamEngine 5.2.1
M140 S60
M105
M190 S60
M104 S225
M105
M109 S225
M82 ;absolute extrusion mode
G21 ;metric values
G90 ;absolute positioning
M82 ;set extruder to absolute mode
M107 ;start with the fan off
G28 Z0 ;move Z to bottom endstops
G28 X0 Y0 ;move X/Y to endstops
G1 X15 Y0 F4000 ;move X/Y to front of printer
G1 Z15.0 F9000 ;move the platform to 15mm
G92 E0 ;zero the extruded length
G1 F200 E10 ;extrude 10 mm of feed stock
G92 E0 ;zero the extruded length again
G1 Y50 F9000
;Put printing message on LCD screen
M117 Printing...
G92 E0
G92 E0
G1 F1500 E-6.5
;LAYER_COUNT:102
;LAYER:0
M107
G0 F3600 X94.944 Y96.839 Z0.3
;TYPE:SKIRT
G1 F1500 E0
G1 F1800 X96.041 Y95.879 E0.02742
G1 X97.582 Y94.482 E0.06655
G1 X98.656 Y93.522 E0.09364
G1 X99.394 Y92.98 E0.11087
G1 X100.77 Y92.158 E0.14102
G1 X101.631 Y91.716 E0.15922
G1 X102.342 Y91.374 E0.17406
G1 X102.97 Y91.084 E0.18708
G1 X103.629 Y90.83 E0.20036
G1 X104.963 Y90.513 E0.22615
G1 X107.649 Y89.834 E0.27827
G1 X108.269 Y89.665 E0.29035
G1 X109.056 Y89.52 E0.30541
G1 X109.778 Y89.448 E0.31906
G1 X110.355 Y89.408 E0.32994
G1 X111.194 Y89.388 E0.34572
G1 X111.784 Y89.392 E0.35682
G1 X112.717 Y89.422 E0.37438
G1 X113.454 Y89.461 E0.38826
G1 X114.147 Y89.542 E0.40139
G1 X115.457 Y89.876 E0.42682
G1 X118.984 Y90.711 E0.495
G1 X119.851 Y91.01 E0.51225
G1 X121.263 Y91.653 E0.54143
G1 X122.056 Y92.072 E0.5583
G1 X122.756 Y92.468 E0.57343
G1 X123.466 Y92.888 E0.58895
G1 X124.046 Y93.283 E0.60215
G1 X125.129 Y94.259 E0.62957
G1 X126.885 Y95.776 E0.67322
G1 X127.714 Y96.505 E0.69399
G1 X128.209 Y97.01 E0.70729
G1 X128.645 Y97.531 E0.72007
G1 X129.355 Y98.443 E0.74181
G1 X129.89 Y99.224 E0.75962
G1 X130.311 Y99.875 E0.7742
G1 X130.747 Y100.582 E0.78983
G1 X131.076 Y101.203 E0.80305
G1 X131.561 Y102.511 E0.82929
G1 X132.347 Y104.513 E0.86974
G1 X132.827 Y105.761 E0.8949
G1 X133.031 Y106.435 E0.90814
G1 X133.218 Y107.282 E0.92446
G1 X133.331 Y107.908 E0.93642
G1 X133.403 Y108.411 E0.94598
G1 X133.481 Y109.078 E0.95862
G1 X133.569 Y110.069 E0.97733
G1 X133.618 Y110.772 E0.99059
G1 X133.621 Y111.478 E1.00387
G1 X133.447 Y112.827 E1.02945
G1 X133.19 Y115.174 E1.07386
G1 X133.053 Y116.336 E1.09587
G1 X132.918 Y117.033 E1.10923
G1 X132.69 Y117.863 E1.12542
G1 X132.501 Y118.462 E1.13723
G1 X132.314 Y118.988 E1.14773
G1 X132.055 Y119.66 E1.16128
G1 X131.747 Y120.398 E1.17632
G1 X131.415 Y121.151 E1.1918
G1 X131.088 Y121.779 E1.20512
G1 X130.277 Y122.934 E1.23167
G1 X129.098 Y124.687 E1.27141
G1 X128.306 Y125.847 E1.29783
G1 X127.8 Y126.489 E1.31321
G1 X126.862 Y127.423 E1.33811
G1 X126.327 Y127.915 E1.35178
G1 X125.932 Y128.256 E1.36159
G1 X125.243 Y128.83 E1.37846
G1 X124.665 Y129.291 E1.39237
G1 X124.093 Y129.69 E1.40549
G1 X122.789 Y130.361 E1.43308
G1 X120.949 Y131.356 E1.47242
G1 X119.763 Y131.984 E1.49767
G1 X119.12 Y132.266 E1.51087
G1 X118.292 Y132.557 E1.52738
G1 X117.704 Y132.738 E1.53896
G1 X117.214 Y132.87 E1.5485
G1 X116.537 Y133.033 E1.5616
G1 X115.557 Y133.242 E1.58045
G1 X114.899 Y133.369 E1.59306
G1 X114.199 Y133.458 E1.60633
G1 X112.736 Y133.447 E1.63385
G1 X110.652 Y133.472 E1.67305
G1 X109.304 Y133.479 E1.69841
G1 X108.595 Y133.43 E1.71178
G1 X107.935 Y133.335 E1.72432
G1 X107.346 Y133.233 E1.73557
G1 X106.428 Y133.03 E1.75325
G1 X105.929 Y132.903 E1.76294
G1 X104.987 Y132.638 E1.78134
G1 X104.343 Y132.443 E1.794
G1 X103.69 Y132.199 E1.80711
G1 X102.452 Y131.538 E1.83351
G1 X99.366 Y129.953 E1.89877
G1 X98.745 Y129.571 E1.91249
G1 X98.027 Y129.048 E1.9292
G1 X97.547 Y128.669 E1.9407
G1 X97.017 Y128.216 E1.95381
G1 X96.633 Y127.869 E1.96355
G1 X96.02 Y127.292 E1.97939
G1 X95.435 Y126.719 E1.99479
G1 X94.959 Y126.188 E2.0082
G1 X94.185 Y125.046 E2.03415
G1 X92.189 Y122.211 E2.09937
G1 X91.817 Y121.587 E2.11304
G1 X91.491 Y120.92 E2.127
G1 X90.989 Y119.78 E2.15043
G1 X90.697 Y118.991 E2.16626
G1 X90.528 Y118.506 E2.17592
G1 X90.204 Y117.507 E2.19568
G1 X90.029 Y116.814 E2.20912
G1 X89.872 Y115.427 E2.23538
G1 X89.528 Y112.719 E2.28673
G1 X89.433 Y112.071 E2.29905
G1 X89.383 Y111.271 E2.31412
G1 X89.398 Y110.569 E2.32733
G1 X89.429 Y109.979 E2.33845
G1 X89.536 Y108.882 E2.35918
G1 X89.731 Y107.617 E2.38325
G1 X89.853 Y106.916 E2.39664
G1 X90.017 Y106.236 E2.4098
G1 X90.538 Y104.893 E2.43689
G1 X91.338 Y102.704 E2.48073
G1 X91.732 Y101.653 E2.50185
G1 X92.031 Y101.006 E2.51525
G1 X92.38 Y100.378 E2.52877
G1 X92.67 Y99.89 E2.53945
G1 X93.149 Y99.159 E2.55589
G1 X93.442 Y98.741 E2.56549
G1 X94.045 Y97.925 E2.58457
G1 X94.481 Y97.362 E2.59797
G1 X94.944 Y96.839 E2.61111
G0 F3600 X95.381 Y96.987
G1 F1800 X96.33 Y96.158 E2.63481
G1 X97.849 Y94.781 E2.67338
G1 X98.923 Y93.821 E2.70047
G1 X99.599 Y93.323 E2.71627
G1 X100.954 Y92.514 E2.74595
G1 X101.805 Y92.076 E2.76396
G1 X102.509 Y91.737 E2.77866
G1 X103.137 Y91.447 E2.79167
G1 X103.965 Y91.161 E2.80815
G1 X105.074 Y90.898 E2.82959
G1 X107.742 Y90.223 E2.88135
G1 X108.374 Y90.051 E2.89367
G1 X109.095 Y89.918 E2.90747
G1 X109.973 Y89.833 E2.92406
G1 X110.573 Y89.799 E2.93536
G1 X111.191 Y89.788 E2.94699
G1 X111.893 Y89.794 E2.96019
G1 X112.696 Y89.821 E2.97531
G1 X113.433 Y89.86 E2.98919
G1 X114.287 Y89.99 E3.00544
G1 X115.412 Y90.277 E3.02728
G1 X117.492 Y90.764 E3.06746
G1 X118.89 Y91.1 E3.09451
G1 X119.686 Y91.374 E3.11035
G1 X121.083 Y92.01 E3.13922
G1 X121.859 Y92.42 E3.15573
G1 X122.559 Y92.816 E3.17086
G1 X123.262 Y93.232 E3.18622
G1 X123.963 Y93.747 E3.20258
G1 X124.849 Y94.545 E3.22501
G1 X126.621 Y96.077 E3.26908
G1 X127.45 Y96.806 E3.28984
G1 X127.903 Y97.268 E3.30201
G1 X128.329 Y97.777 E3.3145
G1 X129.041 Y98.691 E3.33629
G1 X129.554 Y99.442 E3.3534
G1 X129.975 Y100.093 E3.36798
G1 X130.406 Y100.792 E3.38343
G1 X130.785 Y101.568 E3.39968
G1 X131.207 Y102.705 E3.42249
G1 X131.974 Y104.656 E3.46192
G1 X132.454 Y105.904 E3.48707
G1 X132.641 Y106.522 E3.49922
G1 X132.794 Y107.205 E3.51239
G1 X132.904 Y107.777 E3.52334
G1 X133.007 Y108.468 E3.53648
G1 X133.095 Y109.236 E3.55103
G1 X133.164 Y110.015 E3.56574
G1 X133.219 Y110.8 E3.58054
G1 X133.194 Y111.67 E3.59691
G1 X133.043 Y112.84 E3.6191
G1 X132.793 Y115.127 E3.66238
G1 X132.656 Y116.289 E3.68439
G1 X132.532 Y116.928 E3.69663
G1 X132.348 Y117.605 E3.70983
G1 X132.124 Y118.328 E3.72407
G1 X131.937 Y118.854 E3.73457
G1 X131.686 Y119.506 E3.74771
G1 X131.343 Y120.325 E3.76441
G1 X131.05 Y120.989 E3.77806
G1 X130.625 Y121.741 E3.79431
G1 X129.95 Y122.703 E3.81642
G1 X128.768 Y124.461 E3.85627
G1 X127.976 Y125.621 E3.88269
G1 X127.503 Y126.221 E3.89706
G1 X126.591 Y127.129 E3.92127
G1 X126.065 Y127.613 E3.93471
G1 X125.676 Y127.949 E3.94438
G1 X124.994 Y128.517 E3.96108
G1 X124.416 Y128.978 E3.97498
G1 X123.686 Y129.45 E3.99134
G1 X122.576 Y130.022 E4.01482
G1 X120.762 Y131.003 E4.05362
G1 X119.576 Y131.631 E4.07886
G1 X118.986 Y131.889 E4.09097
G1 X118.172 Y132.175 E4.1072
G1 X117.6 Y132.352 E4.11847
G1 X117.11 Y132.484 E4.12801
G1 X116.445 Y132.644 E4.14088
G1 X115.481 Y132.849 E4.15942
G1 X114.823 Y132.976 E4.17202
G1 X113.958 Y133.056 E4.18836
G1 X112.734 Y133.047 E4.21139
G1 X110.65 Y133.072 E4.25059
G1 X109.302 Y133.079 E4.27595
G1 X108.652 Y133.034 E4.28821
G1 X107.849 Y132.916 E4.30347
G1 X107.218 Y132.799 E4.31554
G1 X106.323 Y132.596 E4.33281
G1 X105.191 Y132.281 E4.35491
G1 X104.459 Y132.06 E4.36929
G1 X103.663 Y131.731 E4.38549
G1 X102.608 Y131.168 E4.40799
G1 X99.549 Y129.597 E4.47267
G1 X98.979 Y129.247 E4.48526
G1 X98.272 Y128.732 E4.50171
G1 X97.806 Y128.364 E4.51288
G1 X97.285 Y127.919 E4.52577
G1 X96.906 Y127.577 E4.53537
G1 X96.367 Y127.071 E4.54928
G1 X95.715 Y126.433 E4.56644
G1 X95.152 Y125.759 E4.58296
G1 X94.529 Y124.84 E4.60384
G1 X92.516 Y121.981 E4.66961
G1 X92.175 Y121.409 E4.68214
G1 X91.857 Y120.759 E4.69575
G1 X91.36 Y119.631 E4.71894
G1 X91.075 Y118.86 E4.7344
G1 X90.874 Y118.281 E4.74593
G1 X90.584 Y117.384 E4.76366
G1 X90.399 Y116.524 E4.78021
G1 X90.277 Y115.442 E4.80069
G1 X89.921 Y112.637 E4.85388
G1 X89.829 Y112.013 E4.86574
G1 X89.783 Y111.28 E4.87956
G1 X89.81 Y110.187 E4.90012
G1 X89.913 Y109.142 E4.91988
G1 X89.988 Y108.568 E4.93077
G1 X90.125 Y107.686 E4.94756
G1 X90.247 Y106.985 E4.96094
G1 X90.481 Y106.146 E4.97732
G1 X90.898 Y105.072 E4.999
G1 X91.713 Y102.844 E5.04362
G1 X92.107 Y101.793 E5.06474
G1 X92.381 Y101.201 E5.07701
G1 X92.916 Y100.243 E5.09765
G1 X93.477 Y99.388 E5.11688
G1 X93.834 Y98.881 E5.12855
G1 X94.301 Y98.249 E5.14333
G1 X94.797 Y97.607 E5.15859
G1 X95.381 Y96.987 E5.17461
G0 F3600 X95.644 Y97.289
G1 F1800 X96.567 Y96.483 E5.19766
G1 X98.115 Y95.079 E5.23697
G1 X99.189 Y94.119 E5.26407
G1 X99.804 Y93.667 E5.27843
G1 X101.154 Y92.861 E5.308
G1 X101.884 Y92.484 E5.32346
G1 X102.677 Y92.101 E5.34002
G1 X103.305 Y91.811 E5.35303
G1 X104.057 Y91.55 E5.36801
G1 X105.193 Y91.28 E5.38997
G1 X107.849 Y90.609 E5.4415
G1 X108.48 Y90.437 E5.4538
G1 X109.135 Y90.316 E5.46633
G1 X109.999 Y90.232 E5.48266
G1 X110.581 Y90.199 E5.49363
G1 X111.188 Y90.188 E5.50505
G1 X111.88 Y90.194 E5.51807
G1 X112.592 Y90.217 E5.53147
G1 X113.411 Y90.26 E5.54689
G1 X114.189 Y90.378 E5.56169
G1 X115.283 Y90.657 E5.58293
G1 X118.797 Y91.489 E5.65086
G1 X119.52 Y91.738 E5.66524
G1 X120.798 Y92.32 E5.69166
G1 X121.663 Y92.768 E5.70998
G1 X122.363 Y93.164 E5.72511
G1 X123.058 Y93.576 E5.74031
G1 X123.695 Y94.044 E5.75518
G1 X124.587 Y94.847 E5.77775
G1 X126.356 Y96.377 E5.82175
G1 X127.185 Y97.106 E5.84252
G1 X127.598 Y97.527 E5.85361
G1 X128.013 Y98.023 E5.86577
G1 X128.722 Y98.933 E5.88747
G1 X129.218 Y99.659 E5.90401
G1 X129.686 Y100.384 E5.92024
G1 X130.066 Y101.001 E5.93388
G1 X130.41 Y101.708 E5.94867
G1 X130.816 Y102.803 E5.97063
G1 X131.6 Y104.8 E6.01099
G1 X132.08 Y106.048 E6.03614
G1 X132.25 Y106.61 E6.04719
G1 X132.403 Y107.293 E6.06035
G1 X132.539 Y108.021 E6.07428
G1 X132.611 Y108.524 E6.08384
G1 X132.686 Y109.169 E6.09606
G1 X132.771 Y110.125 E6.11411
G1 X132.82 Y110.828 E6.12737
G1 X132.797 Y111.618 E6.14223
G1 X132.646 Y112.789 E6.16444
G1 X132.395 Y115.08 E6.20779
G1 X132.258 Y116.242 E6.2298
G1 X132.146 Y116.823 E6.24093
G1 X131.962 Y117.5 E6.25413
G1 X131.747 Y118.194 E6.2678
G1 X131.442 Y119.046 E6.28482
G1 X130.977 Y120.164 E6.3076
G1 X130.684 Y120.828 E6.32125
G1 X130.298 Y121.511 E6.33601
G1 X129.616 Y122.483 E6.35834
G1 X128.437 Y124.235 E6.39806
G1 X127.645 Y125.395 E6.42449
G1 X127.218 Y125.939 E6.43749
G1 X126.319 Y126.836 E6.46138
G1 X125.803 Y127.311 E6.47458
G1 X125.42 Y127.642 E6.4841
G1 X124.812 Y128.149 E6.49899
G1 X124.166 Y128.665 E6.51454
G1 X123.503 Y129.094 E6.5294
G1 X122.419 Y129.652 E6.55233
G1 X120.575 Y130.649 E6.59176
G1 X119.389 Y131.277 E6.61701
G1 X118.853 Y131.512 E6.62801
G1 X117.837 Y131.87 E6.64828
G1 X116.893 Y132.126 E6.66668
G1 X116.255 Y132.277 E6.67901
G1 X115.405 Y132.457 E6.69535
G1 X114.747 Y132.584 E6.70796
G1 X113.961 Y132.656 E6.72281
G1 X112.732 Y132.647 E6.74592
G1 X110.648 Y132.672 E6.78513
G1 X109.3 Y132.679 E6.81049
G1 X108.709 Y132.638 E6.82163
G1 X108.049 Y132.543 E6.83417
G1 X107.306 Y132.409 E6.84837
G1 X106.386 Y132.201 E6.86612
G1 X105.299 Y131.896 E6.88735
G1 X104.575 Y131.677 E6.90158
G1 X103.851 Y131.378 E6.91632
G1 X102.762 Y130.797 E6.93953
G1 X99.732 Y129.241 E7.00361
G1 X99.214 Y128.923 E7.01504
G1 X98.518 Y128.417 E7.03123
G1 X98.065 Y128.059 E7.04209
G1 X97.553 Y127.622 E7.05475
G1 X97.18 Y127.285 E7.0642
G1 X96.58 Y126.721 E7.07969
G1 X95.995 Y126.148 E7.0951
G1 X95.483 Y125.535 E7.11012
G1 X94.854 Y124.607 E7.13121
G1 X92.843 Y121.751 E7.19691
G1 X92.533 Y121.231 E7.2083
G1 X92.302 Y120.767 E7.21805
G1 X91.731 Y119.481 E7.24452
G1 X91.453 Y118.728 E7.25962
G1 X91.255 Y118.157 E7.27099
G1 X90.965 Y117.26 E7.28872
G1 X90.796 Y116.479 E7.30375
G1 X90.667 Y115.337 E7.32537
G1 X90.328 Y112.664 E7.37605
G1 X90.224 Y111.955 E7.38953
G1 X90.183 Y111.289 E7.40208
G1 X90.198 Y110.587 E7.41529
G1 X90.228 Y110.025 E7.42588
G1 X90.331 Y108.985 E7.44554
G1 X90.519 Y107.754 E7.46896
G1 X90.641 Y107.053 E7.48235
G1 X90.853 Y106.291 E7.49722
G1 X91.292 Y105.161 E7.52003
G1 X92.088 Y102.985 E7.56361
G1 X92.482 Y101.934 E7.58473
G1 X92.731 Y101.395 E7.59589
G1 X93.145 Y100.653 E7.61188
G1 X93.448 Y100.155 E7.62284
G1 X93.741 Y99.711 E7.63285
G1 X94.156 Y99.119 E7.64645
G1 X94.677 Y98.415 E7.66292
G1 X95.113 Y97.852 E7.67632
G1 X95.644 Y97.289 E7.69087
G0 F3600 X95.908 Y97.59
G1 F1800 X96.817 Y96.796 E7.71358
G1 X98.382 Y95.377 E7.75332
G1 X99.456 Y94.417 E7.78041
G1 X100.009 Y94.01 E7.79333
G1 X101.341 Y93.214 E7.82252
G1 X102.153 Y92.797 E7.83969
G1 X102.845 Y92.464 E7.85413
G1 X103.473 Y92.174 E7.86715
G1 X104.15 Y91.94 E7.88062
G1 X105.244 Y91.68 E7.90177
G1 X107.943 Y90.998 E7.95414
G1 X108.585 Y90.823 E7.96665
G1 X109.175 Y90.714 E7.97794
G1 X110.248 Y90.609 E7.99822
G1 X111.185 Y90.588 E8.01585
G1 X111.775 Y90.592 E8.02695
G1 X112.653 Y90.62 E8.04347
G1 X113.39 Y90.659 E8.05736
G1 X114.09 Y90.766 E8.07068
G1 X115.191 Y91.047 E8.09205
G1 X117.305 Y91.542 E8.13289
G1 X118.703 Y91.878 E8.15994
G1 X119.354 Y92.102 E8.17289
G1 X120.812 Y92.772 E8.20307
G1 X121.466 Y93.117 E8.21698
G1 X122.228 Y93.549 E8.23346
G1 X122.854 Y93.92 E8.24714
G1 X123.428 Y94.342 E8.26055
G1 X124.314 Y95.14 E8.28298
G1 X126.092 Y96.678 E8.3272
G1 X126.921 Y97.407 E8.34796
G1 X127.292 Y97.785 E8.35793
G1 X127.698 Y98.269 E8.36981
G1 X128.327 Y99.077 E8.38907
G1 X128.882 Y99.876 E8.40737
G1 X129.303 Y100.527 E8.42195
G1 X129.725 Y101.211 E8.43707
G1 X130.035 Y101.847 E8.45038
G1 X130.444 Y102.95 E8.47251
G1 X131.227 Y104.944 E8.51281
G1 X131.707 Y106.192 E8.53796
G1 X131.86 Y106.697 E8.54788
G1 X132.013 Y107.38 E8.56105
G1 X132.143 Y108.078 E8.5744
G1 X132.228 Y108.682 E8.58588
G1 X132.289 Y109.215 E8.59597
G1 X132.367 Y110.085 E8.6124
G1 X132.421 Y110.856 E8.62694
G1 X132.4 Y111.567 E8.64032
G1 X132.254 Y112.697 E8.66175
G1 X131.998 Y115.034 E8.70597
G1 X131.861 Y116.196 E8.72798
G1 X131.76 Y116.718 E8.73799
G1 X131.481 Y117.736 E8.75784
G1 X131.183 Y118.586 E8.77478
G1 X130.947 Y119.198 E8.78712
G1 X130.611 Y120.002 E8.80351
G1 X130.318 Y120.666 E8.81717
G1 X129.971 Y121.281 E8.83045
G1 X129.274 Y122.274 E8.85327
G1 X128.107 Y124.01 E8.89262
G1 X127.315 Y125.17 E8.91904
G1 X126.923 Y125.667 E8.93094
G1 X126.151 Y126.442 E8.95152
G1 X125.419 Y127.122 E8.97032
G1 X124.556 Y127.842 E8.99146
G1 X123.917 Y128.352 E9.00684
G1 X123.32 Y128.739 E9.02022
G1 X122.205 Y129.313 E9.04381
G1 X120.388 Y130.296 E9.08267
G1 X119.202 Y130.924 E9.10791
G1 X118.719 Y131.135 E9.11783
G1 X117.931 Y131.412 E9.13354
G1 X117.391 Y131.579 E9.14417
G1 X116.8 Y131.737 E9.15568
G1 X116.259 Y131.866 E9.16614
G1 X115.329 Y132.064 E9.18403
G1 X114.671 Y132.191 E9.19663
G1 X113.964 Y132.256 E9.20999
G1 X112.73 Y132.247 E9.2332
G1 X110.646 Y132.272 E9.2724
G1 X109.298 Y132.279 E9.29776
G1 X108.766 Y132.242 E9.30779
G1 X108.106 Y132.147 E9.32034
G1 X107.394 Y132.019 E9.33394
G1 X106.481 Y131.812 E9.35155
G1 X105.335 Y131.49 E9.37395
G1 X104.691 Y131.295 E9.3866
G1 X104.039 Y131.025 E9.39988
G1 X102.966 Y130.453 E9.42275
G1 X99.914 Y128.885 E9.48729
G1 X99.448 Y128.599 E9.49758
G1 X98.865 Y128.177 E9.51112
G1 X98.443 Y127.851 E9.52115
G1 X97.668 Y127.196 E9.54023
G1 X96.86 Y126.435 E9.56111
G1 X96.275 Y125.862 E9.57652
G1 X95.814 Y125.31 E9.59004
G1 X95.179 Y124.374 E9.61132
G1 X93.17 Y121.52 E9.67697
G1 X92.891 Y121.052 E9.68722
G1 X92.589 Y120.436 E9.70013
G1 X92.101 Y119.329 E9.72288
G1 X91.83 Y118.597 E9.73757
G1 X91.661 Y118.112 E9.74723
G1 X91.346 Y117.137 E9.7665
G1 X91.194 Y116.434 E9.78003
G1 X91.065 Y115.292 E9.80165
G1 X90.724 Y112.605 E9.8526
G1 X90.62 Y111.896 E9.86608
G1 X90.583 Y111.297 E9.87737
G1 X90.609 Y110.235 E9.89735
G1 X90.727 Y109.033 E9.92007
G1 X90.913 Y107.823 E9.9431
G1 X91.035 Y107.122 E9.95648
G1 X91.226 Y106.436 E9.96988
G1 X91.666 Y105.302 E9.99276
G1 X92.462 Y103.125 E10.03636
G1 X92.856 Y102.074 E10.05747
G1 X93.08 Y101.589 E10.06752
G1 X93.429 Y100.961 E10.08104
G1 X93.699 Y100.507 E10.09097
G1 X94.075 Y99.931 E10.10391
G1 X94.425 Y99.43 E10.11541
G1 X94.994 Y98.66 E10.13342
G1 X95.43 Y98.097 E10.14681
